Sungjin-Park-dev/vision_inspection_sgu/data/sample/trajectory/163/trajectory.csv
time,ur20-shoulder_pan_joint,ur20-shoulder_lift_joint,ur20-elbow_joint,ur20-wrist_1_joint,ur20-wrist_2_joint,ur20-wrist_3_joint,target-POS_X,target-POS_Y,target-POS_Z,target-ROT_X,target-ROT_Y,target-ROT_Z,target-ROT_W
0.0,-1.2160772957377948,-2.7795429733295993,-2.128802283712234,2.1369383422804904,1.238306209831522,3.0155962261233022,-0.022119274362921715,1.0035418272018433,0.10815703868865967,3.707125971446202e-06,0.5735962102718621,0.8191381980590597,5.345225938395324e-06
1.0,-1.2177823159818697,-2.779753017066792,-2.1286740302913882,2.1368187794024363,1.23989693243479,3.016242105198472,-0.02104256860911846,1.0036107301712036,0.10801471024751663,3.000731551505113e-06,0.573591935666234,0.8191411913017658,6.510177985688852e-06
2.0,-1.218634826103907,-2.779858038935388,-2.1286099035809656,2.136758997963409,1.2406922937364238,3.016565044736056,-0.020504180341959,1.003644585609436,0.1079433411359787,2.6091987174644653e-06,0.5735900043131223,0.8191425436978891,7.029671777933389e-06
3.0,-1.2194873362259446,-2.7799630608039845,-2.128545776870543,2.1366992165243825,1.2414876550380578,3.016887984273641,-0.01996559090912342,1.0036779642105103,0.10787186026573181,2.35212635430684e-06,0.5735881470044246,0.8191438442373437,7.65273618060717e-06
4.0,-1.220339846347982,-2.7800680826725808,-2.1284816501601203,2.1366394350853555,1.2422830163396916,3.0172109238112257,-0.019427046179771423,1.0037109851837158,0.10780033469200134,2.094785846669845e-06,0.5735864210935668,0.8191450527643442,8.024035394718021e-06
5.0,-1.2211923564700196,-2.780173104541177,-2.128417523449697,2.1365796536463284,1.2430783776413257,3.0175338633488105,-0.018888557329773903,1.0037435293197632,0.10772893577814102,1.867518532082655e-06,0.5735846409499242,0.8191462992600277,8.453397109689848e-06
6.0,-1.222044866592057,-2.7802781264097733,-2.1283533967392745,2.1365198722073013,1.2438737389429595,3.0178568028863952,-0.018349962309002876,1.0037755966186523,0.10765690356492996,1.5555502309592323e-06,0.5735833207044743,0.8191472237201681,8.87408346026642e-06
7.0,-1.2228973767140945,-2.7803831482783696,-2.128289270028852,2.1364600907682743,1.2446691002445933,3.01817974242398,-0.017811233177781105,1.0038073062896729,0.10758522152900696,1.3400718177353271e-06,0.5735818836477683,0.8191482299692494,9.35562581143386e-06
8.0,-1.2237498868361318,-2.780488170146966,-2.128225143318429,2.136400309329247,1.2454644615462274,3.0185026819615643,-0.017272692173719406,1.0038385391235352,0.10751309990882874,1.0610638630551937e-06,0.5735807260900864,0.8191490405074724,9.61930130797986e-06
9.0,-1.2246023969581694,-2.780593192015562,-2.128161016608006,2.13634052789022,1.2462598228478612,3.018825621499149,-0.016733836382627487,1.0038695335388184,0.10744118690490723,9.462118177904638e-07,0.5735794089607859,0.8191499627754147,1.0016828410677835e-05
10.0,-1.2254549070802068,-2.7806982138841585,-2.1280968898975834,2.136280746451193,1.2470551841494952,3.019148561036734,-0.016195040196180344,1.0038998126983643,0.10736899077892303,6.64306303227133e-07,0.5735784318022575,0.8191506469890001,1.0407896344765074e-05
11.0,-1.2263074172022443,-2.780803235752755,-2.1280327631871607,2.1362209650121664,1.247850545451129,3.0194715005743187,-0.01565629057586193,1.003929853439331,0.10729669034481049,4.985559618550734e-07,0.5735775203438218,0.8191512851980225,1.0696351744549434e-05
12.0,-1.2271599273242817,-2.780908257621351,-2.127968636476738,2.1361611835731393,1.248645906752763,3.0197944401119035,-0.015117170289158821,1.0039595365524292,0.10722430050373077,4.0759572064494074e-07,0.5735766944048868,0.8191518635239394,1.098428035905973e-05
13.0,-1.228012437446319,-2.7810132794899474,-2.127904509766315,2.1361014021341123,1.249441268054397,3.020117379649488,-0.01457853615283966,1.00398850440979,0.10715198516845703,2.1147338121718704e-07,0.5735758715872382,0.8191524396657787,1.1067889523944213e-05
14.0,-1.2288649475683566,-2.7811183013585437,-2.1278403830558923,2.136041620695085,1.250236629356031,3.0204403191870726,-0.014039461500942707,1.0040172338485718,0.1070791631937027,1.8371299592471612e-07,0.5735754972026533,0.8191527018102421,1.1210531124723772e-05
15.0,-1.229717457690394,-2.78122332322714,-2.1277762563454696,2.135981839256058,1.2510319906576648,3.0207632587246573,-0.013500492088496685,1.0040457248687744,0.10700659453868866,8.622401195235422e-08,0.5735748913053347,0.8191531260604005,1.1381549277591774e-05
16.0,-1.2305699678124316,-2.7813283450957362,-2.127712129635047,2.135922057817031,1.2518273519592986,3.021086198262242,-0.012961496599018574,1.0040733814239502,0.10693356394767761,2.480603573263252e-08,0.5735747171431136,0.8191532480081525,1.1484371482155664e-05
17.0,-1.231422477934469,-2.7814333669643325,-2.127648002924624,2.135862276378004,1.2526227132609327,3.021409137799827,-0.012422402389347553,1.0041007995605469,0.10686079412698746,-1.0496757251714894e-07,0.5735744741597684,0.8191534181447285,1.1581957453057198e-05
18.0,-1.2322749880565065,-2.781538388832929,-2.127583876214201,2.135802494938977,1.2534180745625665,3.0217320773374117,-0.011883225291967392,1.004127860069275,0.10678774118423462,-3.8758759774756436e-08,0.5735743396377686,0.8191535123370549,1.1617343746811522e-05
19.0,-1.2331274981785438,-2.7816434107015255,-2.1275197495037785,2.1357427134999503,1.2542134358642005,3.022055016874996,-0.01134426984935999,1.0041544437408447,0.10671454668045044,-1.97281330849442e-07,0.5735744741595226,0.8191534181443776,1.1617685421525092e-05
20.0,-1.2339800083005814,-2.781748432570122,-2.127455622793356,2.135682932060923,1.2550087971658344,3.022377956412581,-0.010805049911141396,1.004180669784546,0.10664129257202148,-9.26298987318031e-08,0.5735744741597872,0.8191534181447557,1.15792042073426e-05
21.0,-1.2348325184226188,-2.781853454438718,-2.1273914960829328,2.135623150621896,1.2558041584674684,3.0227008959501656,-0.010265798307955265,1.0042062997817993,0.1065681204199791,-9.859588824456222e-08,0.5735746743824254,0.8191532779484996,1.154612412647178e-05
22.0,-1.2356850285446563,-2.7819584763073144,-2.12732736937251,2.135563369182869,1.2565995197691022,3.0230238354877503,-0.0097266910597682,1.0042318105697632,0.10649444162845612,-2.810580258711481e-08,0.5735751196972398,0.819152966139179,1.1387764149413167e-05
23.0,-1.2365375386666937,-2.7820634981759107,-2.1272632426620874,2.135503587743842,1.257394881070736,3.023346775025335,-0.009187374264001846,1.0042566061019897,0.10642099380493164,-1.112713144114917e-09,0.5735755743727804,0.8191526477738719,1.1313269721595847e-05
24.0,-1.2373900487887313,-2.782168520044507,-2.1271991159516648,2.135443806304815,1.25819024237237,3.02366971456292,-0.008648029528558254,1.0042811632156372,0.10634738206863403,2.0523252731026634e-07,0.5735761719204638,0.8191522293700825,1.1092709349748928e-05
25.0,-1.2382425589107686,-2.7822735419131033,-2.1271349892412417,2.135384024865788,1.258985603674004,3.023992654100504,-0.008108827285468578,1.0043052434921265,0.1062736064195633,2.3055907985791787e-07,0.5735767799259339,0.8191518036430059,1.0869848910946135e-05
26.0,-1.239095069032806,-2.7823785637816996,-2.127070862530819,2.1353242434267607,1.259780964975638,3.024315593638089,-0.007569365203380585,1.0043288469314575,0.106199711561203,4.6196697141576297e-07,0.5735776058643302,0.8191512253164015,1.0647423372232497e-05
27.0,-1.2399475791548435,-2.782483585650296,-2.1270067358203963,2.135264461987734,1.2605763262772718,3.0246385331756738,-0.007029934786260128,1.0043519735336304,0.10612577944993973,5.689337232733617e-07,0.573578628903298,0.8191505089761972,1.0446341610909044e-05
28.0,-1.240800089276881,-2.782588607518892,-2.1269426091099737,2.135204680548707,1.2613716875789058,3.0249614727132585,-0.0064904042519629,1.0043747425079346,0.10605159401893616,8.546194928733174e-07,0.5735795633011153,0.8191498547026986,1.0154766900173768e-05
29.0,-1.2416525993989185,-2.7826936293874884,-2.1268784823995506,2.13514489910968,1.2621670488805397,3.0252844122508433,-0.005951105151325464,1.0043971538543701,0.10597750544548035,9.968978999117268e-07,0.5735806947997741,0.8191490624161591,9.733547012958973e-06
30.0,-1.2425051095209558,-2.7827986512560847,-2.126814355689128,2.135085117670653,1.2629624101821735,3.0256073517884277,-0.005411464720964432,1.0044190883636475,0.1059030145406723,1.2428155196931904e-06,0.5735820922179127,0.8191480839233695,9.489460996670852e-06
31.0,-1.2433576196429934,-2.782903673124681,-2.1267502289787052,2.135025336231626,1.2637577714838075,3.0259302913260124,-0.00487191928550601,1.0044406652450562,0.10582868754863739,1.5390379912485246e-06,0.5735834124652934,0.8191471594659278,9.01124490955305e-06
32.0,-1.2442101297650308,-2.7830086949932773,-2.1266861022682826,2.1349655547925988,1.2645531327854413,3.026253230863597,-0.004332489799708128,1.0044617652893066,0.10575424134731293,1.69657455348333e-06,0.5735849266898394,0.819146099177206,8.608134680550283e-06
33.0,-1.2450626398870683,-2.7831137168618736,-2.1266219755578595,2.1349057733535717,1.2653484940870754,3.026576170401182,-0.0037927369121462107,1.004482388496399,0.10567953437566757,2.105340780850078e-06,0.5735866098438667,0.8191449205954381,8.129021181156497e-06
34.0,-1.2459151500091057,-2.78321873873047,-2.126557848847437,2.1348459919145446,1.2661438553887092,3.0268991099387668,-0.0032530492171645164,1.0045026540756226,0.10560497641563416,2.478013674342706e-06,0.5735882241739322,0.819143790199947,7.727849703000226e-06
35.0,-1.2467676601311433,-2.783323760599066,-2.126493722137014,2.134786210475518,1.2669392166903433,3.0272220494763515,-0.0027134388219565153,1.004522442817688,0.10553000867366791,2.8226225858115905e-06,0.5735901930625771,0.8191424115274589,7.172698474546408e-06
36.0,-1.2476201702531806,-2.7834287824676625,-2.1264295954265915,2.134726429036491,1.267734577991977,3.027544989013936,-0.0021734728943556547,1.0045417547225952,0.1054551750421524,3.2220698582446025e-06,0.5735920555939873,0.819141107321448,6.728641314018481e-06
37.0,-1.2484726803752182,-2.7835338043362587,-2.1263654687161684,2.134666647597464,1.2685299392936111,3.0278679285515206,-0.0016338551649823785,1.0045607089996338,0.10538003593683243,3.5330759637927346e-06,0.573594247636573,0.8191395723738871,6.072618953188758e-06
38.0,-1.2493251904972555,-2.783638826204855,-2.1263013420057457,2.1346068661584368,1.269325300595245,3.0281908680891054,-0.0010941453510895371,1.0045791864395142,0.10530504584312439,3.965485935388801e-06,0.5735962707437681,0.8191381557120971,5.449857322803647e-06
39.0,-1.2510644904676085,-2.783541267869003,-2.1264097208462767,2.134439102349919,1.2709506611054784,3.0288352309280353,2.2011605324223638e-05,1.0045685768127441,0.10540035367012024,3.1119239377939927e-06,0.5735907384795372,0.8191420296097099,6.9065475913776744e-06
40.0,-1.251934140452785,-2.783492488701077,-2.1264639102665424,2.13435522044566,1.271763341360595,3.0291574123475007,0.0005801236839033663,1.0045623779296875,0.10544807463884354,2.715853984473211e-06,0.5735880187255846,0.8191439340608268,7.644249037548235e-06
41.0,-1.2528037904379616,-2.7834437095331506,-2.1265180996868076,2.1342713385414016,1.2725760216157118,3.0294795937669656,0.0011381225194782019,1.0045558214187622,0.1054956316947937,2.3257757783891513e-06,0.5735853865905215,0.8191457771453482,8.326827758481672e-06
42.0,-1.2536734404231382,-2.7833949303652243,-2.1265722891070733,2.1341874566371426,1.2733887018708285,3.0298017751864306,0.0016960178036242723,1.0045486688613892,0.10554305464029312,1.8324395739481334e-06,0.5735830266140868,0.8191474296474169,8.882351235709682e-06
43.0,-1.2545430904083146,-2.7833461511972986,-2.126626478527339,2.134103574732884,1.2742013821259452,3.0301239566058955,0.0022540742065757513,1.004541277885437,0.1055903211236,1.5706645469455833e-06,0.5735807260905558,0.8191490405081424,9.463267560786038e-06
44.0,-1.2554127403934912,-2.7832973720293723,-2.1266806679476042,2.134019692828625,1.275014062381062,3.0304461380253604,0.002811941085383296,1.004533290863037,0.10563762485980988,1.18208115623294e-06,0.5735784776849114,0.8191506148655101,1.003587371719357e-05
45.0,-1.2562823903786677,-2.783248592861446,-2.12673485736787,2.1339358109243665,1.2758267426361787,3.030768319444826,0.003370066871866584,1.004524827003479,0.10568464547395706,8.898356154185657e-07,0.5735763627839431,0.8191520957323702,1.058377379565154e-05
46.0,-1.2571520403638443,-2.78319981369352,-2.126789046788135,2.1338519290201075,1.2766394228912954,3.0310905008642908,0.003927883226424456,1.0045162439346313,0.10573172569274902,5.008109657661069e-07,0.5735743000014163,0.8191535400980413,1.1067116614514819e-05
47.0,-1.2580216903490207,-2.783151034525594,-2.126843236208401,2.133768047115849,1.277452103146412,3.0314126822837557,0.004485803190618753,1.0045069456100464,0.1057785302400589,1.8897160057499245e-07,0.5735726168284235,0.8191547186516551,1.163127882880859e-05
48.0,-1.2588913403341973,-2.783102255357668,-2.126897425628666,2.13368416521159,1.2782647834015288,3.0317348637032207,0.005043668206781149,1.0044972896575928,0.10582533478736877,-5.601117712548767e-09,0.5735708022529542,0.8191559892111424,1.1933867053573146e-05
49.0,-1.2597609903193738,-2.7830534761897416,-2.126951615048932,2.1336002833073313,1.2790774636566455,3.0320570451226856,0.005601470824331045,1.004487156867981,0.10587209463119507,-3.37281564313248e-07,0.5735691680765076,0.819157133448014,1.2375045783722283e-05
50.0,-1.2606306403045502,-2.7830046970218154,-2.1270058044691975,2.1335164014030723,1.2798901439117623,3.032379226542151,0.006159414071589708,1.0044764280319214,0.10591843724250793,-6.911766074897245e-07,0.5735677591711907,0.8191581199468355,1.280730679258532e-05
51.0,-1.2615002902897268,-2.7829559178538896,-2.1270599938894628,2.1334325194988137,1.280702824166879,3.032701407961616,0.006717303302139044,1.0044653415679932,0.10596507787704468,-7.462366179863913e-07,0.5735662303333638,0.819159190420008,1.3078802696717826e-05
52.0,-1.2623699402749033,-2.7829071386859634,-2.1271141833097285,2.1333486375945547,1.2815155044219957,3.033023589381081,0.007275137584656477,1.0044537782669067,0.10601124167442322,-1.051016991336526e-06,0.5735651561708355,0.8191599425292793,1.345542015743049e-05
53.0,-1.26323959026008,-2.782858359518037,-2.1271683727299937,2.133264755690296,1.2823281846771124,3.033345770800546,0.007833068259060383,1.0044418573379517,0.10605759918689728,-1.220692797381493e-06,0.5735638504927411,0.8191608567401787,1.3825589271693951e-05
54.0,-1.2641092402452563,-2.782809580350111,-2.1272225621502594,2.133180873786037,1.2831408649322291,3.0336679522200107,0.008390765637159348,1.004429578781128,0.10610378533601761,-1.3905260121035339e-06,0.5735628816715896,0.8191615350889961,1.4045919632376522e-05
55.0,-1.2649788902304329,-2.782760801182185,-2.127276751570525,2.133096991881778,1.2839535451873458,3.033990133639476,0.008948523551225662,1.0044167041778564,0.10614970326423645,-1.6111337139418745e-06,0.5735619357895506,0.819162197373474,1.4318148678040287e-05
56.0,-1.2658485402156094,-2.782712022014259,-2.1273309409907903,2.1330131099775196,1.2847662254424626,3.034312315058941,0.009506268426775932,1.0044032335281372,0.10619571059942245,-1.7416722548373614e-06,0.5735611755418633,0.8191627296807057,1.4493357030061418e-05
57.0,-1.266718190200786,-2.7826632428463327,-2.127385130411056,2.1329292280732606,1.2855789056975793,3.034634496478406,0.010063986293971539,1.0043895244598389,0.10624158382415771,-1.8215362948833647e-06,0.5735603871229122,0.8191632817130631,1.4600752829536102e-05
58.0,-1.2675878401859624,-2.7826144636784065,-2.1274393198313213,2.132845346169002,1.286391585952696,3.034956677897871,0.010621646419167519,1.0043754577636719,0.10628733038902283,-1.9702580074323487e-06,0.5735597958073863,0.8191636957355894,1.4775593545410245e-05
59.0,-1.268457490171139,-2.7825656845104807,-2.127493509251587,2.132761464264743,1.2872042662078127,3.035278859317336,0.01117956917732954,1.0043606758117676,0.10633304715156555,-2.0335878840226094e-06,0.5735592983642335,0.8191640440293224,1.501063235981652e-05
60.0,-1.2693271401563155,-2.7825169053425545,-2.1275476986718527,2.1326775823604844,1.2880169464629294,3.0356010407368013,0.01173725351691246,1.004345417022705,0.10637827962636948,-2.0769591286491916e-06,0.5735591325503334,0.8191641601278963,1.5025104851777477e-05
61.0,-1.270196790141492,-2.7824681261746282,-2.127601888092118,2.1325937004562254,1.2888296267180461,3.035923222156266,0.01229479443281889,1.004330039024353,0.10642378032207489,-2.2460963313276945e-06,0.5735589010344362,0.8191643222285716,1.5064191461302252e-05
62.0,-1.2710664401266685,-2.782419347006702,-2.1276560775123836,2.132509818551967,1.2896423069731626,3.036245403575731,0.012852675281465054,1.0043140649795532,0.10646891593933105,-2.20074052463752e-06,0.5735588551519663,0.819164354350617,1.527282953401067e-05
63.0,-1.271936090111845,-2.7823705678387762,-2.127710266932649,2.132425936647708,1.2904549872282793,3.036567584995196,0.013410333544015884,1.0042974948883057,0.10651427507400513,-2.177507663765816e-06,0.5735588155104914,0.8191643821073075,1.5238565492762145e-05
64.0,-1.2728057400970216,-2.78232178867085,-2.1277644563529146,2.1323420547434493,1.291267667483396,3.036889766414661,0.013967953622341156,1.004280686378479,0.1065593808889389,-2.1172835433431108e-06,0.5735588551530054,0.8191643543521011,1.5165631551219248e-05
65.0,-1.273675390082198,-2.7822730095029238,-2.12781864577318,2.1322581728391903,1.2920803477385128,3.037211947834126,0.0145256407558918,1.0042632818222046,0.10660431534051895,-2.153611899228669e-06,0.5735590981383105,0.819164184219204,1.5186044787263853e-05
66.0,-1.2745450400673746,-2.7822242303349976,-2.1278728351934455,2.1321742909349317,1.2928930279936295,3.0375341292535913,0.015083295293152332,1.004245638847351,0.10664930939674377,-2.0144881787357786e-06,0.5735594068260708,0.8191639680848217,1.512603226025548e-05
67.0,-1.2754146900525511,-2.7821754511670718,-2.127927024613711,2.1320904090306727,1.2937057082487462,3.0378563106730563,0.015640854835510254,1.0042272806167603,0.10669402033090591,-1.9855184995759936e-06,0.5735598896779923,0.8191636300043021,1.5059935772301762e-05
68.0,-1.2762843400377275,-2.7821266719991455,-2.1279812140339764,2.132006527126414,1.294518388503863,3.038178492092521,0.016198325902223587,1.0042085647583008,0.10673877596855164,-1.9131470650964274e-06,0.5735603871202721,0.8191632817092921,1.4901223802203654e-05
69.0,-1.277153990022904,-2.7820778928312193,-2.128035403454242,2.131922645222155,1.2953310687589796,3.038500673511986,0.01675575040280819,1.0041894912719727,0.10678339004516602,-1.805653095864307e-06,0.5735610785486928,0.8191627975917426,1.4576342987990119e-05
70.0,-1.2780236400080807,-2.782029113663293,-2.1280895928745074,2.1318387633178966,1.2961437490140963,3.038822854931451,0.01731334626674652,1.0041698217391968,0.10682761669158936,-1.7098630871379319e-06,0.5735621016012928,0.8191620812716898,1.4505795070174586e-05
71.0,-1.2788932899932572,-2.7819803344953673,-2.128143782294773,2.1317548814136376,1.296956429269213,3.0391450363509165,0.017870845273137093,1.0041497945785522,0.10687199234962463,-1.5755125354765556e-06,0.5735630161917136,0.8191614408953319,1.4313127924169655e-05
72.0,-1.2797629399784336,-2.781931555327441,-2.1281979717150388,2.1316709995093786,1.2977691095243298,3.0394672177703814,0.018428441137075424,1.0041292905807495,0.10691612958908081,-1.3089712533415687e-06,0.57356409870641,0.8191606829413575,1.4015672417801134e-05
73.0,-1.2806325899636102,-2.781882776159515,-2.128252161135304,2.13158711760512,1.2985817897794465,3.0397893991898464,0.018985765054821968,1.004108190536499,0.10696043074131012,-1.2561255986763361e-06,0.5735651676389467,0.8191599344950504,1.3703788026746017e-05
74.0,-1.2815022399487868,-2.7818339969915886,-2.1283063505555697,2.131503235700861,1.2993944700345632,3.0401115806093113,0.019543418660759926,1.0040867328643799,0.10700461268424988,-9.088616310464321e-07,0.5735663189715255,0.8191591283493864,1.3509321863518643e-05
75.0,-1.2823718899339633,-2.781785217823663,-2.128360539975835,2.1314193537966024,1.30020715028968,3.0404337620287762,0.020100779831409454,1.004064917564392,0.10704848170280457,-7.378172795712634e-07,0.5735677904587883,0.8191580980332916,1.3196949120140393e-05
76.0,-1.2832415399191397,-2.7817364386557366,-2.1284147293961007,2.1313354718923434,1.3010198305447966,3.0407559434482416,0.020658044144511223,1.0040428638458252,0.10709236562252045,-4.92703851045552e-07,0.5735693682966512,0.8191569932487542,1.2774912295616004e-05
77.0,-1.2841111899043163,-2.7816876594878104,-2.1284689188163664,2.131251589988085,1.3018325107999134,3.0410781248677066,0.021215269342064857,1.004019856452942,0.10713601112365723,-3.2854243176781163e-07,0.5735709743035131,0.8191558687371034,1.2246314341435395e-05
78.0,-1.2849808398894929,-2.781638880319884,-2.1285231082366316,2.131167708083826,1.30264519105503,3.0414003062871715,0.021772772073745728,1.0039968490600586,0.10717962682247162,5.478968018986362e-08,0.5735727336371996,0.8191546368573032,1.1963566503763393e-05
79.0,-1.2858504898746692,-2.7815901011519584,-2.1285772976568973,2.1310838261795673,1.3034578713101468,3.0417224877066364,0.02232997678220272,1.0039732456207275,0.10722334682941437,3.6784003832616864e-07,0.5735744741608937,0.8191534181463358,1.1405840773703985e-05
80.0,-1.2867201398598458,-2.781541321984032,-2.1286314870771625,2.1309999442753083,1.3042705515652635,3.0420446691261014,0.022887302562594414,1.0039488077163696,0.10726643353700638,6.349995620088934e-07,0.5735765807152724,0.819151943130499,1.0959059164837485e-05
81.0,-1.2875897898450224,-2.781492542816106,-2.1286856764974282,2.1309160623710497,1.3050832318203802,3.0423668505455668,0.023444393649697304,1.0039242506027222,0.10730987787246704,8.740295867796911e-07,0.5735786403736646,0.8191505009448974,1.0395101143998058e-05
82.0,-1.288459439830199,-2.7814437636481797,-2.1287398659176935,2.1308321804667907,1.305895912075497,3.0426890319650317,0.024001626297831535,1.003899335861206,0.10735297203063965,1.379996096330376e-06,0.5735808491403704,0.8191489543437955,9.745434518108556e-06
83.0,-1.2893290898153753,-2.781394984480254,-2.128794055337959,2.130748298562532,1.3067085923306136,3.0430112133844966,0.024558689445257187,1.0038738250732422,0.107396200299263,1.7212198759799635e-06,0.5735832007727447,0.8191473076951946,9.167596806053345e-06
84.0,-1.2901987398005519,-2.7813462053123277,-2.128848244758225,2.130664416658273,1.3075212725857304,3.0433333948039616,0.025116007775068283,1.0038479566574097,0.10743902623653412,2.1372029408562306e-06,0.5735857213313333,0.819145542748747,8.666428851660872e-06
85.0,-1.2910683897857285,-2.7812974261444015,-2.12890243417849,2.1305805347540145,1.308333952840847,3.0436555762234265,0.025673003867268562,1.0038217306137085,0.10748201608657837,2.550103198823609e-06,0.5735882241731679,0.8191437901988561,7.87533243097002e-06
86.0,-1.291938039770905,-2.7812486469764752,-2.128956623598756,2.1304966528497555,1.3091466330959638,3.043977757642892,0.02623016946017742,1.0037949085235596,0.10752491652965546,3.116776887919113e-06,0.573590695718858,0.8191420595491995,7.248302858082222e-06
87.0,-1.2928076897560814,-2.7811998678085494,-2.129010813019021,2.130412770945497,1.3099593133510805,3.044299939062357,0.026787396520376205,1.003767490386963,0.10756752640008926,3.5804915428736004e-06,0.5735935760477547,0.8191400426420796,6.652882534371259e-06
88.0,-1.293677339741258,-2.781151088640623,-2.1290650024392868,2.130328889041238,1.3107719936061972,3.044622120481822,0.027344409376382828,1.0037397146224976,0.10761020332574844,4.134682229125894e-06,0.5735964365512948,0.8191380396027726,5.855539448121403e-06
89.0,-1.2953965208281426,-2.781371293686798,-2.1287904202565655,2.130120401476533,1.312380571478051,3.045247995804417,0.028407687321305275,1.003814935684204,0.10743580758571625,3.6564813014262853e-06,0.5735936188071689,0.819140012700937,6.5295715682019245e-06
90.0,-1.296256111371585,-2.7814813962098857,-2.128653129165205,2.1300161576941807,1.313184860413978,3.0455609334657145,0.028939325362443924,1.0038520097732544,0.10734857618808746,3.4397909233282747e-06,0.5735923903342539,0.8191408729225733,6.815366994137947e-06
91.0,-1.2971157019150272,-2.781591498732973,-2.1285158380738443,2.1299119139118283,1.313989149349905,3.045873871127012,0.029471347108483315,1.003888487815857,0.10726140439510345,3.4041449568639204e-06,0.5735911357977911,0.8191417513915378,7.058034834697595e-06
92.0,-1.2979752924584693,-2.78170160125606,-2.128378546982484,2.1298076701294764,1.3147934382858317,3.0461868087883097,0.030003242194652557,1.0039246082305908,0.10717400908470154,3.2873320312589135e-06,0.5735901127702564,0.8191424677486602,7.21340595398525e-06
93.0,-1.2988348830019116,-2.7818117037791477,-2.128241255891123,2.129703426347124,1.3155977272217587,3.0464997464496073,0.030535314232110977,1.003960371017456,0.10708640515804291,3.0787735661593533e-06,0.5735891700326593,0.8191431278812451,7.5296892655212594e-06
94.0,-1.299694473545354,-2.7819218063022353,-2.1281039647997626,2.1295991825647715,1.3164020161576857,3.046812684110905,0.031067417934536934,1.003995656967163,0.10699845850467682,3.0002784441895537e-06,0.5735885182616152,0.8191435842694619,7.721540521068235e-06
95.0,-1.3005540640887963,-2.7820319088253225,-2.127966673708402,2.129494938782419,1.3172063050936125,3.0471256217722025,0.031599752604961395,1.004030466079712,0.10691078007221222,2.8371454490848345e-06,0.5735878070327343,0.8191440822902784,8.0091747386822e-06
96.0,-1.3014136546322386,-2.7821420113484097,-2.1278293826170414,2.1293906950000667,1.3180105940295395,3.0474385594335,0.03213191404938698,1.0040651559829712,0.10682317614555359,2.83630307614758e-06,0.5735869581620215,0.8191446766927515,8.020130023099998e-06
97.0,-1.3022732451756809,-2.7822521138714973,-2.127692091525681,2.1292864512177143,1.3188148829654665,3.0477514970947976,0.03266444429755211,1.0040991306304932,0.10673512518405914,2.745186219240488e-06,0.5735865410209907,0.8191449687833057,8.308819383653366e-06
98.0,-1.3031328357191232,-2.782362216394585,-2.12755480043432,2.129182207435362,1.3196191719013932,3.0480644347560952,0.033197071403265,1.004132628440857,0.1066470518708229,2.7472784743639828e-06,0.5735862469313634,0.8191451747112622,8.420284307867144e-06
99.0,-1.3039924262625655,-2.782472318917672,-2.1274175093429597,2.1290779636530095,1.3204234608373202,3.048377372417393,0.033729419112205505,1.0041658878326416,0.10655874758958817,2.590371069072115e-06,0.5735860039509635,0.8191453448526909,8.427418087490364e-06
100.0,-1.3048520168060078,-2.7825824214407593,-2.127280218251599,2.128973719870657,1.3212277497732472,3.0486903100786904,0.03426199033856392,1.004198670387268,0.1064705178141594,2.6064421397291702e-06,0.57358582979168,0.8191454668038136,8.376066837122472e-06
101.0,-1.30571160734945,-2.782692523963847,-2.1271429271602385,2.1288694760883047,1.3220320387091742,3.049003247739988,0.03479480370879173,1.0042310953140259,0.10638229548931122,2.63903135815536e-06,0.5735856692085927,0.8191455792470826,8.45741175235641e-06
102.0,-1.3065711978928922,-2.7828026264869345,-2.127005636068878,2.1287652323059527,1.322836327645101,3.0493161854012856,0.035327665507793427,1.0042630434036255,0.10629388689994812,2.6950700342977445e-06,0.5735856295699717,0.8191456070026176,8.477563095390984e-06
103.0,-1.3074307884363345,-2.7829127290100217,-2.126868344977517,2.1286609885236003,1.323640616581028,3.049629123062583,0.03586043789982796,1.0042946338653564,0.10620517283678055,2.7119085633922763e-06,0.5735859497211978,0.819145382825728,8.388591290422492e-06
104.0,-1.3082903789797768,-2.783022831533109,-2.126731053886157,2.128556744741248,1.324444905516955,3.0499420607238807,0.03639351576566696,1.0043256282806396,0.10611656308174133,2.7073790406098903e-06,0.5735862469312769,0.8191451747111383,8.451081123043366e-06
105.0,-1.3091499695232192,-2.7831329340561966,-2.126593762794796,2.1284525009588955,1.3252491944528817,3.0502549983851783,0.036926332861185074,1.0043563842773438,0.10602763295173645,2.683045661224526e-06,0.573586713074349,0.8191448483081305,8.222873024906634e-06
106.0,-1.3100095600666615,-2.7832430365792837,-2.1264564717034355,2.128348257176543,1.3260534833888087,3.050567936046476,0.037459611892700195,1.0043865442276,0.10593894869089127,2.801791946936547e-06,0.5735870269820839,0.8191446285008126,8.262558921984417e-06
107.0,-1.3108691506101038,-2.7833531391023714,-2.1263191806120747,2.1282440133941907,1.3268577723247357,3.0508808737077735,0.03799263387918472,1.0044164657592773,0.10584986954927444,2.876734478020107e-06,0.5735877726219198,0.8191441063851818,8.048051539021174e-06
108.0,-1.311728741153546,-2.7834632416254586,-2.1261818895207143,2.1281397696118383,1.3276620612606624,3.051193811369071,0.038526006042957306,1.0044459104537964,0.105760857462883,3.0324144754373787e-06,0.5735883899824209,0.8191436740923643,7.91462688132064e-06
109.0,-1.3125883316969884,-2.783573344148546,-2.126044598429354,2.128035525829486,1.3284663501965894,3.0515067490303687,0.03905925527215004,1.0044749975204468,0.10567174106836319,3.1230143972181254e-06,0.5735891324998527,0.8191431541610494,7.707163787268556e-06
110.0,-1.3134479222404307,-2.783683446671634,-2.125907307337993,2.1279312820471334,1.3292706391325164,3.0518196866916663,0.03959279879927635,1.0045034885406494,0.10558219999074936,3.298086590483007e-06,0.5735902869277234,0.8191423457952902,7.502239265653228e-06
111.0,-1.3143075127838728,-2.783793549194721,-2.1257700162466326,2.1278270382647815,1.3300749280684432,3.052132624352964,0.04012630879878998,1.004531741142273,0.1054929792881012,3.41405863708623e-06,0.5735912755448406,0.8191416535339315,7.272094832879787e-06
112.0,-1.3151671033273151,-2.783903651717808,-2.125632725155272,2.127722794482429,1.3308792170043702,3.0524455620142614,0.04065980017185211,1.0045595169067383,0.10540345311164856,3.5661758842369554e-06,0.5735923528011581,0.8191408992026282,6.987403286504985e-06
113.0,-1.3160266938707574,-2.784013754240896,-2.1254954340639114,2.1276185507000767,1.3316835059402972,3.052758499675559,0.04119337350130081,1.004586935043335,0.1053139865398407,3.7679528674948036e-06,0.5735935416367788,0.8191400667371268,6.6539298742776325e-06
114.0,-1.3168862844141997,-2.784123856763983,-2.1253581429725505,2.1275143069177243,1.332487794876224,3.0530714373368566,0.04172715172171593,1.0046138763427734,0.10522425174713135,3.982483181596684e-06,0.5735949817987364,0.8191390582800023,6.2927321183946205e-06
115.0,-1.317745874957642,-2.7842339592870706,-2.12522085188119,2.127410063135372,1.333292083812151,3.053384374998154,0.04226108267903328,1.0046403408050537,0.10513432323932648,4.179761995375757e-06,0.5735964991278292,0.8191379957819371,6.097438154310332e-06
116.0,-1.3194339403448727,-2.7839527844280445,-2.1254053719517905,2.127177165254107,1.334872775736373,3.053992202080351,0.04333968833088875,1.004571795463562,0.10535801202058792,3.872987392812752e-06,0.5735935760474874,0.8191400426416974,6.558448896692954e-06
117.0,-1.320277973038488,-2.7838121969985314,-2.1254976319870904,2.1270607163134745,1.3356631216984842,3.054296115621449,0.04387899115681648,1.0045368671417236,0.10546933114528656,3.5801837800164118e-06,0.5735924987924235,0.8191407969749716,6.888707358901652e-06
118.0,-1.3211220057321034,-2.7836716095690184,-2.125589892022391,2.126944267372842,1.3364534676605953,3.0546000291625477,0.04441847652196884,1.004501461982727,0.10558085143566132,3.52475713206569e-06,0.5735913099554084,0.8191416294384525,7.2202200458397575e-06
119.0,-1.3219660384257186,-2.7835310221395053,-2.1256821520576907,2.1268278184322096,1.3372438136227063,3.054903942703646,0.04495787248015404,1.0044658184051514,0.10569225251674652,3.458997472337464e-06,0.5735902472899778,0.8191423735511787,7.402628619656042e-06
120.0,-1.322810071119334,-2.7833904347099923,-2.125774412092991,2.126711369491577,1.3380341595848173,3.0552078562447447,0.04549707844853401,1.004429578781128,0.10580334067344666,3.296313663529339e-06,0.5735893441909047,0.8191430059288973,7.586345003221329e-06
121.0,-1.3236541038129492,-2.783249847280479,-2.125866672128291,2.1265949205509447,1.3388245055469283,3.055511769785843,0.04603630304336548,1.0043927431106567,0.10591457784175873,3.112152365520242e-06,0.5735884327421606,0.8191436441514043,7.814343194599177e-06
122.0,-1.3244981365065647,-2.783109259850966,-2.1259589321635914,2.1264784716103122,1.3396148515090396,3.0558156833269416,0.04657568782567978,1.004355549812317,0.10602584481239319,3.1579484396628528e-06,0.5735877726216697,0.8191441063848243,7.996664736093048e-06
123.0,-1.3253421692001799,-2.782968672421453,-2.1260511921988914,2.1263620226696798,1.3404051974711506,3.0561195968680397,0.04711484536528587,1.004318118095398,0.10613664984703064,3.064364770055092e-06,0.5735870697419104,0.8191445985599031,8.101460834658166e-06
124.0,-1.326186201893795,-2.78282808499194,-2.1261434522341918,2.1262455737290473,1.3411955434332616,3.056423510409138,0.04765397682785988,1.0042800903320312,0.10624754428863525,2.900886176876871e-06,0.5735866296611202,0.8191449067148242,8.29117568560062e-06
125.0,-1.3270302345874105,-2.782687497562427,-2.1262357122694917,2.126129124788415,1.3419858893953727,3.0567274239502367,0.04819305241107941,1.004241704940796,0.10635840892791748,2.8113856189967914e-06,0.5735862010508532,0.8191452068384866,8.347399371740771e-06
126.0,-1.3278742672810258,-2.782546910132914,-2.126327972304792,2.1260126758477824,1.3427762353574837,3.057031337491335,0.04873236268758774,1.0042026042938232,0.10646878182888031,2.88402601178835e-06,0.5735859695397165,0.8191453689468576,8.472445037149195e-06
127.0,-1.3287182999746412,-2.782406322703401,-2.126420232340092,2.12589622690715,1.343566581319595,3.0573352510324336,0.049271367490291595,1.0041636228561401,0.10657946020364761,2.7941477226575667e-06,0.5735856692079211,0.8191455792461236,8.545557411834121e-06
128.0,-1.3295623326682564,-2.7822657352738878,-2.1265124923753924,2.1257797779665175,1.344356927281706,3.057639164573532,0.049810364842414856,1.0041236877441406,0.10669000446796417,2.743671917718142e-06,0.5735855868100328,0.8191456369434438,8.531253568556394e-06
129.0,-1.3304063653618718,-2.7821251478443743,-2.1266047524106924,2.1256633290258855,1.345147273243817,3.05794307811463,0.050349362194538116,1.004083514213562,0.10680021345615387,2.804068953639334e-06,0.5735857067398393,0.8191455529657665,8.503222882642884e-06
130.0,-1.331250398055487,-2.781984560414861,-2.1266970124459927,2.125546880085253,1.345937619205928,3.0582469916557287,0.05088846758008003,1.0040428638458252,0.10691053420305252,2.8223317406018533e-06,0.573585803729144,0.8191454850513402,8.510632884338367e-06
131.0,-1.3320944307491025,-2.781843972985348,-2.1267892724812927,2.1254304311446206,1.3467279651680393,3.058550905196827,0.051427487283945084,1.0040019750595093,0.10702090710401535,2.8247390803032663e-06,0.5735859497202183,0.8191453828243291,8.553333577340967e-06
132.0,-1.3329384634427177,-2.781703385555835,-2.126881532516593,2.125313982203988,1.3475183111301503,3.0588548187379256,0.05196633189916611,1.003960371017456,0.10713090002536774,2.8642752368029993e-06,0.5735862125208314,0.819145198806468,8.373504002867247e-06
133.0,-1.3337824961363332,-2.781562798126322,-2.126973792551893,2.1251975332633557,1.3483086570922613,3.059158732279024,0.052505407482385635,1.0039185285568237,0.10724098235368729,2.9989094278446572e-06,0.5735866640711718,0.819144882618906,8.364811264131981e-06
134.0,-1.3346265288299484,-2.781422210696809,-2.1270660525871934,2.1250810843227232,1.3490990030543724,3.0594626458201226,0.053044144064188004,1.0038760900497437,0.10735087096691132,2.946114249306781e-06,0.5735871667304892,0.8191445306445563,8.277679442805507e-06
135.0,-1.3354705615235636,-2.781281623267296,-2.1271583126224933,2.124964635382091,1.3498893490164834,3.0597665593612207,0.05358287692070007,1.003833293914795,0.10746055841445923,2.978980490839527e-06,0.5735877726215053,0.8191441063845898,8.100494530840415e-06
136.0,-1.336314594217179,-2.781141035837783,-2.1272505726577937,2.1248481864414583,1.3506796949785946,3.060070472902319,0.05412188544869423,1.0037901401519775,0.10757020115852356,3.256841621746946e-06,0.5735886069001244,0.8191435221986061,7.98931958963106e-06
137.0,-1.3371586269107942,-2.7810004484082698,-2.1273428326930937,2.124731737500826,1.3514700409407057,3.0603743864434176,0.05466073006391525,1.0037463903427124,0.1076798364520073,3.3703492105067906e-06,0.5735894130107834,0.8191429577363823,7.840725533878017e-06
138.0,-1.3380026596044097,-2.7808598609787567,-2.127435092728394,2.1246152885601934,1.3522603869028167,3.060678299984516,0.05519935488700867,1.0037022829055786,0.10778920352458954,3.361037311614883e-06,0.5735904214476358,0.8191422515980713,7.68562512578859e-06
139.0,-1.3388466922980249,-2.7807192735492436,-2.127527352763694,2.124498839619561,1.3530507328649277,3.0609822135256146,0.055737901479005814,1.0036579370498657,0.10789881646633148,3.5589570725645634e-06,0.5735912390282354,0.8191416791033004,7.294750151542588e-06
140.0,-1.3396907249916403,-2.7805786861197306,-2.1276196127989944,2.1243823906789285,1.3538410788270387,3.061286127066713,0.05627656355500221,1.0036128759384155,0.10800829529762268,3.762608111142241e-06,0.573592352800498,0.8191408992016855,7.048835053911954e-06
141.0,-1.3405347576852555,-2.7804380986902175,-2.1277118728342943,2.124265941738296,1.35463142478915,3.061590040607811,0.05681527405977249,1.0035674571990967,0.10811722278594971,3.862219549930684e-06,0.5735937418556947,0.8191399265334796,6.913168078242382e-06
142.0,-1.341378790378871,-2.7802975112607045,-2.1278041328695947,2.1241494927976636,1.355421770751261,3.0618939541489096,0.05735398828983307,1.0035216808319092,0.1082264631986618,4.142305472436538e-06,0.5735949817973938,0.8191390582780854,6.555931760761483e-06
143.0,-1.3422228230724862,-2.7801569238311914,-2.1278963929048946,2.124033043857031,1.356212116713372,3.062197867690008,0.05789244547486305,1.0034754276275635,0.108335480093956,4.306126972390335e-06,0.5735965189456249,0.8191379819030639,6.220480644373377e-06
144.0,-1.3404818128694138,-2.778918061839463,-2.1273143331327065,2.122363585749533,1.3545828286232018,3.061566365642897,0.056574903428554535,1.0044499635696411,0.1090753972530365,3.2184802084292246e-06,0.5735892242608507,0.819143089906063,7.786178995390295e-06
145.0,-1.3396113077678775,-2.7782986308435986,-2.1270233032466126,2.1215288566957837,1.3537681845781167,3.0612506146193414,0.055914878845214844,1.0049359798431396,0.10944601893424988,2.6746526913289258e-06,0.5735855868106414,0.8191456369443129,8.428179896330057e-06
146.0,-1.3387408026663412,-2.777679199847735,-2.1267322733605183,2.1206941276420346,1.3529535405330313,3.060934863595786,0.055254314094781876,1.0054209232330322,0.10981687903404236,2.1173077139085593e-06,0.5735823404281563,0.8191479101234195,9.214660027368897e-06
147.0,-1.3378702975648051,-2.7770597688518706,-2.1264412434744244,2.1198593985882854,1.3521388964879462,3.06061911257223,0.05459287762641907,1.0059055089950562,0.11018814891576767,1.7477142410974754e-06,0.5735790376995724,0.8191502227385535,9.795719764004886e-06
148.0,-1.3369997924632688,-2.7764403378560063,-2.12615021358833,2.1190246695345363,1.351324252442861,3.0603033615486748,0.053930725902318954,1.0063890218734741,0.1105596274137497,1.3330424702351856e-06,0.5735759143508175,0.8191524097296271,1.0439915915636327e-05
149.0,-1.3361292873617325,-2.775820906860142,-2.1258591837022363,2.118189940480787,1.350509608397776,3.0599876105251194,0.0532677136361599,1.0068717002868652,0.11093172430992126,8.06799748694417e-07,0.5735729880960664,0.8191544586970542,1.1074066901173833e-05
150.0,-1.3352587822601965,-2.775201475864278,-2.125568153816142,2.117355211427038,1.3496949643526908,3.0596718595015635,0.052604060620069504,1.007353663444519,0.11130408197641373,3.2125772182863465e-07,0.5735701024851567,0.8191564791900448,1.1663329203906087e-05
151.0,-1.3343882771586602,-2.7745820448684135,-2.125277123930048,2.116520482373289,1.3488803203076056,3.059356108478008,0.051939405500888824,1.007834792137146,0.11167684197425842,-5.3821665103928064e-08,0.573567179336577,0.8191585259526027,1.2125983590154794e-05
152.0,-1.3335177720571239,-2.7739626138725493,-2.1249860940439538,2.1156857533195397,1.3480656762625203,3.0590403574544522,0.05127432942390442,1.008315086364746,0.11205019056797028,-4.5451047190100867e-07,0.5735644960440404,0.8191604047529069,1.2751205098243392e-05
153.0,-1.3326472669555878,-2.7733431828766855,-2.12469506415786,2.1148510242657905,1.3472510322174351,3.058724606430897,0.050608325749635696,1.0087945461273193,0.11242366582155228,-7.856523871615383e-07,0.5735619931494953,0.8191621572303662,1.3245896775383013e-05
154.0,-1.3317767618540515,-2.772723751880821,-2.124404034271766,2.1140162952120414,1.34643638817235,3.0584088554073414,0.04994156211614609,1.0092731714248657,0.1127975732088089,-1.193422016166804e-06,0.5735594328981286,0.8191639498557589,1.3742799774082508e-05
155.0,-1.3309062567525152,-2.772104320884957,-2.1241130043856717,2.1131815661582922,1.3456217441272649,3.0580931043837856,0.049274083226919174,1.0097509622573853,0.11317189037799835,-1.4362761524737002e-06,0.573557120859498,0.8191655686796436,1.4108734090470394e-05
156.0,-1.330035751650979,-2.7714848898890927,-2.123821974499578,2.112346837104543,1.3448071000821797,3.05777735336023,0.04860595613718033,1.010227918624878,0.11354665458202362,-1.7136975709767292e-06,0.5735548150545187,0.8191671831279489,1.452795354025284e-05
157.0,-1.3291652465494428,-2.7708654588932284,-2.1235309446134836,2.111512108050794,1.3439924560370946,3.0574616023366747,0.047936949878931046,1.0107040405273438,0.11392173171043396,-2.0089520096512976e-06,0.5735526031187156,0.8191687318416991,1.4985721091165953e-05
158.0,-1.3282947414479065,-2.770246027897364,-2.1232399147273897,2.110677378997045,1.3431778119920093,3.057145851313119,0.047267183661460876,1.0111790895462036,0.11429686844348907,-2.3476460285218374e-06,0.5735507092259148,0.8191700578673761,1.531334092122956e-05
159.0,-1.3274242363463702,-2.7696265969015,-2.1229488848412954,2.109842649943296,1.3423631679469241,3.0568301002895635,0.04659665375947952,1.0116536617279053,0.11467261612415314,-2.5778348148953244e-06,0.5735488028543377,0.8191713926239631,1.5627782648428817e-05
160.0,-1.3265537312448341,-2.769007165905636,-2.1226578549552015,2.109007920889547,1.341548523901839,3.056514349266008,0.0459253303706646,1.0121275186538696,0.11504877358675003,-2.900355906203803e-06,0.5735469141874503,0.8191727149775374,1.593648491228405e-05
161.0,-1.3256832261432978,-2.768387734909772,-2.1223668250691072,2.1081731918357978,1.3407338798567539,3.056198598242452,0.04525354132056236,1.012600064277649,0.11542527377605438,-3.0637741616049776e-06,0.5735453822027492,0.8191737875928246,1.628930966221697e-05
162.0,-1.3248127210417615,-2.7677683039139076,-2.1220757951830134,2.1073384627820486,1.3399192358116687,3.055882847218897,0.044580865651369095,1.01307213306427,0.11580231785774231,-3.1742464957575166e-06,0.5735435852935166,0.8191750456945615,1.6428512002548224e-05
163.0,-1.3239422159402254,-2.7671488729180433,-2.1217847652969195,2.1065037337282995,1.3391045917665836,3.0555670961953414,0.04390738159418106,1.0135433673858643,0.11617948114871979,-3.3988310720573687e-06,0.5735421909471082,0.8191760219344445,1.6724156182101443e-05
164.0,-1.3230717108386891,-2.766529441922179,-2.121493735410825,2.1056690046745503,1.3382899477214982,3.0552513451717855,0.043233100324869156,1.0140135288238525,0.11655715107917786,-3.6320535342352885e-06,0.5735409332393614,0.8191769025072317,1.686380906453503e-05
165.0,-1.3222012057371528,-2.765910010926315,-2.1212027055247313,2.104834275620801,1.337475303676413,3.05493559414823,0.04255839064717293,1.014483094215393,0.11693540215492249,-3.6463503624414283e-06,0.5735395305388258,0.8191778845914736,1.7095203523527284e-05
166.0,-1.3213307006356168,-2.7652905799304506,-2.120911675638637,2.103999546567052,1.336660659631328,3.0546198431246743,0.04188244044780731,1.0149517059326172,0.11731378734111786,-3.9234294768997796e-06,0.5735383416499422,0.8191787169763175,1.717775045053525e-05
167.0,-1.3204601955340804,-2.7646711489345868,-2.120620645752543,2.103164817513303,1.3358460155862428,3.054304092101119,0.041206199675798416,1.0154192447662354,0.11769263446331024,-4.0252476576001106e-06,0.5735373185762165,0.8191794332651314,1.730950213731628e-05
168.0,-1.3195896904325441,-2.7640517179387225,-2.120329615866449,2.1023300884595537,1.3350313715411577,3.0539883410775635,0.04052906855940819,1.0158863067626953,0.11807151138782501,-4.10556522470477e-06,0.5735365384913397,0.8191799794272205,1.7439465254524116e-05
169.0,-1.318719185331008,-2.7634322869428583,-2.120038585980355,2.1014953594058046,1.3342167274960726,3.0536725900540076,0.03985125571489334,1.0163524150848389,0.11845096200704575,-4.184389791895591e-06,0.5735358126383924,0.8191804876177513,1.760832185869787e-05
170.0,-1.3178486802294718,-2.762812855946994,-2.1197475560942607,2.1006606303520554,1.3334020834509872,3.053356839030452,0.039172593504190445,1.0168174505233765,0.1188308596611023,-4.238789622634023e-06,0.5735351211980936,0.8191809717193952,1.7526786145475393e-05
171.0,-1.3169781751279355,-2.7621934249511297,-2.119456526208167,2.0998259012983063,1.332587439405902,3.0530410880068968,0.03849347308278084,1.0172818899154663,0.1192111223936081,-4.2896573845013285e-06,0.573534480870274,0.8191814200302195,1.7656081359681187e-05
172.0,-1.3161076700263994,-2.7615739939552655,-2.1191654963220725,2.098991172244557,1.331772795360817,3.052725336983341,0.03781325742602348,1.0177454948425293,0.11959171295166016,-4.308849266068531e-06,0.5735340271848159,0.8191817376707131,1.7589526373908955e-05
173.0,-1.315237164924863,-2.7609545629594017,-2.1188744664359787,2.098156443190808,1.3309581513157318,3.0524095859597855,0.037132762372493744,1.0182079076766968,0.11997269093990326,-4.21345340919712e-06,0.5735336350819875,0.8191820121926229,1.76616559050489e-05
174.0,-1.3143666598233268,-2.7603351319635374,-2.118583436549885,2.097321714137059,1.3301435072706467,3.05209383493623,0.036451224237680435,1.018669843673706,0.12035411596298218,-4.258554419647829e-06,0.5735333607993071,0.8191822042263216,1.7635807936424658e-05
175.0,-1.3134961547217907,-2.759715700967673,-2.1182924066637905,2.0964869850833097,1.3293288632255615,3.0517780839126742,0.03576895594596863,1.0191307067871094,0.12073583900928497,-4.243235446547118e-06,0.5735331438687049,0.8191823561088212,1.749499932290401e-05
176.0,-1.3126256496202544,-2.759096269971809,-2.1180013767776966,2.0956522560295605,1.3285142191804764,3.051462332889119,0.03508609160780907,1.0195906162261963,0.12111780047416687,-4.170847258991932e-06,0.5735332471009983,0.8191822838345388,1.743611691091891e-05
177.0,-1.311755144518718,-2.7584768389759446,-2.1177103468916023,2.0948175269758114,1.327699575135391,3.0511465818655634,0.03440263122320175,1.0200499296188354,0.12150062620639801,-3.994693908006126e-06,0.5735331178117058,0.8191823743545447,1.7437804881774785e-05
178.0,-1.310884639417182,-2.7578574079800804,-2.1174193170055085,2.093982797922062,1.326884931090306,3.0508308308420076,0.033718228340148926,1.0205084085464478,0.12188319861888885,-3.925981808939483e-06,0.5735335610316228,0.8191820640483612,1.7217408544984086e-05
179.0,-1.3100141343156457,-2.757237976984216,-2.117128287119414,2.093148068868313,1.3260702870452208,3.050515079818452,0.033033136278390884,1.0209659337997437,0.12226651608943939,-3.8188119729751556e-06,0.5735337696135481,0.8191819180188037,1.700952776839804e-05
180.0,-1.3091436292141094,-2.7566185459883523,-2.1168372572333203,2.092313339814564,1.3252556430001357,3.0501993287948967,0.03234730288386345,1.0214226245880127,0.12265010178089142,-3.7719941938038902e-06,0.5735342639475458,0.8191815719238112,1.6862758499605076e-05
181.0,-1.3082731241125733,-2.755999114992488,-2.116546227347226,2.0914786107608148,1.3244409989550505,3.049883577771341,0.03166083246469498,1.0218784809112549,0.1230340376496315,-3.551599023614609e-06,0.5735347582822619,0.8191812258298548,1.6655037324985217e-05
182.0,-1.307402619011037,-2.755379683996624,-2.116255197461132,2.0906438817070656,1.3236263549099654,3.0495678267477855,0.030973730608820915,1.0223331451416016,0.1234184205532074,-3.40201354160515e-06,0.5735355039585778,0.8191807037624617,1.6451271306424103e-05
183.0,-1.3065321139095007,-2.7547602530007596,-2.115964167575038,2.0898091526533165,1.32281171086488,3.0492520757242296,0.030285758897662163,1.0227874517440796,0.12380313873291016,-3.276633109522737e-06,0.5735361213466708,0.8191802715136682,1.620720522145499e-05
184.0,-1.3056616088079647,-2.7541408220048953,-2.115673137688944,2.0889744235995673,1.321997066819795,3.048936324700674,0.029597092419862747,1.0232406854629517,0.12418819963932037,-3.060954143329003e-06,0.5735369754884536,0.8191796735056,1.5919986246086353e-05
185.0,-1.3047911037064284,-2.753521391009031,-2.11538210780285,2.088139694545818,1.3211824227747098,3.048620573677119,0.02890774980187416,1.0236929655075073,0.12457360327243805,-2.8772536310906224e-06,0.5735380527959484,0.8191789192480445,1.5695828133580795e-05
186.0,-1.303920598604892,-2.752901960013167,-2.1150910779167558,2.087304965492069,1.3203677787296246,3.048304822653563,0.02821774035692215,1.0241444110870361,0.12495937943458557,-2.6219038090959553e-06,0.5735392072771306,0.8191781109595817,1.5288475558469818e-05
187.0,-1.303050093503356,-2.752282529017303,-2.114800048030662,2.08647023643832,1.3195531346845395,3.0479890716300075,0.027526700869202614,1.0245951414108276,0.12534548342227936,-2.4883562804612204e-06,0.5735404389304294,0.8191772486379229,1.4808816572092173e-05
188.0,-1.3021795884018197,-2.7516630980214387,-2.1145090181445676,2.0856355073845707,1.3187384906394544,3.047673320606452,0.026835406199097633,1.0250446796417236,0.12573203444480896,-2.22899436099373e-06,0.5735417164612956,0.8191763541886147,1.4557189529833825e-05
189.0,-1.3013090833002834,-2.7510436670255745,-2.1142179882584737,2.084800778330822,1.317923846594369,3.0473575695828963,0.026143038645386696,1.0254935026168823,0.12611915171146393,-1.9926458959781853e-06,0.5735431160426334,0.8191753742871566,1.4058181977064265e-05
190.0,-1.3004385781987473,-2.75042423602971,-2.1139269583723794,2.083966049277073,1.3171092025492839,3.047041818559341,0.025450104847550392,1.0259416103363037,0.126506507396698,-1.6716893790853565e-06,0.5735445770949524,0.8191743513425244,1.3591612686336728e-05
191.0,-1.299568073097211,-2.749804805033846,-2.1136359284862856,2.0831313202233237,1.3162945585041987,3.0467260675357855,0.024756429716944695,1.0263885259628296,0.12689419090747833,-1.4973433883100953e-06,0.5735463281239629,0.8191731253649852,1.315445731078196e-05
192.0,-1.2986975679956747,-2.7491853740379817,-2.1133448986001913,2.0822965911695746,1.3154799144591136,3.0464103165122296,0.024062270298600197,1.0268348455429077,0.12728232145309448,-1.0538505606014692e-06,0.5735480770364441,0.8191719008648293,1.265658219105377e-05
193.0,-1.2978270628941384,-2.7485659430421174,-2.1130538687140974,2.0814618621158254,1.3146652704140285,3.046094565488674,0.023366989567875862,1.0272802114486694,0.1276707500219345,-8.393173491648687e-07,0.5735498687090962,0.8191706464220042,1.1984563167555927e-05
194.0,-1.2969565577926023,-2.7479465120462536,-2.1127628388280035,2.0806271330620763,1.3138506263689433,3.0457788144651188,0.022671421989798546,1.0277246236801147,0.1280595064163208,-4.984701936806967e-07,0.5735519430064151,0.8191691940855279,1.1601037066922673e-05
195.0,-1.296086052691066,-2.7473270810503894,-2.1124718089419092,2.079792404008327,1.313035982323858,3.045463063441563,0.021974928677082062,1.0281682014465332,0.1284487098455429,-1.9830232394735117e-07,0.5735540005991877,0.8191677534402414,1.0967931619383971e-05
196.0,-1.2952155475895297,-2.746707650054525,-2.1121807790558154,2.078957674954578,1.3122213382787729,3.0451473124180075,0.02127799391746521,1.0286108255386353,0.12883833050727844,2.4025400828254936e-07,0.5735562323524652,0.819166190842867,1.0467792085875193e-05
197.0,-1.2943450424879936,-2.746088219058661,-2.111889749169721,2.078122945900829,1.3114066942336877,3.0448315613944517,0.02057993784546852,1.029052734375,0.12922793626785278,4.1801836828452116e-07,0.5735587352594352,0.8191644383826713,9.82980330859893e-06
198.0,-1.2934745373864573,-2.7454687880627966,-2.111598719283627,2.0772882168470796,1.3105920501886026,3.0445158103708962,0.019881639629602432,1.0294936895370483,0.12961825728416443,9.254477172246917e-07,0.5735610472948576,0.8191628195540188,9.245518896572549e-06
199.0,-1.292604032284921,-2.7448493570669323,-2.111307689397533,2.0764534877933305,1.3097774061435175,3.044200059347341,0.01918237842619419,1.0299336910247803,0.13000892102718353,1.2007708603751017e-06,0.573563596071384,0.81916103495337,8.62230549998989e-06
200.0,-1.291733527183385,-2.744229926071068,-2.111016659511439,2.0756187587395813,1.3089627620984323,3.043884308323785,0.018482502549886703,1.0303728580474854,0.1303999125957489,1.699117244209108e-06,0.5735663190054849,0.8191591283978865,7.875657431716778e-06
201.0,-1.2908630220818487,-2.7436104950752043,-2.1107256296253447,2.074784029685832,1.3081481180533472,3.0435685573002296,0.017781971022486687,1.030810832977295,0.13079151511192322,2.1293095547486672e-06,0.5735690335825113,0.8191572276797126,7.125840192536904e-06
202.0,-1.2899925169803124,-2.74299106407934,-2.110434599739251,2.073949300632083,1.3073334740082618,3.043252806276674,0.01708085648715496,1.0312484502792358,0.13118326663970947,2.6287877173434214e-06,0.5735718712039866,0.8191552407903782,6.50417638933303e-06
203.0,-1.2891220118787763,-2.7423716330834758,-2.1101435698531565,2.073114571578334,1.3065188299631767,3.0429370552531183,0.016378870233893394,1.0316848754882812,0.13157528638839722,3.024998580006321e-06,0.573575011261506,0.8191530421199285,5.734040687238594e-06
204.0,-1.28825150677724,-2.7417522020876115,-2.1098525399670627,2.0722798425245847,1.3057041859180916,3.042621304229563,0.01567622646689415,1.0321205854415894,0.13196788728237152,3.496471206346257e-06,0.5735780146800913,0.8191509391067063,4.90111833221116e-06
205.0,-1.2865607444710823,-2.7411364237712244,-2.110414724758279,2.07239557164207,1.3041238121726892,3.041996996341299,0.014602416194975376,1.0319596529006958,0.13244390487670898,3.1566532625782553e-06,0.5735755889882447,0.8191526375927329,5.629601578221833e-06
206.0,-1.2857153633180036,-2.7408285346130308,-2.1106958171538874,2.0724534362008127,1.3033336252999883,3.041684842397167,0.014065624214708805,1.0318783521652222,0.13268157839775085,2.885247021470938e-06,0.5735745941171231,0.8191533342059261,5.862354923633938e-06
207.0,-1.2848699821649248,-2.7405206454548376,-2.1109769095494957,2.0725113007595555,1.3025434384272871,3.0413726884530354,0.013529174961149693,1.0317968130111694,0.13291917741298676,2.7451532410596863e-06,0.5735736941266842,0.819153964380397,6.181610571784149e-06
208.0,-1.284024601011846,-2.740212756296644,-2.111258001945104,2.072569165318298,1.301753251554586,3.0410605345089032,0.012992757372558117,1.0317147970199585,0.1331569254398346,2.5527369460069843e-06,0.5735727857858061,0.8191546004006777,6.465246793238073e-06
209.0,-1.283179219858767,-2.7399048671384505,-2.111539094340712,2.0726270298770406,1.3009630646818848,3.0407483805647715,0.012456478551030159,1.0316320657730103,0.13339439034461975,2.4799186038614655e-06,0.5735720338959088,0.819155126873661,6.554125741928858e-06
210.0,-1.2823338387056882,-2.739596977980257,-2.1118201867363204,2.0726848944357834,1.300172877809184,3.0404362266206397,0.011920532211661339,1.031549096107483,0.1336316168308258,2.339689943161955e-06,0.5735714540581521,0.8191555328744256,6.7349198350277324e-06
211.0,-1.2814884575526095,-2.7392890888220633,-2.1121012791319287,2.072742758994526,1.2993826909364827,3.040124072676508,0.011384626850485802,1.0314655303955078,0.13386882841587067,2.290321153524857e-06,0.5735709743313124,0.8191558687768056,6.921012176193364e-06
212.0,-1.2806430763995307,-2.7389811996638698,-2.112382371527537,2.0728006235532686,1.2985925040637816,3.0398119187323758,0.010848911479115486,1.0313814878463745,0.13410574197769165,2.1481245969726014e-06,0.5735705937051744,0.8191561352890477,7.09864515528901e-06
213.0,-1.2797976952464518,-2.7386733105056766,-2.112663463923145,2.0728584881120113,1.2978023171910804,3.039499764788244,0.010313205420970917,1.0312970876693726,0.13434277474880219,2.0704132918697103e-06,0.5735702307905202,0.8191563894015498,7.0170782113528375e-06
214.0,-1.278952314093373,-2.738365421347483,-2.1129445563187534,2.072916352670754,1.2970121303183795,3.0391876108441123,0.009777982719242573,1.0312120914459229,0.13457942008972168,2.027911544361423e-06,0.5735701911496794,0.8191564171569296,7.143543475889106e-06
215.0,-1.278106932940294,-2.7380575321892895,-2.1132256487143617,2.0729742172294965,1.2962219434456783,3.03887545689998,0.009242720901966095,1.031126856803894,0.13481615483760834,1.9466530681361135e-06,0.5735701452687085,0.8191564492821033,7.223568655717221e-06
216.0,-1.2772615517872152,-2.737749643031096,-2.11350674110997,2.0730320817882393,1.2954317565729772,3.0385633029558483,0.008707564324140549,1.0310410261154175,0.1350528597831726,1.926861035470708e-06,0.5735700566276365,0.8191565113487006,7.175184810187228e-06
217.0,-1.2764161706341366,-2.7374417538729023,-2.1137878335055778,2.073089946346982,1.294641569700276,3.0382511490117166,0.008172830566763878,1.0309547185897827,0.13528910279273987,2.0072781324242023e-06,0.5735702652006619,0.8191563653068312,7.135439398552527e-06
218.0,-1.2755707894810577,-2.7371338647147088,-2.114068925901186,2.0731478109057244,1.2938513828275748,3.0379389950675844,0.0076381308026611805,1.0308678150177002,0.1355251669883728,1.9947903138950875e-06,0.5735706739966792,0.8191560790696512,7.0888295507369115e-06
219.0,-1.2747254083279789,-2.736825975556515,-2.1143500182967943,2.073205675464467,1.293061195954874,3.0376268411234526,0.0071037509478628635,1.0307806730270386,0.135761559009552,2.072735599387504e-06,0.573570836688642,0.8191559651528697,7.103899334003263e-06
220.0,-1.2738800271749,-2.736518086398322,-2.1146311106924025,2.07326354002321,1.2922710090821727,3.037314687179321,0.006569259334355593,1.0306928157806396,0.1359974443912506,1.9964408460261867e-06,0.5735714968182566,0.8191555029330705,6.938830731548578e-06
221.0,-1.2730346460218211,-2.7362101972401285,-2.1149122030880108,2.0733214045819524,1.2914808222094716,3.0370025332351887,0.006035275291651487,1.0306048393249512,0.13623341917991638,2.22230330833951e-06,0.573572088125828,0.8191550889003983,6.827812582184938e-06
222.0,-1.2721892648687425,-2.735902308081935,-2.115193295483619,2.073379269140695,1.2906906353367704,3.036690379291057,0.005501153413206339,1.0305161476135254,0.13646915555000305,2.253270954777443e-06,0.5735726940243621,0.8191546646521828,6.5672120428039595e-06
223.0,-1.2713438837156636,-2.7355944189237413,-2.1154743878792273,2.073437133699438,1.2899004484640695,3.036378225346925,0.004967242479324341,1.030427098274231,0.13670480251312256,2.2893372146096976e-06,0.5735734313236431,0.8191541483953152,6.413033574563375e-06
224.0,-1.2704985025625848,-2.7352865297655478,-2.1157554802748355,2.0734949982581807,1.2891102615913683,3.0360660714027934,0.004433708265423775,1.0303376913070679,0.1369403451681137,2.4398676068909615e-06,0.5735743855442901,0.8191534802480152,6.253142894166489e-06
225.0,-1.269653121409506,-2.734978640607354,-2.1160365726704438,2.073552862816923,1.2883200747186672,3.035753917458661,0.003900205949321389,1.0302475690841675,0.13717564940452576,2.6282099572337727e-06,0.5735754544664365,0.8191527317854956,5.922255865423212e-06
226.0,-1.268807740256427,-2.734670751449161,-2.116317665066052,2.073610727375666,1.287529887845966,3.0354417635145294,0.0033669178374111652,1.030157208442688,0.13741108775138855,2.7472204387911707e-06,0.5735764775069588,0.8191520154474895,5.610520872359482e-06
227.0,-1.2679623591033484,-2.7343628622909675,-2.1165987574616603,2.0736685919344087,1.286739700973265,3.0351296095703977,0.0028338695410639048,1.0300661325454712,0.1376459151506424,2.85887722133633e-06,0.5735779229180685,0.819151003358283,5.471676297249156e-06
228.0,-1.2671169779502696,-2.734054973132774,-2.1168798498572685,2.073726456493151,1.285949514100564,3.0348174556262655,0.0023009032011032104,1.0299746990203857,0.1378808319568634,3.1186557724894783e-06,0.5735792118786206,0.819150100815147,5.050615482956589e-06
229.0,-1.2662715967971907,-2.7337470839745803,-2.1171609422528768,2.073784321051894,1.2851593272278627,3.0345053016821337,0.0017680118326097727,1.0298829078674316,0.13811588287353516,3.2495616097814296e-06,0.5735805634175404,0.8191491544510108,4.609932512263672e-06
230.0,-1.2645462146743682,-2.7338314773993884,-2.1170023418761654,2.073903819768166,1.2835486090023636,3.033857205703017,0.0006045581540092826,1.0299344062805176,0.13803495466709137,2.3289420970573907e-06,0.5735755889881332,0.8191526375925738,6.051573445870394e-06
231.0,-1.263683523612957,-2.7338736741117926,-2.11692304168781,2.0739635691263016,1.2827432498896139,3.0335331577134586,2.2753927623853087e-05,1.0299593210220337,0.13799439370632172,1.935799109283355e-06,0.5735733113919407,0.819154232370815,6.64209541619154e-06
232.0,-1.2628208325515458,-2.7339158708241964,-2.116843741499454,2.0740233184844374,1.2819378907768644,3.0332091097239005,-0.0005591126973740757,1.0299837589263916,0.1379537731409073,1.5357465491330868e-06,0.5735710880218398,0.8191557891697351,7.265877239304623e-06
233.0,-1.2619581414901346,-2.7339580675366006,-2.1167644413110986,2.0740830678425737,1.2811325316641147,3.032885061734342,-0.001140944892540574,1.0300079584121704,0.13791288435459137,1.1738957479466832e-06,0.5735691482822294,0.8191571473631444,7.829145451025892e-06
234.0,-1.2610954504287233,-2.7340002642490044,-2.116685141122743,2.0741428172007095,1.2803271725513652,3.0325610137447834,-0.0017228701617568731,1.030031442642212,0.1378721296787262,9.090642556981155e-07,0.5735670990674521,0.8191585822034321,8.305666385411822e-06
235.0,-1.2602327593673122,-2.7340424609614087,-2.1166058409343873,2.0742025665588453,1.2795218134386155,3.0322369657552253,-0.0023048517759889364,1.0300546884536743,0.13783122599124908,5.67106440599287e-07,0.5735652020812225,0.8191599104465495,8.854721574382561e-06
236.0,-1.2593700683059008,-2.734084657673813,-2.116526540746032,2.0742623159169815,1.278716454325866,3.0319129177656667,-0.0028868045192211866,1.0300770998001099,0.13778997957706451,2.2080931908025737e-07,0.5735635616573403,0.8191610590420851,9.378014410093257e-06
237.0,-1.2585073772444897,-2.7341268543862167,-2.1164472405576764,2.0743220652751173,1.2779110952131163,3.031588869776108,-0.003468872280791402,1.0300995111465454,0.13774870336055756,-7.813869933217134e-08,0.5735620390527314,0.819162125137694,9.877441202211098e-06
238.0,-1.2576446861830786,-2.734169051098621,-2.1163679403693205,2.0743818146332536,1.2771057361003666,3.03126482178655,-0.0040509351529181,1.0301209688186646,0.13770729303359985,-2.8909386769506693e-07,0.5735605842593798,0.8191631437502712,1.0253180035878673e-05
239.0,-1.2567819951216672,-2.7342112478110248,-2.116288640180965,2.0744415639913893,1.2763003769876171,3.0309407737969916,-0.004633352160453796,1.0301421880722046,0.1376660317182541,-5.894232695941426e-07,0.5735590981743969,0.8191641842707428,1.0443833125013855e-05
240.0,-1.255919304060256,-2.734253444523429,-2.116209339992609,2.074501313349525,1.2754950178748674,3.0306167258074335,-0.005215406883507967,1.030163049697876,0.1376246064901352,-7.90996800990092e-07,0.5735578269001403,0.819165074379149,1.0879616994555182e-05
241.0,-1.2550566129988447,-2.7342956412358332,-2.1161300398042537,2.0745610627076614,1.274689658762118,3.030292677817875,-0.005797620862722397,1.0301833152770996,0.13758280873298645,-9.818180084723775e-07,0.5735568038426502,0.8191657906920391,1.1168090555063267e-05
242.0,-1.2541939219374336,-2.734337837948237,-2.1160507396158983,2.074620812065797,1.2738842996493682,3.0299686298283164,-0.006380116567015648,1.0302032232284546,0.13754114508628845,-1.1456804983490348e-06,0.5735556806728453,0.8191665771005119,1.1314919383940575e-05
243.0,-1.2533312308760223,-2.7343800346606413,-2.1159714394275424,2.074680561423933,1.2730789405366187,3.0296445818387583,-0.006962456274777651,1.0302226543426514,0.1374993920326233,-1.3575217214178812e-06,0.5735547462553418,0.8191672313455214,1.165507066349414e-05
244.0,-1.2524685398146111,-2.734422231373045,-2.115892139239187,2.074740310782069,1.272273581423869,3.0293205338491997,-0.0075447638519108295,1.0302413702011108,0.13745737075805664,-1.491495781419874e-06,0.573554135115852,0.8191676592427055,1.1836778467340872e-05
245.0,-1.2516058487531998,-2.7344644280854493,-2.1158128390508315,2.074800060140205,1.2714682223111196,3.028996485859641,-0.008127243258059025,1.0302597284317017,0.13741524517536163,-1.6846614682917062e-06,0.5735534092740509,0.8191681674496187,1.2021172932161525e-05
246.0,-1.2507431576917887,-2.734506624797853,-2.1157335388624756,2.074859809498341,1.2706628631983699,3.028672437870083,-0.008709653280675411,1.0302776098251343,0.13737326860427856,-1.7305121523235465e-06,0.5735527689558494,0.8191686157766048,1.2112994813038568e-05
247.0,-1.2498804666303776,-2.7345488215102574,-2.11565423867412,2.074919558856477,1.2698575040856201,3.0283483898805246,-0.009292186237871647,1.0302951335906982,0.1373308151960373,-1.8183062550130008e-06,0.5735524686175714,0.819168826061192,1.2202947904694303e-05
248.0,-1.2490177755689662,-2.7345910182226616,-2.1155749384857643,2.074979308214613,1.2690521449728707,3.0280243418909665,-0.009874667041003704,1.0303120613098145,0.13728857040405273,-1.8574667368968762e-06,0.5735520514643166,0.819169118134944,1.2314306567431034e-05
249.0,-1.248155084507555,-2.7346332149350654,-2.115495638297409,2.0750390575727486,1.268246785860121,3.027700293901408,-0.010457181371748447,1.0303285121917725,0.13724598288536072,-1.912961604570945e-06,0.5735518491253148,0.8191692598036296,1.2411531568942425e-05
250.0,-1.2472923934461437,-2.7346754116474696,-2.1154163381090534,2.075098806930885,1.2674414267473715,3.0273762459118494,-0.011039788834750652,1.0303447246551514,0.1372033655643463,-1.9638028659125284e-06,0.5735518230653747,0.8191692780486003,1.2484531646994069e-05
251.0,-1.2464297023847326,-2.7347176083598734,-2.1153370379206975,2.0751585562890207,1.2666360676346218,3.0270521979222913,-0.011622360907495022,1.0303599834442139,0.13716080784797668,-1.91663883303996e-06,0.5735518491252125,0.8191692598034831,1.242536142922426e-05
252.0,-1.2455670113233213,-2.7347598050722777,-2.115257737732342,2.075218305647157,1.2658307085218723,3.0267281499327328,-0.012205179780721664,1.0303752422332764,0.1371178925037384,-1.9219471288072415e-06,0.5735521035830572,0.8191690816432867,1.2306515543005473e-05
253.0,-1.2447043202619101,-2.7348020017846815,-2.1151784375439866,2.0752780550052927,1.2650253494091226,3.026404101943174,-0.012787668034434319,1.0303897857666016,0.13707517087459564,-1.7963612738276817e-06,0.5735522777487443,0.8191689596987489,1.2331662354046426e-05
254.0,-1.2438416292004988,-2.7348441984970857,-2.1150991373556307,2.0753378043634285,1.264219990296373,3.026080053953616,-0.01337036769837141,1.0304038524627686,0.13703219592571259,-1.7120937436291282e-06,0.5735526719617084,0.8191686836869859,1.2214111875077477e-05
255.0,-1.2429789381390877,-2.73488639520949,-2.1150198371672753,2.0753975537215648,1.2634146311836234,3.0257560059640576,-0.013953331857919693,1.0304176807403564,0.13698901236057281,-1.6307610003991864e-06,0.5735531861092477,0.8191683237030131,1.1952699928646278e-05
256.0,-1.2421162470776765,-2.7349285919218937,-2.1149405369789194,2.0754573030797006,1.2626092720708737,3.0254319579744995,-0.014536075294017792,1.0304306745529175,0.13694579899311066,-1.5994964023346538e-06,0.5735538264268325,0.8191678753751055,1.1917051626620755e-05
257.0,-1.2412535560162652,-2.734970788634298,-2.114861236790564,2.0755170524378364,1.2618039129581242,3.025107909984941,-0.015118720009922981,1.0304434299468994,0.13690252602100372,-1.3914097779846761e-06,0.5735545293277969,0.819167383229605,1.1764121534277973e-05
258.0,-1.240390864954854,-2.735012985346702,-2.1147819366022085,2.0755768017959726,1.2609985538453745,3.0247838619953824,-0.015701765194535255,1.0304557085037231,0.13685905933380127,-1.2962531450242742e-06,0.5735553239910626,0.8191668268368792,1.1394079257934456e-05
259.0,-1.2395281738934427,-2.735055182059106,-2.1147026364138526,2.0756365511541084,1.260193194732625,3.0244598140058243,-0.016284659504890442,1.0304673910140991,0.13681566715240479,-1.155893007518233e-06,0.5735562667582712,0.8191661667428635,1.1170589910971933e-05
260.0,-1.2386654828320316,-2.73509737877151,-2.114623336225497,2.075696300512244,1.2593878356198753,3.0241357660162658,-0.01686755008995533,1.0304787158966064,0.13677191734313965,-9.57407196988493e-07,0.5735574295705658,0.8191653525786241,1.0873234611861059e-05
261.0,-1.2378027917706202,-2.735139575483914,-2.1145440360371417,2.0757560498703804,1.2585824765071258,3.0238117180267072,-0.017450440675020218,1.030489444732666,0.1367281973361969,-7.334798207470609e-07,0.5735587352551762,0.8191644383765886,1.0541011337364776e-05
262.0,-1.2369401007092091,-2.7351817721963183,-2.114464735848786,2.0758157992285162,1.2577771173943761,3.023487670037149,-0.01803341507911682,1.030499815940857,0.13668449223041534,-5.406159398270225e-07,0.57355988971372,0.8191636300553281,1.0289347153357443e-05
263.0,-1.2360774096477978,-2.735223968908722,-2.1143854356604304,2.075875548586652,1.2569717582816267,3.0231636220475906,-0.01861642487347126,1.0305097103118896,0.13664036989212036,-2.7851516345190877e-07,0.5735614102093309,0.8191625654412988,9.911399433553946e-06
264.0,-1.2352147185863867,-2.7352661656211263,-2.1143061354720745,2.0759352979447883,1.256166399168877,3.0228395740580325,-0.019199451431632042,1.0305191278457642,0.13659636676311493,-3.311562064038945e-08,0.5735630162249963,0.8191614409428671,9.554540954853778e-06
265.0,-1.2343520275249755,-2.73530836233353,-2.114226835283719,2.075995047302924,1.2553610400561273,3.022515526068474,-0.01978272758424282,1.03052818775177,0.13655224442481995,2.1950385211095215e-07,0.5735647046413648,0.8191602587456801,9.018102114051932e-06
266.0,-1.2334893364635642,-2.7353505590459344,-2.1141475350953636,2.0760547966610603,1.2545556809433778,3.0221914780789154,-0.02036563865840435,1.0305365324020386,0.13650792837142944,6.354999809978207e-07,0.5735664482948055,0.8191590378653179,8.581666017650852e-06
267.0,-1.232626645402153,-2.7353927557583386,-2.1140682349070077,2.076114546019196,1.253750321830628,3.0218674300893573,-0.02094872295856476,1.030544400215149,0.13646364212036133,9.716613326139503e-07,0.573568242046875,0.8191577819005161,8.13264540085982e-06
268.0,-1.2317639543407417,-2.7354349524707424,-2.1139889347186522,2.076174295377332,1.2529449627178786,3.021543382099799,-0.02153206802904606,1.0305520296096802,0.1364191770553589,1.238030155212819e-06,0.5735703851311185,0.8191562813294314,7.585849776806706e-06
269.0,-1.2309012632793306,-2.7354771491831467,-2.113909634530297,2.076234044735468,1.2521396036051289,3.0212193341102402,-0.022115277126431465,1.0305589437484741,0.13637448847293854,1.5232069114370733e-06,0.5735726168521592,0.8191547186855533,7.0878847996593855e-06
270.0,-1.2300385722179192,-2.7355193458955505,-2.113830334341941,2.076293794093604,1.2513342444923794,3.020895286120682,-0.0226985402405262,1.030565619468689,0.13632984459400177,1.9137643793459294e-06,0.5735748715096067,0.8191531399728996,6.4509465887961775e-06
271.0,-1.229175881156508,-2.7355615426079547,-2.1137510341535855,2.0763535434517397,1.2505288853796297,3.0205712381311236,-0.023281918838620186,1.030571699142456,0.1362849771976471,2.2413298947709858e-06,0.5735772773836085,0.8191514553677958,5.7450416397393226e-06
272.0,-1.2283131900950968,-2.7356037393203585,-2.1136717339652296,2.076413292809876,1.2497235262668802,3.0202471901415655,-0.02386520616710186,1.0305771827697754,0.1362401247024536,2.6353693696822477e-06,0.5735796978428852,0.8191497605379616,5.110710823776006e-06
273.0,-1.2274504990336856,-2.7356459360327627,-2.113592433776874,2.0764730421680118,1.2489181671541305,3.019923142152007,-0.024448547512292862,1.030582308769226,0.1361951380968094,3.0819944413481534e-06,0.573582366506822,0.8191478918995686,4.4076829013041076e-06
274.0,-1.2257159611342288,-2.7349976740357973,-2.1140344948592666,2.076494087530727,1.2473022766698185,3.0192527580363526,-0.02556728571653366,1.0304369926452637,0.13668116927146912,1.658813727974848e-06,0.5735753199435848,0.8191528259767354,6.571975101196085e-06
275.0,-1.2248486921845005,-2.734673543037314,-2.114255525400463,2.0765046102120843,1.2464943314276626,3.0189175659785255,-0.026126423850655556,1.0303635597229004,0.1369241327047348,1.0487117646565028e-06,0.5735718253201928,0.8191552729116629,7.666904390037099e-06
276.0,-1.223981423234772,-2.7343494120388314,-2.114476555941659,2.0765151328934417,1.2456863861855065,3.0185823739206983,-0.026685595512390137,1.0302897691726685,0.1371668428182602,4.735667558128533e-07,0.5735685423799693,0.8191575716059121,8.520453413848884e-06
277.0,-1.2231141542850437,-2.7340252810403487,-2.1146975864828557,2.0765256555747995,1.2448784409433507,3.0182471818628716,-0.027244552969932556,1.0302151441574097,0.13740932941436768,-1.8332867668645824e-07,0.5735656473965849,0.8191595986357423,9.456873785856129e-06
278.0,-1.2222468853353152,-2.733701150041866,-2.1149186170240517,2.076536178256157,1.2440704957011948,3.0179119898050444,-0.02780338190495968,1.0301402807235718,0.1376517415046692,-7.954173379503633e-07,0.573562638713047,0.8191617052603554,1.0336365859323042e-05
279.0,-1.2213796163855868,-2.7333770190433833,-2.115139647565248,2.0765467009375143,1.2432625504590387,3.017576797747217,-0.028361909091472626,1.0300648212432861,0.13789400458335876,-1.299615758929892e-06,0.5735597583042723,0.8191637220517523,1.1250571074927226e-05
280.0,-1.2205123474358586,-2.7330528880449,-2.1153606781064442,2.076557223618872,1.2424546052168828,3.01724160568939,-0.028920553624629974,1.0299888849258423,0.1381361186504364,-1.8555824005144088e-06,0.5735570468228062,0.8191656205518589,1.1930897483172985e-05
281.0,-1.2196450784861301,-2.7327287570464174,-2.1155817086476407,2.0765677463002294,1.2416466599747267,3.016906413631563,-0.02947906404733658,1.0299124717712402,0.13837815821170807,-2.3791734390518527e-06,0.573554409386636,0.8191674671924142,1.2690610696484853e-05
282.0,-1.2187778095364017,-2.7324046260479347,-2.1158027391888368,2.0765782689815873,1.2408387147325708,3.0165712215737357,-0.030037187039852142,1.0298353433609009,0.13861986994743347,-2.773789225517766e-06,0.5735519064672091,0.8191692196358307,1.3466992160189546e-05
283.0,-1.2179105405866733,-2.732080495049452,-2.1160237697300333,2.0765887916629446,1.240030769490415,3.0162360295159085,-0.03059539571404457,1.0297579765319824,0.1388617902994156,-3.2623765561102256e-06,0.5735494744764402,0.8191709224058076,1.4211775199358103e-05
284.0,-1.2170432716369448,-2.731756364050969,-2.1162448002712297,2.076599314344302,1.2392228242482588,3.0159008374580814,-0.031153205782175064,1.0296800136566162,0.13910304009914398,-3.665388491260193e-06,0.5735473313487789,0.8191724229150963,1.4988985863343138e-05
285.0,-1.2161760026872166,-2.731432233052486,-2.116465830812426,2.07660983702566,1.238414879006103,3.015565645400254,-0.03171117603778839,1.0296015739440918,0.13934475183486938,-4.0953102525761034e-06,0.5735451767487505,0.8191739314520836,1.5518052131663528e-05
286.0,-1.2153087337374882,-2.7311081020540033,-2.1166868613536223,2.076620359707017,1.2376069337639468,3.015230453342427,-0.03226876258850098,1.02952241897583,0.13958579301834106,-4.4355030510230066e-06,0.5735432077810675,0.8191753100079394,1.6184123848825705e-05
287.0,-1.2144414647877597,-2.7307839710555206,-2.1169078918948183,2.0766308823883746,1.236798988521791,3.0148952612846003,-0.032826341688632965,1.0294431447982788,0.13982710242271423,-4.755489604560437e-06,0.5735413566311824,0.8191766060692846,1.6728902847213955e-05
288.0,-1.2135741958380313,-2.730459840057038,-2.117128922436015,2.0766414050697324,1.2359910432796348,3.014560069226773,-0.03338367119431496,1.0293630361557007,0.1400679349899292,-5.108263509751298e-06,0.5735396588196289,0.8191777947629282,1.7387214275487132e-05
289.0,-1.2127069268883028,-2.730135709058555,-2.117349952977211,2.0766519277510898,1.235183098037479,3.014224877168946,-0.03394108638167381,1.029282569885254,0.14030900597572327,-5.438639631916633e-06,0.5735379443042746,0.8191789951513118,1.7791428076077427e-05
290.0,-1.2118396579385746,-2.729811578060072,-2.1175709835184073,2.076662450432447,1.234375152795323,3.0138896851111188,-0.03449799865484238,1.029201626777649,0.1405496597290039,-5.575439245219445e-06,0.573536484246355,0.8191800173801242,1.8230317810819934e-05
291.0,-1.2109723889888462,-2.7294874470615893,-2.1177920140596034,2.076672973113805,1.233567207553167,3.0135544930532916,-0.03505510464310646,1.0291199684143066,0.1407904028892517,-5.867256638174292e-06,0.5735350867724681,0.8191809957897139,1.8532280828106376e-05
292.0,-1.2101051200391177,-2.7291633160631066,-2.1180130446008,2.0766834957951623,1.232759262311011,3.0132193009954644,-0.03561203554272652,1.0290379524230957,0.1410306841135025,-6.0942707142659104e-06,0.5735338519950921,0.8191818602852282,1.892523032337509e-05
293.0,-1.2092378510893893,-2.728839185064624,-2.118234075141996,2.0766940184765197,1.231951317068855,3.0128841089376373,-0.03616861253976822,1.0289554595947266,0.14127105474472046,-6.2388348662628745e-06,0.5735327266838596,0.8191826481379798,1.9320996843219353e-05
294.0,-1.2083705821396609,-2.728515054066141,-2.1184551056831924,2.0767045411578775,1.231143371826699,3.01254891687981,-0.036725230515003204,1.0288723707199097,0.14151103794574738,-6.3865909010683495e-06,0.5735317860113449,0.819183306720582,1.9600537706041997e-05
295.0,-1.2075033131899326,-2.728190923067658,-2.1186761362243884,2.076715063839235,1.2303354265845432,3.012213724821983,-0.03728161007165909,1.0287889242172241,0.14175131916999817,-6.5045734410600394e-06,0.5735308432219567,0.8191839667852681,1.9818038194598565e-05
296.0,-1.2066360442402042,-2.7278667920691753,-2.118897166765585,2.0767255865205927,1.229527481342387,3.0118785327641557,-0.03783769533038139,1.0287048816680908,0.1419910043478012,-6.643528278715345e-06,0.5735301861832266,0.819184426782705,2.022840201505076e-05
297.0,-1.2057687752904758,-2.7275426610706925,-2.1191181973067814,2.07673610920195,1.2287195361002312,3.011543340706329,-0.038393937051296234,1.0286203622817993,0.14223095774650574,-6.669998828366814e-06,0.5735293602128347,0.8191850050600038,2.035212802937405e-05
298.0,-1.2049015063407473,-2.72721853007221,-2.1193392278479775,2.0767466318833074,1.227911590858075,3.011208148648502,-0.03895001485943794,1.0285354852676392,0.1424703299999237,-6.752175472382437e-06,0.5735289889303289,0.8191852649981087,2.0516848263342738e-05
299.0,-1.204034237391019,-2.726894399073727,-2.119560258389174,2.0767571545646653,1.2271036456159192,3.0108729565906747,-0.039505839347839355,1.0284498929977417,0.14271005988121033,-6.752690030820298e-06,0.5735284570668909,0.8191856373652698,2.0574970106950493e-05
300.0,-1.2031669684412907,-2.726570268075244,-2.11978128893037,2.0767676772460226,1.2262957003737633,3.0105377645328475,-0.040061626583337784,1.0283637046813965,0.1429491490125656,-6.834966870693692e-06,0.5735282974847524,0.8191857490925354,2.0523792459908624e-05
301.0,-1.2022996994915622,-2.7262461370767612,-2.1200023194715665,2.07677819992738,1.2254877551316072,3.0102025724750203,-0.040616948157548904,1.0282772779464722,0.14318834245204926,-6.714562628248487e-06,0.5735281827817513,0.8191858293955442,2.0676342179452162e-05
302.0,-1.2014324305418338,-2.7259220060782785,-2.1202233500127625,2.076788722608738,1.2246798098894514,3.009867380417193,-0.041172418743371964,1.0281903743743896,0.14342749118804932,-6.711390803637563e-06,0.5735280941383546,0.8191858914574381,2.0641374107030677e-05
303.0,-1.2005651615921054,-2.725597875079796,-2.120444380553959,2.076799245290095,1.2238718646472952,3.009532188359366,-0.04172773286700249,1.0281027555465698,0.1436663419008255,-6.718483232510694e-06,0.5735282974836514,0.8191857490909626,2.0655379780886208e-05
304.0,-1.1996978926423771,-2.7252737440813126,-2.120665411095155,2.0768097679714526,1.2230639194051394,3.009196996301539,-0.04228293150663376,1.0280147790908813,0.1439051479101181,-6.619025989830266e-06,0.5735284570678164,0.8191856373665916,2.053994906025509e-05
305.0,-1.1988306236926487,-2.72494961308283,-2.1208864416363515,2.0768202906528104,1.2222559741629835,3.0088618042437116,-0.042837779968976974,1.0279264450073242,0.14414376020431519,-6.4537444657757225e-06,0.5735287918216276,0.8191854030015786,2.0472289109901055e-05
306.0,-1.1979633547429203,-2.724625482084347,-2.1211074721775476,2.0768308133341677,1.2214480289208274,3.0085266121858845,-0.04339269921183586,1.0278372764587402,0.14438211917877197,-6.459088831452689e-06,0.5735293977426034,0.8191849787881715,2.0275842376066137e-05
307.0,-1.1970960857931918,-2.7243013510858645,-2.121328502718744,2.076841336015525,1.2206400836786715,3.0081914201280577,-0.04394729062914848,1.0277478694915771,0.14462041854858398,-6.283468559885561e-06,0.5735300631311822,0.8191845129389144,2.0156736090098303e-05
308.0,-1.1962288168434634,-2.7239772200873817,-2.1215495332599406,2.076851858696883,1.2198321384365154,3.0078562280702306,-0.044501893222332,1.0276577472686768,0.14485867321491241,-6.130491391183087e-06,0.5735306492309289,0.8191841026059122,1.9822022900630578e-05
309.0,-1.1953615478937352,-2.7236530890888986,-2.1217705638011366,2.0768623813782403,1.2190241931943595,3.0075210360124034,-0.045056331902742386,1.0275672674179077,0.14509668946266174,-5.9362691069914755e-06,0.5735315836699,0.8191834483917017,1.946631865677426e-05
310.0,-1.1944942789440067,-2.723328958090416,-2.121991594342333,2.076872904059598,1.2182162479522036,3.007185843954576,-0.045610442757606506,1.0274763107299805,0.14533460140228271,-5.700404825828154e-06,0.5735325379287134,0.8191827802952757,1.929394787821609e-05
311.0,-1.1936270099942783,-2.723004827091933,-2.122212624883529,2.0768834267409555,1.2174083027100475,3.006850651896749,-0.04616434499621391,1.027384877204895,0.14557242393493652,-5.409801935134224e-06,0.5735336350643608,0.8191820121674471,1.9023331260608097e-05
312.0,-1.1927597410445498,-2.7226806960934504,-2.1224336554247256,2.076893949422313,1.2166003574678916,3.006515459838922,-0.046718303114175797,1.0272927284240723,0.14581003785133362,-5.162319125987155e-06,0.5735348980168175,0.8191811279464708,1.8615509413542914e-05
313.0,-1.1918924720948214,-2.7223565650949677,-2.1226546859659217,2.0769044721036707,1.2157924122257355,3.0061802677810947,-0.04727199301123619,1.0272002220153809,0.14604748785495758,-4.900664200642242e-06,0.5735361953781474,0.8191802196312863,1.8220337516262482e-05
314.0,-1.1910252031450932,-2.7220324340964845,-2.122875716507118,2.076914994785028,1.2149844669835796,3.0058450757232675,-0.04782567173242569,1.0271072387695312,0.14628463983535767,-4.634938124912944e-06,0.5735377273757106,0.819179147036135,1.7786868814970558e-05
315.0,-1.1901579341953648,-2.721708303098002,-2.123096747048314,2.0769255174663854,1.2141765217414238,3.0055098836654404,-0.048379141837358475,1.0270137786865234,0.14652206003665924,-4.270908779287386e-06,0.5735392103737288,0.8191781087455349,1.7254788023278827e-05
316.0,-1.1892906652456363,-2.721384172099519,-2.1233177775895107,2.0769360401477432,1.2133685764992677,3.005174691607613,-0.04893229529261589,1.0269198417663574,0.14675886929035187,-3.980549902853748e-06,0.5735411449347557,0.8191767542875473,1.6911655136422333e-05
317.0,-1.1884233962959079,-2.7210600411010364,-2.1235388081307067,2.0769465628291006,1.2125606312571118,3.0048394995497865,-0.04948538541793823,1.0268254280090332,0.1469959020614624,-3.6250888672688345e-06,0.5735429710297639,0.8191754757691083,1.6360476778177745e-05
318.0,-1.1875561273461794,-2.7207359101025537,-2.123759838671903,2.076957085510458,1.2117526860149557,3.0045043074919593,-0.050038423389196396,1.0267302989959717,0.14723260700702667,-3.251141576316635e-06,0.573544922290107,0.8191741096105748,1.5760295917935824e-05
319.0,-1.1866888583964512,-2.7204117791040705,-2.1239808692130993,2.076967608191816,1.2109447407727998,3.004169115434132,-0.050591129809617996,1.026634931564331,0.14746946096420288,-2.7710369824505905e-06,0.5735469454872998,0.8191726930799083,1.5057228101230507e-05
320.0,-1.1858215894467228,-2.720087648105588,-2.1242018997542957,2.076978130873173,1.2101367955306437,3.003833923376305,-0.051143817603588104,1.0265388488769531,0.14770561456680298,-2.410679217180912e-06,0.5735493399529765,0.8191710165930701,1.4407286215067322e-05
321.0,-1.1849543204969943,-2.719763517107105,-2.1244229302954922,2.0769886535545306,1.2093288502884878,3.0034987313184778,-0.05169643089175224,1.026442527770996,0.1479422152042389,-1.931709490419372e-06,0.5735516061289591,0.8191694299203948,1.3676817498161282e-05
322.0,-1.184087051547266,-2.7194393861086223,-2.1246439608366883,2.0769991762358884,1.208520905046332,3.0031635392606506,-0.05224858596920967,1.0263454914093018,0.148178368806839,-1.439344191524927e-06,0.5735541351074002,0.8191676592306343,1.3028199580267053e-05
323.0,-1.1832197825975375,-2.7191152551101396,-2.1248649913778848,2.0770096989172457,1.2077129598041758,3.0028283472028234,-0.05280091241002083,1.0262479782104492,0.14841440320014954,-1.0825331195873373e-06,0.5735566724317559,0.8191658826864767,1.2260705980912166e-05
324.0,-1.1823525136478092,-2.7187911241116565,-2.125086021919081,2.0770202215986036,1.20690501456202,3.0024931551449963,-0.05335286259651184,1.0261502265930176,0.14865027368068695,-5.279355511981291e-07,0.5735595153173816,0.8191638921824291,1.1538869236371148e-05
325.0,-1.1814852446980808,-2.7184669931131737,-2.1253070524602773,2.077030744279961,1.2060970693198638,3.002157963087169,-0.05390467122197151,1.026051640510559,0.14888595044612885,-5.20938091386913e-08,0.5735624103158263,0.8191618651753683,1.0728878810759195e-05
326.0,-1.1806179757483524,-2.718142862114691,-2.1255280830014733,2.0770412669613183,1.205289124077708,3.001822771029342,-0.05445641279220581,1.0259528160095215,0.14912156760692596,5.705902126032446e-07,0.5735654419402347,0.8191597424885745,9.880790583342746e-06
327.0,-1.179750706798624,-2.7178187311162083,-2.12574911354267,2.077051789642676,1.204481178835552,3.001487578971515,-0.055007997900247574,1.0258532762527466,0.1493571400642395,1.2033274027627736e-06,0.5735683421545095,0.8191577117974743,8.910977176481663e-06
328.0,-1.1788834378488955,-2.7174946001177256,-2.125970144083866,2.0770623123240335,1.203673233593396,3.001152386913688,-0.055559396743774414,1.025753378868103,0.14959250390529633,1.7484770125398062e-06,0.5735715885755888,0.8191554386758984,7.969621601761125e-06
329.0,-1.1780161688991673,-2.7171704691192424,-2.1261911746250624,2.077072835005391,1.20286528835124,3.000817194855861,-0.05611064285039902,1.0256528854370117,0.14982765913009644,2.392537365508432e-06,0.5735749601482225,0.8191530779026315,6.919972063019957e-06
330.0,-1.1771488999494388,-2.7168463381207597,-2.1264122051662584,2.0770833576867487,1.202057343109084,3.0004820027980337,-0.05666175112128258,1.0255520343780518,0.1500626653432846,2.9052087749851336e-06,0.573578543402002,0.8191505688851484,5.9611557869729055e-06
331.0,-1.1762816309997104,-2.716522207122277,-2.126633235707455,2.077093880368106,1.201249397866928,3.0001468107402065,-0.057212572544813156,1.0254507064819336,0.15029753744602203,3.5996927883332343e-06,0.5735821235229787,0.8191480620358566,4.981274504117278e-06
332.0,-1.1764654936336747,-2.7182607331939383,-2.1265775992638116,2.0787499467179433,1.2014203488669004,3.0002192983441525,-0.05686262995004654,1.0249119997024536,0.1490938663482666,3.48732599391629e-06,0.573582501025771,0.8191477977019005,4.998631330612275e-06
333.0,-1.1765574249506567,-2.719129996229769,-2.12654978104199,2.079577979892862,1.2015058243668866,3.0002555421461254,-0.05668741092085838,1.0246418714523315,0.14849252998828888,3.5562452798133405e-06,0.5735825834243239,0.8191477400047521,4.973805258934934e-06
334.0,-1.176649356267639,-2.7199992592655997,-2.1265219628201684,2.0804060130677806,1.2015912998668727,3.0002917859480984,-0.0565120168030262,1.0243712663650513,0.1478913575410843,3.453482644139411e-06,0.5735827919950901,0.8191475939598014,5.005905060901981e-06
335.0,-1.176741287584621,-2.7208685223014304,-2.1264941445983467,2.0812340462426993,1.2016767753668591,3.0003280297500714,-0.05633647367358208,1.0241003036499023,0.14729034900665283,3.4865286016344233e-06,0.5735828837564699,0.8191475297064587,5.026174296812065e-06
336.0,-1.176833218901603,-2.721737785337261,-2.126466326376525,2.082062079417618,1.2017622508668453,3.0003642735520444,-0.05616074055433273,1.0238286256790161,0.14668965339660645,3.5611346012680628e-06,0.5735830693865313,0.8191473997243112,5.0342636727778005e-06
337.0,-1.1769251502185853,-2.7226070483730918,-2.1264385081547035,2.0828901125925365,1.2018477263668315,3.0004005173540174,-0.055984899401664734,1.0235563516616821,0.14608919620513916,3.467739541730755e-06,0.5735832007868938,0.8191473077154017,5.064165581764936e-06
338.0,-1.1770170815355674,-2.723476311408923,-2.1264106899328814,2.083718145767455,1.2019332018668176,3.0004367611559903,-0.05580885335803032,1.0232837200164795,0.1454891562461853,3.5573217015653107e-06,0.5735833221216047,0.8191472227539852,5.071663878753978e-06
339.0,-1.1771090128525497,-2.7243455744447536,-2.1263828717110598,2.084546178942374,1.2020186773668038,3.0004730049579633,-0.05563276633620262,1.0230106115341187,0.1448889970779419,3.4583378701617417e-06,0.5735835292873208,0.8191470776924686,5.121506404507213e-06
340.0,-1.1772009441695317,-2.7252148374805842,-2.126355053489238,2.085374212117292,1.20210415286679,3.0005092487599363,-0.05545647442340851,1.0227367877960205,0.14428967237472534,3.4383906233782726e-06,0.5735835835174601,0.8191470397198927,5.057962658897809e-06
341.0,-1.1772928754865137,-2.726084100516415,-2.1263272352674165,2.0862022452922107,1.2021896283667761,3.0005454925619093,-0.055280134081840515,1.0224627256393433,0.14369001984596252,3.3869687979109993e-06,0.5735838066791742,0.8191468834574662,5.086900958361406e-06
342.0,-1.177384806803496,-2.7269533635522456,-2.126299417045595,2.0870302784671293,1.2022751038667623,3.0005817363638823,-0.05510339513421059,1.0221879482269287,0.1430908441543579,3.3996467738971504e-06,0.5735839464283888,0.8191467856019145,5.111635801437223e-06
343.0,-1.177476738120478,-2.7278226265880763,-2.1262715988237733,2.087858311642048,1.2023605793667487,3.0006179801658552,-0.054926659911870956,1.021912932395935,0.14249193668365479,3.4061283349957334e-06,0.5735841153599248,0.8191466673119404,5.187680642776099e-06
344.0,-1.1775686694374603,-2.728691889623907,-2.1262437806019516,2.0886863448169666,1.2024460548667348,3.000654223967828,-0.054749954491853714,1.021637201309204,0.1418931782245636,3.320618468091131e-06,0.5735842811711862,0.8191465512084858,5.0547694375203114e-06
345.0,-1.1776606007544423,-2.7295611526597376,-2.12621596238013,2.089514377991885,1.202531530366721,3.000690467769801,-0.05457284301519394,1.0213608741760254,0.1412946879863739,3.3750230859755385e-06,0.5735843270516172,0.8191465190813062,5.131462684803331e-06
346.0,-1.1777525320714244,-2.7304304156955683,-2.1261881441583084,2.090342411166804,1.2026170058667072,3.000726711571774,-0.054395727813243866,1.0210840702056885,0.14069655537605286,3.3681718120929026e-06,0.5735844323905048,0.8191464453211884,5.057587028163041e-06
347.0,-1.1778444633884066,-2.731299678731399,-2.1261603259364867,2.0911704443417225,1.2027024813666933,3.000762955373747,-0.05421821027994156,1.0208067893981934,0.14009854197502136,3.361588080639953e-06,0.5735847264796968,0.8191462393924112,5.213608675385538e-06
348.0,-1.1779363947053887,-2.7321689417672297,-2.126132507714665,2.091998477516641,1.2027879568666795,3.00079919917572,-0.05404076725244522,1.0205291509628296,0.13950087130069733,3.369718811375784e-06,0.5735848495308068,0.8191461532295229,5.161551866495758e-06
349.0,-1.178028326022371,-2.7330382048030604,-2.1261046894928435,2.09282651069156,1.2028734323666657,3.0008354429776936,-0.05386308953166008,1.020250916481018,0.13890323042869568,3.349050134982672e-06,0.5735850925113574,0.8191459830883776,5.26276493268754e-06
350.0,-1.178120257339353,-2.733907467838891,-2.126076871271022,2.0936545438664784,1.2029589078666518,3.0008716867796665,-0.053685273975133896,1.0199720859527588,0.13830611109733582,3.3907496260615715e-06,0.5735852239113078,0.8191458910789168,5.2578476507447695e-06
351.0,-1.1782121886563353,-2.7347767308747217,-2.1260490530492,2.094482577041397,1.2030443833666382,3.0009079305816395,-0.05350734665989876,1.0196927785873413,0.13770920038223267,3.3266675481089063e-06,0.5735853866008122,0.8191457771600444,5.272291778293702e-06
352.0,-1.1783041199733173,-2.7356459939105524,-2.1260212348273786,2.0953106102163157,1.2031298588666244,3.0009441743836125,-0.05332924798130989,1.0194131135940552,0.13711249828338623,3.41318172412705e-06,0.5735854668920342,0.8191457209379944,5.25078293673388e-06
353.0,-1.1783960512902993,-2.7365152569463835,-2.1259934166055565,2.0961386433912343,1.2032153343666105,3.0009804181855855,-0.05315103009343147,1.0191328525543213,0.13651610910892487,3.37561039632933e-06,0.5735856838113944,0.8191455690462209,5.211843034048347e-06
354.0,-1.1784879826072816,-2.737384519982214,-2.125965598383735,2.096966676566153,1.2033008098665967,3.0010166619875585,-0.052972663193941116,1.0188521146774292,0.1359197497367859,3.3747582030806273e-06,0.5735858725620475,0.8191454368778918,5.28900094765834e-06
355.0,-1.1785799139242636,-2.738253783018045,-2.1259377801619133,2.0977947097410716,1.2033862853665829,3.0010529057895314,-0.05279414728283882,1.0185707807540894,0.1353239268064499,3.388535076503259e-06,0.5735859695515522,0.8191453689637606,5.2295622048537215e-06
356.0,-1.178671845241246,-2.7391230460538756,-2.1259099619400916,2.0986227429159903,1.203471760866569,3.0010891495915044,-0.05261538550257683,1.0182888507843018,0.13472822308540344,3.345257187570205e-06,0.5735863042934125,0.8191451345685167,5.344217841275901e-06
357.0,-1.178763776558228,-2.7399923090897063,-2.12588214371827,2.099450776090909,1.2035572363665552,3.0011253933934774,-0.05243659391999245,1.0180065631866455,0.13413283228874207,3.3450564982933727e-06,0.5735863866915367,0.8191450768717004,5.273837273796806e-06
358.0,-1.17885570787521,-2.740861572125537,-2.1258543254964484,2.100278809265827,1.2036427118665414,3.0011616371954504,-0.052257753908634186,1.017723798751831,0.1335374414920807,3.3062357586730216e-06,0.5735866098529391,0.8191449206083945,5.286608609161754e-06
359.0,-1.1789476391921923,-2.7417308351613676,-2.1258265072746267,2.1011068424407457,1.2037281873665278,3.0011978809974234,-0.05207850784063339,1.0174403190612793,0.13294260203838348,3.3110592565928082e-06,0.5735868267717529,0.8191447687159888,5.308219754327954e-06
360.0,-1.1790395705091743,-2.7426000981971983,-2.125798689052805,2.1019348756156644,1.203813662866514,3.0012341247993963,-0.05189923197031021,1.0171564817428589,0.13234791159629822,3.3271299449081685e-06,0.5735869185330448,0.8191447044618136,5.372539160916642e-06
361.0,-1.1791315018261566,-2.743469361233029,-2.1257708708309835,2.102762908790583,1.2038991383665,3.0012703686013693,-0.05171982944011688,1.0168721675872803,0.1317535638809204,3.3454850970740256e-06,0.5735870269925846,0.8191446285158089,5.321009730718381e-06
362.0,-1.1792234331431386,-2.7443386242688597,-2.125743052609162,2.1035909419655017,1.2039846138664863,3.0013066124033423,-0.05154041573405266,1.016587257385254,0.13115957379341125,3.3174525160715003e-06,0.5735872439114537,0.8191444766235404,5.310661872400706e-06
363.0,-1.1793153644601206,-2.7452078873046903,-2.1257152343873402,2.1044189751404203,1.2040700893664724,3.0013428562053153,-0.05136074498295784,1.0163018703460693,0.13056549429893494,3.355253695300986e-06,0.5735875181810016,0.8191442845722299,5.324581967992672e-06
364.0,-1.179407295777103,-2.746077150340521,-2.1256874161655186,2.105247008315339,1.2041555648664586,3.0013791000072882,-0.0511808842420578,1.0160161256790161,0.12997189164161682,3.3070879814830955e-06,0.5735875838809575,0.8191442385675061,5.322518114536774e-06
365.0,-1.179499227094085,-2.7469464133763517,-2.125659597943697,2.1060750414902576,1.2042410403664447,3.0014153438092612,-0.05100063607096672,1.015729546546936,0.12937845289707184,3.3987730569317185e-06,0.5735878268607689,0.819144068425179,5.425393618275891e-06
366.0,-1.1795911584110672,-2.7478156764121824,-2.1256317797218753,2.1069030746651762,1.204326515866431,3.001451587611234,-0.0508207343518734,1.0154426097869873,0.12878531217575073,3.2800834813581936e-06,0.5735880187331116,0.8191439340715758,5.3671947774858505e-06
367.0,-1.1796830897280493,-2.7486849394480135,-2.1256039615000537,2.107731107840095,1.2044119913664173,3.001487831413207,-0.050640419125556946,1.01515531539917,0.1281924694776535,3.3581956819791356e-06,0.5735882241813786,0.8191437902105827,5.349405027886105e-06
368.0,-1.1797750210450313,-2.749554202483844,-2.1255761432782316,2.1085591410150135,1.2044974668664035,3.00152407521518,-0.05046001821756363,1.0148674249649048,0.12759962677955627,3.2967545347372037e-06,0.5735884723892869,0.819143616408561,5.325408792183334e-06
369.0,-1.1798669523620136,-2.750423465519675,-2.12554832505641,2.109387174189932,1.2045829423663896,3.001560319017153,-0.050279419869184494,1.014578938484192,0.12700732052326202,3.344180485984346e-06,0.5735885182698687,0.8191435842812489,5.3536474117540745e-06
370.0,-1.1799588836789956,-2.7512927285555056,-2.1255205068345884,2.110215207364851,1.2046684178663758,3.001596562819126,-0.0500987246632576,1.0142900943756104,0.12641531229019165,3.3611674372924233e-06,0.5735887153694054,0.8191434462666419,5.29025229541034e-06
371.0,-1.1800508149959779,-2.7521619915913362,-2.1254926886127667,2.1110432405397694,1.204753893366362,3.001632806621099,-0.04991791024804115,1.014000654220581,0.12582343816757202,3.3415261767360862e-06,0.5735889239387448,0.8191433002197215,5.363797702132973e-06
372.0,-1.18014274631296,-2.753031254627167,-2.125464870390945,2.111871273714688,1.2048393688663481,3.001669050423072,-0.04973684623837471,1.013710618019104,0.12523162364959717,3.3014402006757917e-06,0.5735893441993622,0.8191430059409756,5.294217716876441e-06
373.0,-1.180234677629942,-2.7539005176629976,-2.1254370521691235,2.1126993068896067,1.2049248443663343,3.001705294225045,-0.0495556965470314,1.0134201049804688,0.1246403381228447,3.32075449669414e-06,0.5735895068877788,0.8191428920209564,5.362009472431159e-06
374.0,-1.1803266089469242,-2.7547697806988283,-2.125409233947302,2.1135273400645254,1.2050103198663205,3.001741538027018,-0.04937439411878586,1.0131293535232544,0.12404932081699371,3.401330444403415e-06,0.57358962993834,0.8191428058568179,5.352447846614112e-06
375.0,-1.1804185402639062,-2.755639043734659,-2.1253814157254802,2.114355373239444,1.2050957953663066,3.001777781828991,-0.04919295758008957,1.0128378868103027,0.12345853447914124,3.403273307896067e-06,0.5735898729185256,0.8191426357148913,5.271459437628489e-06
376.0,-1.1805104715808885,-2.7565083067704896,-2.1253535975036586,2.1151834064143626,1.205181270866293,3.001814025630964,-0.04901138320565224,1.0125459432601929,0.12286780774593353,3.380573887938107e-06,0.5735900783661882,0.8191424918533445,5.360522772679611e-06
377.0,-1.1806024028978706,-2.7573775698063203,-2.125325779281837,2.116011439589281,1.2052667463662792,3.001850269432937,-0.04882969707250595,1.0122534036636353,0.12227761745452881,3.3986165931855992e-06,0.5735902472978524,0.8191423735624241,5.268376445295775e-06
