Sungjin-Park-dev/vision_inspection_sgu/data/sample/trajectory/163/trajectory.csv
time,ur20-shoulder_pan_joint,ur20-shoulder_lift_joint,ur20-elbow_joint,ur20-wrist_1_joint,ur20-wrist_2_joint,ur20-wrist_3_joint,target-POS_X,target-POS_Y,target-POS_Z,target-ROT_X,target-ROT_Y,target-ROT_Z,target-ROT_W
0.0,-1.2762982016937687,-2.3792956199935715,-2.3248397372921237,-1.5790499501981297,-1.2762982016937687,-3.042384647811775e-10,0.009640510194003582,0.8149999380111694,-0.05639099329710007,6.67377143291224e-08,0.7071066336725595,0.7071069287004992,-5.950867080595013e-08
1.0,-1.2770041695122103,-2.382736111498882,-2.3241654380170025,-1.5762837579681652,-1.2770041695122103,-3.044632931659777e-10,0.010098598897457123,0.8150205612182617,-0.05855332687497139,5.665621084737035e-08,0.7071066336725602,0.7071069287004996,-5.478098432035936e-08
2.0,-1.277357153421431,-2.384456357251537,-2.3238282883794423,-1.574900661853183,-1.277357153421431,-3.0457570735837774e-10,0.01032852753996849,0.8150279521942139,-0.059635184705257416,6.013272212683328e-08,0.7071066336725605,0.7071069287005,-3.9484153119877453e-08
3.0,-1.2777101373306519,-2.386176603004192,-2.3234911387418817,-1.5735175657382006,-1.2777101373306519,-3.046881215507778e-10,0.010558895766735077,0.8150337338447571,-0.06071716547012329,4.7075716909139216e-08,0.707106612599172,0.7071069497738797,-4.929167924713406e-08
4.0,-1.2780631212398725,-2.3878968487568475,-2.323153989104321,-1.5721344696232185,-1.2780631212398725,-3.048005357431779e-10,0.01079003419727087,0.8150372505187988,-0.061799366027116776,9.322698739774727e-08,0.7071065388421218,0.7071070235308795,-7.955392715316719e-08
5.0,-1.2784161051490934,-2.3896170945095028,-2.3228168394667605,-1.5707513735082361,-1.2784161051490934,-3.04912949935578e-10,0.011021586135029793,0.8150390386581421,-0.06288240849971771,-3.66248799213708e-08,0.7071068760169493,0.707106686356131,3.6329106973882876e-08
6.0,-1.278769089058314,-2.3913373402621576,-2.3224796898292004,-1.5693682773932538,-1.278769089058314,-3.0502536412797804e-10,0.01125358697026968,0.8150391578674316,-0.06396559625864029,2.770814720855456e-08,0.707106665282704,0.7071068970903708,-2.7966572750055928e-08
7.0,-1.279122072967535,-2.393057586014813,-2.32214254019164,-1.5679851812782715,-1.279122072967535,-3.051377783203781e-10,0.01148618571460247,0.8150372505187988,-0.06504888087511063,6.069008768133535e-08,0.7071066336725601,0.7071069287004998,-4.850841840309775e-08
8.0,-1.2794750568767557,-2.394777831767468,-2.321805390554079,-1.5666020851632894,-1.2794750568767557,-3.052501925127782e-10,0.01171932090073824,0.8150335550308228,-0.066132552921772,4.951678234286163e-08,0.7071066336725604,0.7071069287005,-5.371706297809658e-08
9.0,-1.2798280407859766,-2.3964980775201234,-2.3214682409165186,-1.565218989048307,-1.2798280407859766,-3.053626067051783e-10,0.011952955275774002,0.8150280117988586,-0.06721679121255875,4.1672848679391505e-08,0.7071066652827033,0.7071068970903701,-4.366067694102509e-08
10.0,-1.2801810246951972,-2.3982183232727783,-2.3211310912789584,-1.5638358929333247,-1.2801810246951972,-3.0547502089757834e-10,0.01218707300722599,0.8150205612182617,-0.06830118596553802,7.20037023426614e-08,0.7071065388421238,0.7071070235308816,-6.412942348632262e-08
11.0,-1.2805340086044181,-2.3999385690254336,-2.320793941641398,-1.5624527968183426,-1.2805340086044181,-3.0558743508997846e-10,0.012421781197190285,0.8150112628936768,-0.0693860575556755,6.487153181467281e-08,0.7071065809889856,0.7071069813840465,-6.776965884644159e-08
12.0,-1.2808869925136388,-2.401658814778089,-2.3204567920038373,-1.5610697007033603,-1.2808869925136388,-3.056998492823785e-10,0.012657059356570244,0.8149999380111694,-0.07047103345394135,6.274640893650753e-08,0.7071066125991707,0.7071069497738784,-6.287105161905233e-08
13.0,-1.2843768081148015,-2.4019776256828775,-2.3202947661529305,-1.5609129156506003,-1.2843768081148015,-3.0682193911930363e-10,0.014942632988095284,0.8150197863578796,-0.07067307829856873,2.5353754539118274e-08,0.7071066652827036,0.7071068970903708,-3.903581479860646e-08
14.0,-1.2861217159153828,-2.402137031135272,-2.320213753227477,-1.5608345231242204,-1.2861217159153828,-3.0738298403776616e-10,0.016085444018244743,0.8150268793106079,-0.0707738921046257,6.248890546436622e-08,0.7071066336725601,0.7071069287004994,-5.066645781871254e-08
15.0,-1.2878666237159642,-2.402296436587666,-2.3201327403020238,-1.5607561305978406,-1.2878666237159642,-3.079440289562287e-10,0.01722836308181286,0.815031886100769,-0.07087492197751999,5.426795021657937e-08,0.7071065809889866,0.7071069813840474,-5.495252482450215e-08
16.0,-1.2896115315165455,-2.40245584204006,-2.3200517273765704,-1.5606777380714605,-1.2896115315165455,-3.085050738746913e-10,0.018371473997831345,0.8150348663330078,-0.0709758922457695,6.197299693241045e-08,0.7071066336725602,0.7071069287004997,-4.9541330539011235e-08
17.0,-1.291356439317127,-2.4026152474924545,-2.3199707144511175,-1.5605993455450806,-1.291356439317127,-3.090661187931538e-10,0.01951449364423752,0.8150358200073242,-0.07107708603143692,2.7279901905292977e-08,0.7071066863561313,0.7071068760169499,-2.8222283817241436e-08
18.0,-1.2931013471177084,-2.402774652944849,-2.319889701525664,-1.5605209530187008,-1.2931013471177084,-3.0962716371161634e-10,0.020657766610383987,0.8150347471237183,-0.07117778062820435,5.386043679670372e-08,0.7071065809889868,0.7071069813840475,-5.3827627801595295e-08
19.0,-1.2948462549182898,-2.402934058397243,-2.3198086886002107,-1.5604425604923207,-1.2948462549182898,-3.101882086300789e-10,0.021800952032208443,0.8150318264961243,-0.07127891480922699,5.973511731313927e-08,0.7071065809889864,0.7071069813840472,-5.682336399414931e-08
20.0,-1.296591162718871,-2.403093463849637,-2.3197276756747574,-1.5603641679659408,-1.296591162718871,-3.1074925354854145e-10,0.022944338619709015,0.8150268793106079,-0.07137998938560486,4.340854017258264e-08,0.7071066652827033,0.70710689709037,-4.20396493779195e-08
21.0,-1.2983360705194524,-2.4032528693020314,-2.319646662749304,-1.560285775439561,-1.2983360705194524,-3.11310298467004e-10,0.02408759668469429,0.8150199055671692,-0.07148085534572601,5.503594436749005e-08,0.7071065388421243,0.7071070235308824,-6.666659366209044e-08
22.0,-1.3000809783200338,-2.4034122747544258,-2.3195656498238506,-1.5602073829131808,-1.3000809783200338,-3.1187134338546656e-10,0.025231104344129562,0.8150110244750977,-0.07158201187849045,6.483901617483438e-08,0.7071065809889863,0.7071069813840469,-5.5685549013674816e-08
23.0,-1.3018258861206151,-2.40357168020682,-2.3194846368983972,-1.560128990386801,-1.3018258861206151,-3.124323883039291e-10,0.026374584063887596,0.8149998188018799,-0.07168301939964294,3.089133560499615e-08,0.7071066652827038,0.7071068970903703,-4.28188549524293e-08
24.0,-1.3043096853083944,-2.4001743263824653,-2.320029849702209,-1.5629811314081545,-1.3043096853083944,-3.132427359124269e-10,0.027988150715827942,0.8150330781936646,-0.06953897327184677,6.488008692723126e-08,0.7071065388421234,0.7071070235308813,-7.724803847815605e-08
25.0,-1.305551584902284,-2.3984756494702877,-2.320302456104115,-1.5644072019188313,-1.305551584902284,-3.1364790971667574e-10,0.028795670717954636,0.8150452375411987,-0.06846722960472107,6.113455637172797e-08,0.707106538842124,0.7071070235308818,-6.986685701928784e-08
26.0,-1.3067934844961737,-2.3967769725581105,-2.32057506250602,-1.565833272429508,-1.3067934844961737,-3.140530835209246e-10,0.0296037495136261,0.8150551319122314,-0.06739576905965805,7.038954427586309e-08,0.707106486158666,0.7071070762142989,-6.969697057943679e-08
27.0,-1.3080353840900634,-2.3950782956459333,-2.320847668907926,-1.5672593429401849,-1.3080353840900634,-3.1445825732517353e-10,0.030412601307034492,0.8150617480278015,-0.06632450968027115,6.445898435554604e-08,0.7071066125991712,0.7071069497738789,-5.098324700090622e-08
28.0,-1.309277283683953,-2.3933796187337557,-2.321120275309832,-1.5686854134508617,-1.309277283683953,-3.148634311294224e-10,0.03122176229953766,0.8150659799575806,-0.06525354087352753,5.836145088625141e-08,0.707106612599171,0.7071069497738787,-6.067642699930604e-08
29.0,-1.3105191832778424,-2.391680941821578,-2.3213928817117377,-1.5701114839615384,-1.3105191832778424,-3.1526860493367126e-10,0.032031480222940445,0.8150673508644104,-0.06418263167142868,4.966749541039546e-08,0.7071065809889868,0.7071069813840478,-5.394817636072105e-08
30.0,-1.311761082871732,-2.389982264909401,-2.3216654881136436,-1.5715375544722152,-1.311761082871732,-3.156737787379202e-10,0.032841842621564865,0.8150659799575806,-0.06311194598674774,5.664952836589147e-08,0.707106580988986,0.7071069813840468,-6.781427336981376e-08
31.0,-1.3130029824656217,-2.3882835879972237,-2.3219380945155494,-1.572963624982892,-1.3130029824656217,-3.1607895254216904e-10,0.0336524173617363,0.8150620460510254,-0.06204161420464516,6.630689752447161e-08,0.7071065388421237,0.7071070235308817,-6.944069494211023e-08
32.0,-1.3142448820595114,-2.386584911085046,-2.3222107009174553,-1.5743896954935688,-1.3142448820595114,-3.1648412634641796e-10,0.034463826566934586,0.8150548934936523,-0.060971472412347794,2.4574417385545508e-08,0.7071066863561315,0.7071068760169498,-2.534752908443328e-08
33.0,-1.315486781653401,-2.3848862341728685,-2.3224833073193607,-1.5758157660042456,-1.315486781653401,-3.1688930015066683e-10,0.03527551144361496,0.8150454759597778,-0.0599014088511467,5.281651331777017e-08,0.7071065809889872,0.7071069813840475,-5.239713569915577e-08
34.0,-1.3167286812472907,-2.3831875572606913,-2.3227559137212666,-1.5772418365149223,-1.3167286812472907,-3.172944739549157e-10,0.03608772158622742,0.8150330781936646,-0.058831486850976944,6.819460038184178e-08,0.7071065809889856,0.7071069813840466,-6.44801547355221e-08
35.0,-1.3179705808411804,-2.381488880348514,-2.3230285201231724,-1.5786679070255991,-1.3179705808411804,-3.176996477591646e-10,0.036900583654642105,0.8150179386138916,-0.0577620193362236,5.894991372414313e-08,0.7071065809889869,0.7071069813840475,-4.802522030396743e-08
36.0,-1.31921248043507,-2.3797902034363365,-2.3233011265250783,-1.580093977536276,-1.31921248043507,-3.181048215634135e-10,0.0377136655151844,0.815000057220459,-0.05669279396533966,4.2380677261635666e-08,0.7071066336725612,0.7071069287005007,-3.8681768708530124e-08
37.0,-1.3225339358648875,-2.3781977347061454,-2.3233762480227984,-1.5816113247698476,-1.3225339358648875,-3.192049874734349e-10,0.03986929729580879,0.81502366065979,-0.0556890144944191,6.068937152651992e-08,0.7071064861586669,0.7071070762142998,-6.189288567523942e-08
38.0,-1.3241946635797963,-2.3774015003410494,-2.323413808771658,-1.5823699983866333,-1.3241946635797963,-3.1975507042844564e-10,0.04094753786921501,0.8150323033332825,-0.055187225341796875,4.327089627487341e-08,0.7071066125991723,0.70710694977388,-4.326694215558152e-08
39.0,-1.3258553912947053,-2.376605265975954,-2.323451369520518,-1.583128672003419,-1.3258553912947053,-3.2030515338345637e-10,0.04202588275074959,0.8150386214256287,-0.05468527600169182,6.06289846496087e-08,0.7071065388421243,0.7071070235308822,-6.509219377898207e-08
40.0,-1.327516119009614,-2.375809031610858,-2.323488930269378,-1.583887345620205,-1.327516119009614,-3.208552363384671e-10,0.043104592710733414,0.8150429725646973,-0.05418314412236214,7.41549169683223e-08,0.707106538842123,0.7071070235308811,-7.4185449014611e-08
41.0,-1.3291768467245229,-2.3750127972457626,-2.3235264910182383,-1.5846460192369907,-1.3291768467245229,-3.214053192934778e-10,0.04418347775936127,0.8150452375411987,-0.05368133261799812,6.852579432821098e-08,0.7071065072319741,0.707107055141008,-6.924506560573121e-08
42.0,-1.3308375744394316,-2.3742165628806666,-2.323564051767098,-1.5854046928537764,-1.3308375744394316,-3.2195540224848853e-10,0.045262593775987625,0.8150451183319092,-0.053179167211055756,7.330219083574401e-08,0.7071065388421236,0.7071070235308815,-6.740846833520898e-08
43.0,-1.3324983021543404,-2.373420328515571,-2.323601612515958,-1.586163366470562,-1.3324983021543404,-3.2250548520349926e-10,0.046341922134160995,0.8150429725646973,-0.05267723649740219,4.492878917581445e-08,0.7071066442092753,0.7071069181637905,-4.323681078858173e-08
44.0,-1.3341590298692492,-2.3726240941504755,-2.323639173264818,-1.586922040087348,-1.3341590298692492,-3.2305556815851e-10,0.04742129147052765,0.8150388598442078,-0.05217501521110535,6.409794034623896e-08,0.7071064861586666,0.7071070762142995,-6.524693337109716e-08
45.0,-1.3358197575841582,-2.37182785978538,-2.323676734013678,-1.5876807137041338,-1.3358197575841582,-3.236056511135207e-10,0.04850102216005325,0.8150322437286377,-0.05167286470532417,4.390453315677361e-08,0.7071065072319778,0.7071070551410082,-4.668643534813527e-08
46.0,-1.337480485299067,-2.371031625420284,-2.3237142947625378,-1.5884393873209195,-1.337480485299067,-3.241557340685314e-10,0.049580883234739304,0.8150237798690796,-0.05117058753967285,7.085427311955722e-08,0.7071064545483925,0.7071071078245443,-7.438051009772341e-08
47.0,-1.3391412130139757,-2.3702353910551883,-2.323751855511398,-1.5891980609377054,-1.3391412130139757,-3.2470581702354215e-10,0.05066101998090744,0.8150129914283752,-0.050668466836214066,5.123726120274785e-08,0.7071065072319772,0.7071070551410081,-5.031643925127216e-08
48.0,-1.3408019407288845,-2.3694391566900928,-2.323789416260258,-1.5899567345544912,-1.3408019407288845,-3.2525589997855287e-10,0.05174129456281662,0.815000057220459,-0.05016609653830528,7.078677761992832e-08,0.707106486158666,0.7071070762142989,-7.208785852939636e-08
49.0,-1.3438574458778128,-2.3727635455584117,-2.3229371743369,-1.5874845876105579,-1.3438574458778128,-3.262834687917829e-10,0.05371600016951561,0.8150285482406616,-0.052254728972911835,4.482320267041162e-08,0.707106612599172,0.7071069497738797,-5.0342859508814565e-08
50.0,-1.345385198452277,-2.3744257399925712,-2.322511053375221,-1.5862485141385911,-1.345385198452277,-3.2679725319839796e-10,0.054704174399375916,0.81503826379776,-0.05329965800046921,8.369512531604704e-08,0.707106412401522,0.7071071499713709,-8.260070690864993e-08
51.0,-1.3469129510267412,-2.3760879344267307,-2.322084932413542,-1.5850124406666244,-1.3469129510267412,-3.2731103760501296e-10,0.05569295957684517,0.8150444626808167,-0.05434533581137657,5.839352767196284e-08,0.7071065072319768,0.7071070551410076,-5.6733584811366464e-08
52.0,-1.3484407036012054,-2.37775012886089,-2.3216588114518633,-1.5837763671946579,-1.3484407036012054,-3.27824822011628e-10,0.05668215826153755,0.8150476813316345,-0.0553915835916996,5.8747979195258995e-08,0.7071065072319769,0.7071070551410075,-5.448968661287545e-08
53.0,-1.3499684561756695,-2.3794123232950493,-2.3212326904901843,-1.5825402937226911,-1.3499684561756695,-3.28338606418243e-10,0.057671938091516495,0.815047562122345,-0.056438397616147995,4.1562859154730385e-08,0.7071065809889878,0.7071069813840487,-3.4169104011487024e-08
54.0,-1.3514962087501337,-2.3810745177292088,-2.3208065695285054,-1.5813042202507246,-1.3514962087501337,-3.2885239082485805e-10,0.058662254363298416,0.8150445818901062,-0.05748552083969116,4.872655608206172e-08,0.7071065704523348,0.7071069919206943,-4.6406096403703496e-08
55.0,-1.3530239613245978,-2.3827367121633682,-2.3203804485668265,-1.5800681467787578,-1.3530239613245978,-3.2936617523147304e-10,0.059653110802173615,0.8150382041931152,-0.05853329971432686,3.9137812424583374e-08,0.7071065809889877,0.7071069813840483,-4.307950500849867e-08
56.0,-1.3545517138990621,-2.3843989065975277,-2.3199543276051475,-1.578832073306791,-1.3545517138990621,-3.298799596380881e-10,0.060644324868917465,0.8150286078453064,-0.05958177521824837,2.444224399701036e-08,0.7071066125991732,0.7071069497738809,-2.488092894219761e-08
57.0,-1.3560794664735263,-2.3860611010316872,-2.3195282066434686,-1.5775959998348246,-1.3560794664735263,-3.303937440447031e-10,0.06163613870739937,0.8150158524513245,-0.06063060835003853,2.288305521892705e-08,0.7071067074295584,0.7071068549435284,-1.6730201021516684e-08
58.0,-1.3576072190479904,-2.3877232954658467,-2.3191020856817897,-1.5763599263628578,-1.3576072190479904,-3.3090752845131814e-10,0.0626283586025238,0.8150001764297485,-0.061679668724536896,5.6244780534871674e-08,0.7071064861586673,0.7071070762143002,-5.396665551843399e-08
59.0,-1.3541966206678044,-2.3903515484406785,-2.318852690093887,-1.573981068974783,-1.3541966206678044,-3.297622072181757e-10,0.06041436269879341,0.8150292634963989,-0.06334114819765091,4.285804927682021e-08,0.7071065809889876,0.7071069813840485,-3.683840527305882e-08
60.0,-1.3524913214777115,-2.3916656749280945,-2.318727992299936,-1.5727916402807458,-1.3524913214777115,-3.2918954660160454e-10,0.05930802971124649,0.8150391578674316,-0.06417180597782135,3.49317068779215e-08,0.7071066652827037,0.7071068970903704,-3.603076985892632e-08
61.0,-1.3507860222876185,-2.3929798014155104,-2.318603294505985,-1.5716022115867085,-1.3507860222876185,-3.2861688598503333e-10,0.058201778680086136,0.8150464296340942,-0.06500247865915298,2.625086846104179e-08,0.707106665282704,0.707106897090371,-2.507454944726149e-08
62.0,-1.3490807230975255,-2.3942939279029263,-2.3184785967120334,-1.570412782892671,-1.3490807230975255,-3.280442253684621e-10,0.05709613487124443,0.8150509595870972,-0.06583306938409805,2.8925811094139225e-08,0.7071066863561201,0.707106876016961,-2.9594449022280117e-08
63.0,-1.3473754239074325,-2.395608054390342,-2.3183538989180823,-1.5692233541986338,-1.3473754239074325,-3.2747156475189095e-10,0.055990785360336304,0.8150523900985718,-0.06666337698698044,4.6860402426123866e-08,0.707106580988987,0.7071069813840479,-4.955044919147058e-08
64.0,-1.3456701247173395,-2.3969221808777577,-2.3182292011241312,-1.5680339255045965,-1.3456701247173395,-3.2689890413531973e-10,0.05488598719239235,0.8150510191917419,-0.06749395281076431,6.042074909271566e-08,0.7071065809889866,0.7071069813840474,-4.939178565706498e-08
65.0,-1.3439648255272465,-2.3982363073651736,-2.3181045033301797,-1.566844496810559,-1.3439648255272465,-3.263262435187485e-10,0.05378150939941406,0.8150465488433838,-0.06832462549209595,4.794908326465162e-08,0.7071065809889869,0.707106981384048,-5.155380147938057e-08
66.0,-1.3422595263371535,-2.3995504338525895,-2.3179798055362286,-1.5656550681165218,-1.3422595263371535,-3.257535829021773e-10,0.05267743021249771,0.815039336681366,-0.06915514916181564,4.687241049342682e-08,0.7071065809889873,0.707106981384048,-4.719838540756478e-08
67.0,-1.3405542271470605,-2.4008645603400054,-2.3178551077422775,-1.5644656394224845,-1.3405542271470605,-3.2518092228560614e-10,0.051573824137449265,0.8150291442871094,-0.06998562067747116,4.547616707112657e-08,0.7071066125991722,0.7071069497738799,-4.2510095123946585e-08
68.0,-1.3388489279569675,-2.4021786868274213,-2.317730409948326,-1.563276210728447,-1.3388489279569675,-3.246082616690349e-10,0.05047066509723663,0.8150160312652588,-0.07081610709428787,4.5870888693466924e-08,0.7071065809889874,0.7071069813840479,-4.689158534884506e-08
69.0,-1.3371436287668745,-2.403492813314837,-2.317605712154375,-1.5620867820344098,-1.3371436287668745,-3.240356010524637e-10,0.04936796799302101,0.8149999976158142,-0.07164652645587921,3.9249543810093636e-08,0.7071066125991725,0.7071069497738802,-4.010185503080199e-08
70.0,-1.3405878959322148,-2.4029674573277893,-2.3173946081972248,-1.562823241979778,-1.3405878959322148,-3.252061732180117e-10,0.051590364426374435,0.8150519132614136,-0.07131596654653549,6.050109122023174e-08,0.7071064861586669,0.7071070762142998,-6.386129084979433e-08
71.0,-1.3423100295148849,-2.4027047793342655,-2.31728905621865,-1.5631914719524622,-1.3423100295148849,-3.2579145930078574e-10,0.052702028304338455,0.8150746822357178,-0.07115072011947632,4.358150741380444e-08,0.7071065809889875,0.7071069813840484,-4.030851162983178e-08
72.0,-1.3440321630975551,-2.4024421013407418,-2.317183504240075,-1.5635597019251464,-1.3440321630975551,-3.2637674538355976e-10,0.053813692182302475,0.8150959610939026,-0.07098543643951416,4.160185384749589e-08,0.7071066125991721,0.7071069497738798,-4.95835513581441e-08
73.0,-1.3457542966802252,-2.402179423347218,-2.3170779522615,-1.5639279318978305,-1.3457542966802252,-3.2696203146633374e-10,0.05492579936981201,0.815115213394165,-0.07081987708806992,6.814690274540219e-08,0.7071064861586666,0.7071070762142995,-6.174880941957113e-08
74.0,-1.3474764302628954,-2.401916745353694,-2.316972400282925,-1.5642961618705147,-1.3474764302628954,-3.2754731754910776e-10,0.05603819340467453,0.8151321411132812,-0.07065454870462418,2.859428460774023e-08,0.7071066652827042,0.7071068970903708,-2.7496607603908377e-08
75.0,-1.3491985638455655,-2.40165406736017,-2.31686684830435,-1.5646643918431988,-1.3491985638455655,-3.281326036318818e-10,0.05715078115463257,0.8151476383209229,-0.07048887014389038,4.5672476547982803e-08,0.707106612599172,0.7071069497738797,-4.6922257129375224e-08
76.0,-1.3509206974282357,-2.4013913893666463,-2.316761296325775,-1.565032621815883,-1.3509206974282357,-3.287178897146558e-10,0.0582633800804615,0.8151610493659973,-0.07032343745231628,3.337594163241493e-08,0.7071066336725614,0.707106928700501,-3.678520566326154e-08
77.0,-1.3526428310109058,-2.4011287113731226,-2.3166557443472002,-1.5654008517885671,-1.3526428310109058,-3.293031757974298e-10,0.05937642976641655,0.8151726722717285,-0.07015769928693771,3.968684128045672e-08,0.7071065809889875,0.7071069813840483,-4.815529724134159e-08
78.0,-1.354364964593576,-2.4008660333795984,-2.316550192368625,-1.5657690817612513,-1.354364964593576,-3.298884618802038e-10,0.0604897066950798,0.815182089805603,-0.06999197602272034,3.5689253250355875e-08,0.7071066336725613,0.7071069287005011,-3.7710419216128585e-08
79.0,-1.356087098176246,-2.4006033553860746,-2.31644464039005,-1.5661373117339354,-1.356087098176246,-3.3047374796297784e-10,0.06160314381122589,0.8151898384094238,-0.06982611119747162,4.779534581826334e-08,0.7071065809889869,0.7071069813840477,-5.5025343777051176e-08
80.0,-1.3578092317589163,-2.400340677392551,-2.316339088411475,-1.5665055417066196,-1.3578092317589163,-3.310590340457518e-10,0.06271682679653168,0.8151956796646118,-0.06966039538383484,3.444868148624287e-08,0.7071066652827039,0.7071068970903706,-3.202802293418255e-08
81.0,-1.3595313653415864,-2.4000779993990267,-2.3162335364329,-1.5668737716793038,-1.3595313653415864,-3.3164432012852584e-10,0.06383068859577179,0.8151994943618774,-0.06949450075626373,2.9399305662996575e-08,0.7071066652827038,0.7071068970903706,-3.726547993508691e-08
82.0,-1.3612534989242566,-2.399815321405503,-2.316127984454325,-1.567242001651988,-1.3612534989242566,-3.3222960621129987e-10,0.06494463235139847,0.8152015209197998,-0.06932851672172546,2.886146722200239e-08,0.7071066652827039,0.7071068970903709,-3.025170516368544e-08
83.0,-1.3629756325069267,-2.399552643411979,-2.31602243247575,-1.5676102316246723,-1.3629756325069267,-3.3281489229407384e-10,0.06605889648199081,0.8152015209197998,-0.06916239857673645,5.16863793774182e-08,0.7071065072319775,0.707107055141008,-4.742352236888776e-08
84.0,-1.364697766089597,-2.3992899654184554,-2.3159168804971753,-1.5679784615973564,-1.364697766089597,-3.3340017837684787e-10,0.06717335432767868,0.8151996731758118,-0.06899621337652206,5.790651261039227e-08,0.7071065072319765,0.7071070551410074,-6.054642737017876e-08
85.0,-1.366419899672267,-2.399027287424931,-2.3158113285186,-1.5683466915700406,-1.366419899672267,-3.339854644596219e-10,0.06828807294368744,0.8151956796646118,-0.06883032619953156,3.475137134458792e-08,0.7071066336725615,0.7071069287005013,-2.994293336462353e-08
86.0,-1.3681420332549372,-2.3987646094314075,-2.315705776540025,-1.5687149215427247,-1.3681420332549372,-3.3457075054239587e-10,0.0694027990102768,0.8151900768280029,-0.06866394728422165,3.9421118347079735e-08,0.7071065809889874,0.7071069813840484,-4.44421572214847e-08
87.0,-1.3698641668376073,-2.3985019314378837,-2.31560022456145,-1.569083151515409,-1.3698641668376073,-3.351560366251699e-10,0.07051799446344376,0.8151824474334717,-0.06849762052297592,5.512282989990542e-08,0.7071064756218093,0.7071070867511493,-5.521539004047722e-08
88.0,-1.3715863004202775,-2.3982392534443595,-2.315494672582875,-1.569451381488093,-1.3715863004202775,-3.357413227079439e-10,0.07163320481777191,0.8151727914810181,-0.06833131611347198,6.462262033293867e-08,0.7071064756218087,0.7071070867511485,-6.289513455125071e-08
89.0,-1.3733084340029476,-2.3979765754508358,-2.3153891206043,-1.5698196114607772,-1.3733084340029476,-3.363266087907179e-10,0.07274866849184036,0.8151612281799316,-0.0681651383638382,3.5576254147045563e-08,0.7071066125991727,0.7071069497738804,-3.2443771280030064e-08
90.0,-1.3750305675856178,-2.397713897457312,-2.315283568625725,-1.5701878414334614,-1.3750305675856178,-3.369118948734919e-10,0.07386418431997299,0.8151479959487915,-0.06799861043691635,5.0330850609174086e-08,0.7071064861586674,0.7071070762143004,-5.655187023746967e-08
91.0,-1.3767527011682879,-2.3974512194637883,-2.3151780166471503,-1.5705560714061455,-1.3767527011682879,-3.3749718095626595e-10,0.07498009502887726,0.815132737159729,-0.06783215701580048,5.452951663003883e-08,0.7071064861586677,0.7071070762143006,-4.772449570306734e-08
92.0,-1.3784748347509581,-2.397188541470264,-2.315072464668575,-1.5709243013788297,-1.3784748347509581,-3.3808246703903997e-10,0.07609601318836212,0.8151153326034546,-0.06766551733016968,6.261639402692136e-08,0.7071064861586668,0.7071070762142997,-6.069209469374407e-08
93.0,-1.3801969683336281,-2.3969258634767403,-2.31496691269,-1.5712925313515138,-1.3801969683336281,-3.3866775312181395e-10,0.07721221446990967,0.8150960206985474,-0.0674990862607956,4.583764056925632e-08,0.7071065388421256,0.7071070235308833,-4.9502749398792633e-08
94.0,-1.3819191019162984,-2.3966631854832166,-2.3148613607114252,-1.571660761324198,-1.3819191019162984,-3.3925303920458797e-10,0.07832852005958557,0.8150749802589417,-0.06733236461877823,4.601763715179857e-08,0.7071065388421255,0.7071070235308834,-4.7392916013569547e-08
95.0,-1.3836412354989684,-2.396400507489693,-2.3147558087328504,-1.5720289912968821,-1.3836412354989684,-3.39838325287362e-10,0.07944504171609879,0.815051794052124,-0.06716565787792206,4.61512328782594e-08,0.7071065072319777,0.7071070551410081,-4.658539157388968e-08
96.0,-1.3853633690816385,-2.3961378294961686,-2.314650256754275,-1.5723972212695663,-1.3853633690816385,-3.4042361137013597e-10,0.08056153357028961,0.8150268197059631,-0.06699882447719574,4.0650571128335004e-08,0.7071065809889874,0.7071069813840481,-4.6602236872796386e-08
97.0,-1.3870855026643087,-2.395875151502645,-2.3145447047757,-1.5727654512422504,-1.3870855026643087,-3.4100889745291e-10,0.08167845010757446,0.8149999380111694,-0.06683211028575897,3.757467562324411e-08,0.7071066336725613,0.7071069287005008,-3.8099872092694544e-08
98.0,-1.3836237529438642,-2.3961283052823,-2.31466706772136,-1.5723899345157997,-1.3836237529438642,-3.3987329298121865e-10,0.07941405475139618,0.8151553869247437,-0.06699293851852417,4.2655018530444516e-08,0.7071065809889874,0.7071069813840484,-4.498229780730495e-08
99.0,-1.3818928780836421,-2.3962548821721277,-2.31472824919419,-1.5722021761525744,-1.3818928780836421,-3.3930549074537303e-10,0.0782819613814354,0.8152300119400024,-0.06707315146923065,4.602594377419552e-08,0.7071065388421257,0.7071070235308836,-4.0394364932279846e-08
100.0,-1.3801620032234199,-2.3963814590619554,-2.31478943066702,-1.572014417789349,-1.3801620032234199,-3.3873768850952735e-10,0.07714969664812088,0.815302848815918,-0.06715361773967743,5.033123259302807e-08,0.7071065388421254,0.7071070235308831,-5.005024965253049e-08
101.0,-1.3784311283631976,-2.3965080359517827,-2.3148506121398498,-1.5718266594261237,-1.3784311283631976,-3.381698862736817e-10,0.07601748406887054,0.8153737783432007,-0.06723389774560928,4.6013616261818983e-08,0.7071065388421255,0.7071070235308832,-4.8840538678830487e-08
102.0,-1.3767002535029753,-2.3966346128416105,-2.31491179361268,-1.5716389010628984,-1.3767002535029753,-3.37602084037836e-10,0.0748852789402008,0.8154427409172058,-0.06731418520212173,4.9391535955745196e-08,0.7071065809889869,0.707106981384048,-4.7430649809552706e-08
103.0,-1.3749693786427533,-2.3967611897314383,-2.3149729750855097,-1.571451142699673,-1.3749693786427533,-3.3703428180199033e-10,0.07375288009643555,0.8155099153518677,-0.06739450246095657,5.8324024691704596e-08,0.7071064861586668,0.7071070762142997,-6.521451890431665e-08
104.0,-1.373238503782531,-2.3968877666212656,-2.31503415655834,-1.5712633843364476,-1.373238503782531,-3.364664795661447e-10,0.07262067496776581,0.8155747056007385,-0.06747496128082275,3.9802998510547205e-08,0.7071065809889879,0.7071069813840481,-4.1168116967483003e-08
105.0,-1.3715076289223087,-2.3970143435110933,-2.3150953380311696,-1.5710756259732221,-1.3715076289223087,-3.3589867733029904e-10,0.07148846238851547,0.8156376481056213,-0.06755531579256058,4.183192501291756e-08,0.7071066020624067,0.7071069603106406,-4.21273147563739e-08
106.0,-1.3697767540620864,-2.397140920400921,-2.3151565195039994,-1.5708878676099969,-1.3697767540620864,-3.3533087509445336e-10,0.0703561007976532,0.8156989216804504,-0.06763557344675064,5.2084712598155464e-08,0.7071065072319771,0.7071070551410076,-5.676285887036871e-08
107.0,-1.3680458792018644,-2.3972674972907484,-2.3152177009768296,-1.5707001092467714,-1.3680458792018644,-3.347630728586077e-10,0.06922397762537003,0.8157578706741333,-0.06771588325500488,-4.358037139508913e-08,0.70710694977388,0.7071066125991723,4.202371317562739e-08
108.0,-1.366315004341642,-2.397394074180576,-2.3152788824496593,-1.5705123508835461,-1.366315004341642,-3.34195270622762e-10,0.06809178739786148,0.815815269947052,-0.06779610365629196,5.284956881441005e-08,0.7071065072319772,0.707107055141008,-4.646271074654825e-08
109.0,-1.3645841294814198,-2.397520651070404,-2.3153400639224895,-1.5703245925203209,-1.3645841294814198,-3.336274683869164e-10,0.06695949286222458,0.815870463848114,-0.0678761675953865,3.948104996376837e-08,0.7071066020624068,0.7071069603106407,-3.923673368501918e-08
110.0,-1.3628532546211976,-2.397647227960231,-2.315401245395319,-1.5701368341570954,-1.3628532546211976,-3.330596661510707e-10,0.0658273696899414,0.8159239888191223,-0.06795632094144821,4.007119730416769e-08,0.7071065809889875,0.7071069813840486,-3.893604079436192e-08
111.0,-1.3611223797609753,-2.397773804850059,-2.3154624268681494,-1.56994907579387,-1.3611223797609753,-3.3249186391522505e-10,0.06469513475894928,0.8159754276275635,-0.06803645938634872,6.213558395035743e-08,0.707106486158667,0.7071070762142999,-5.5000612627118504e-08
112.0,-1.3593915049007532,-2.3979003817398867,-2.315523608340979,-1.5697613174306446,-1.3593915049007532,-3.319240616793794e-10,0.06356292217969894,0.8160247802734375,-0.06811672449111938,4.243620392718865e-08,0.7071065809889877,0.7071069813840484,-3.970571200876286e-08
113.0,-1.357660630040531,-2.398026958629714,-2.315584789813809,-1.5695735590674194,-1.357660630040531,-3.3135625944353375e-10,0.06243085861206055,0.8160722255706787,-0.06819682568311691,4.451362050849651e-08,0.7071065388421257,0.7071070235308832,-4.908724452375795e-08
114.0,-1.3559297551803087,-2.398153535519542,-2.315645971286639,-1.569385800704194,-1.3559297551803087,-3.307884572076881e-10,0.061298783868551254,0.8161180019378662,-0.06827696412801743,5.895347045277756e-08,0.707106486158667,0.7071070762142999,-5.959089247647423e-08
115.0,-1.3541988803200864,-2.3982801124093696,-2.315707152759469,-1.5691980423409686,-1.3541988803200864,-3.302206549718424e-10,0.06016683578491211,0.8161612749099731,-0.06835713237524033,3.597460945645042e-08,0.707106665282704,0.7071068970903708,-2.1578290381356795e-08
116.0,-1.3524680054598643,-2.398406689299197,-2.315768334232299,-1.5690102839777433,-1.3524680054598643,-3.2965285273599673e-10,0.059034645557403564,0.8162031769752502,-0.06843721866607666,5.020913113751751e-08,0.7071065809889869,0.707106981384048,-4.8051545064727223e-08
117.0,-1.350737130599642,-2.3985332661890246,-2.3158295157051287,-1.5688225256145178,-1.350737130599642,-3.2908505050015106e-10,0.057902559638023376,0.8162426948547363,-0.06851731985807419,4.671766302309488e-08,0.7071065809889872,0.7071069813840479,-4.9807441997409395e-08
118.0,-1.3490062557394198,-2.3986598430788524,-2.315890697177959,-1.5686347672512926,-1.3490062557394198,-3.2851724826430544e-10,0.05677071213722229,0.8162804841995239,-0.06859754770994186,-3.932934670545439e-08,0.7071069287005006,0.7071066336725614,3.506187604344956e-08
119.0,-1.3472753808791975,-2.3987864199686797,-2.3159518786507887,-1.568447008888067,-1.3472753808791975,-3.2794944602845976e-10,0.0556386336684227,0.816316545009613,-0.06867733597755432,6.719090419687695e-08,0.707106507231976,0.7071070551410062,-6.957259974913711e-08
120.0,-1.3455445060189755,-2.3989129968585075,-2.316013060123619,-1.5682592505248418,-1.3455445060189755,-3.273816437926141e-10,0.0545068085193634,0.8163502216339111,-0.0687573105096817,7.102808416567163e-08,0.7071064861586661,0.707107076214299,-6.816840970591854e-08
121.0,-1.3438136311587532,-2.399039573748335,-2.3160742415964486,-1.5680714921616166,-1.3438136311587532,-3.268138415567684e-10,0.053374890238046646,0.8163822889328003,-0.06883745640516281,5.392117981171832e-08,0.7071065809889868,0.7071069813840477,-5.127739568782568e-08
122.0,-1.342082756298531,-2.3991661506381625,-2.3161354230692783,-1.567883733798391,-1.342082756298531,-3.2624603932092274e-10,0.05224321782588959,0.8164122104644775,-0.06891749799251556,4.960337032127939e-08,0.7071065809889869,0.707106981384048,-4.8270179490774856e-08
123.0,-1.3403518814383086,-2.3992927275279903,-2.3161966045421085,-1.5676959754351658,-1.3403518814383086,-3.256782370850771e-10,0.0511116199195385,0.8164401054382324,-0.06899750977754593,4.23900859857678e-08,0.7071066336725611,0.7071069287005008,-3.678737574511943e-08
124.0,-1.3386210065780864,-2.399419304417818,-2.3162577860149383,-1.5675082170719403,-1.3386210065780864,-3.2511043484923145e-10,0.049979884177446365,0.8164665102958679,-0.06907755881547928,4.754260168946885e-08,0.7071066125991721,0.7071069497738798,-4.487574909920759e-08
125.0,-1.3368901317178643,-2.3995458813076453,-2.3163189674877684,-1.567320458708715,-1.3368901317178643,-3.2454263261338577e-10,0.048848289996385574,0.8164904117584229,-0.0691574439406395,4.1139727884954194e-08,0.7071065809889877,0.7071069813840485,-3.8094602821749355e-08
126.0,-1.335159256857642,-2.399672458197473,-2.316380148960598,-1.5671327003454898,-1.335159256857642,-3.239748303775401e-10,0.047716882079839706,0.8165125250816345,-0.0692373663187027,4.4313326805475955e-08,0.7071066020624066,0.7071069603106402,-4.472312227615297e-08
127.0,-1.3334283819974198,-2.399799035087301,-2.3164413304334284,-1.5669449419822643,-1.3334283819974198,-3.234070281416944e-10,0.04658536612987518,0.8165330290794373,-0.0693172812461853,5.524862825379066e-08,0.7071065809889869,0.7071069813840476,-4.890395813841953e-08
128.0,-1.3316975071371975,-2.399925611977128,-2.316502511906258,-1.566757183619039,-1.3316975071371975,-3.228392259058488e-10,0.04545406624674797,0.8165512084960938,-0.0693972259759903,3.96176473360666e-08,0.7071066652827034,0.7071068970903704,-4.073618294849213e-08
129.0,-1.3299666322769754,-2.400052188866956,-2.316563693379088,-1.5665694252558136,-1.3299666322769754,-3.2227142367000313e-10,0.04432278126478195,0.8165677189826965,-0.06947699189186096,6.441662797042655e-08,0.7071065388421237,0.7071070235308815,-7.228612214367233e-08
130.0,-1.3282357574167531,-2.4001787657567837,-2.316624874851918,-1.5663816668925883,-1.3282357574167531,-3.2170362143415746e-10,0.04319150000810623,0.816582202911377,-0.06955685466527939,7.86668132416192e-08,0.7071065388421228,0.7071070235308808,-7.511474476505718e-08
131.0,-1.3265048825565309,-2.400305342646611,-2.3166860563247478,-1.5661939085293628,-1.3265048825565309,-3.211358191983118e-10,0.04206031560897827,0.8165943622589111,-0.06963679194450378,2.8509123586526826e-08,0.7071066652827038,0.7071068970903708,-3.090227106907911e-08
132.0,-1.3247740076963086,-2.4004319195364388,-2.316747237797578,-1.5660061501661375,-1.3247740076963086,-3.205680169624661e-10,0.04092932119965553,0.8166053295135498,-0.06971659511327744,7.12000461153221e-08,0.7071064861586657,0.7071070762142986,-7.525287196088181e-08
133.0,-1.3230431328360865,-2.4005584964262665,-2.3168084192704077,-1.5658183918029123,-1.3230431328360865,-3.200002147266205e-10,0.039798349142074585,0.8166137933731079,-0.06979642808437347,5.7180176916718245e-08,0.7071065809889866,0.7071069813840475,-5.441488570907242e-08
134.0,-1.3213122579758643,-2.400685073316094,-2.316869600743238,-1.5656306334396868,-1.3213122579758643,-3.194324124907748e-10,0.038667500019073486,0.8166204690933228,-0.06987619400024414,4.9743180889633505e-08,0.7071066336725604,0.7071069287004998,-5.723284028435627e-08
135.0,-1.319581383115642,-2.4008116502059216,-2.3169307822160676,-1.5654428750764615,-1.319581383115642,-3.1886461025492914e-10,0.03753681853413582,0.8166251182556152,-0.0699562057852745,4.2087041892311776e-08,0.7071066336725611,0.7071069287005008,-3.6544242384387155e-08
136.0,-1.3178505082554197,-2.4009382270957493,-2.316991963688898,-1.565255116713236,-1.3178505082554197,-3.1829680801908347e-10,0.03640614077448845,0.8166278600692749,-0.0700358897447586,4.123430355665699e-08,0.7071066652827035,0.7071068970903704,-3.451535617161866e-08
137.0,-1.3161196333951977,-2.4010648039855766,-2.3170531451617276,-1.5650673583500108,-1.3161196333951977,-3.177290057832378e-10,0.0352756530046463,0.8166287541389465,-0.07011571526527405,5.0140866043149204e-08,0.7071066652827034,0.7071068970903702,-2.9439580850525273e-08
138.0,-1.3143887585349754,-2.4011913808754044,-2.3171143266345573,-1.5648795999867855,-1.3143887585349754,-3.1716120354739217e-10,0.03414520248770714,0.8166277408599854,-0.07019545137882233,4.208026693764116e-08,0.7071066652827036,0.7071068970903704,-2.9234119244580115e-08
139.0,-1.3126578836747531,-2.401317957765232,-2.3171755081073875,-1.56469184162356,-1.3126578836747531,-3.165934013115465e-10,0.033014822751283646,0.816624641418457,-0.07027515769004822,3.113634859677564e-08,0.707106602062407,0.7071069603106407,-4.283274493457379e-08
140.0,-1.3109270088145308,-2.40144453465506,-2.3172366895802172,-1.5645040832603347,-1.3109270088145308,-3.160255990757008e-10,0.03188467398285866,0.816619873046875,-0.07035472989082336,6.740041577397848e-08,0.7071065388421238,0.7071070235308815,-7.046502791167352e-08
141.0,-1.3091961339543086,-2.4015711115448872,-2.3172978710530474,-1.5643163248971093,-1.3091961339543086,-3.1545779683985515e-10,0.030754730105400085,0.8166128396987915,-0.07043443620204926,5.904640893810195e-08,0.7071065809889866,0.7071069813840472,-5.377724479354928e-08
142.0,-1.3074652590940865,-2.401697688434715,-2.317359052525877,-1.564128566533884,-1.3074652590940865,-3.1488999460400953e-10,0.029624687507748604,0.8166041374206543,-0.07051419466733932,6.591826936536604e-08,0.7071065809889862,0.7071069813840472,-5.310030229363987e-08
143.0,-1.3057343842338642,-2.4018242653245427,-2.3174202339987073,-1.5639408081706587,-1.3057343842338642,-3.1432219236816385e-10,0.028494907543063164,0.8165932893753052,-0.07059383392333984,4.679611358354587e-08,0.7071065809889869,0.7071069813840478,-5.4062749263238056e-08
144.0,-1.304003509373642,-2.40195084221437,-2.317481415471537,-1.5637530498074332,-1.304003509373642,-3.137543901323182e-10,0.027365131303668022,0.8165806531906128,-0.07067345082759857,5.312714188970392e-08,0.7071065809889864,0.7071069813840477,-5.7624237181701385e-08
145.0,-1.3022726345134197,-2.402077419104198,-2.3175425969443673,-1.563565291444208,-1.3022726345134197,-3.131865878964725e-10,0.026235567405819893,0.8165660500526428,-0.07075309008359909,6.670131045115489e-08,0.7071065809889862,0.707106981384047,-5.3861331586399485e-08
146.0,-1.3005417596531976,-2.4022039959940256,-2.317603778417197,-1.5633775330809825,-1.3005417596531976,-3.1261878566062683e-10,0.025106055662035942,0.8165494203567505,-0.07083279639482498,4.723184223197541e-08,0.7071066336725609,0.7071069287005005,-4.4979742663954095e-08
147.0,-1.2988108847929754,-2.402330572883853,-2.3176649598900267,-1.5631897747177572,-1.2988108847929754,-3.120509834247812e-10,0.023976735770702362,0.8165310621261597,-0.07091227173805237,7.79389753341837e-08,0.7071065388421232,0.7071070235308812,-6.835444902250848e-08
148.0,-1.297080009932753,-2.4024571497736806,-2.317726141362857,-1.5630020163545317,-1.297080009932753,-3.1148318118893554e-10,0.0228474922478199,0.8165104985237122,-0.07099194079637527,6.148414708651256e-08,0.707106580988986,0.7071069813840469,-6.114182733739112e-08
149.0,-1.2953491350725308,-2.4025837266635084,-2.3177873228356867,-1.5628142579913065,-1.2953491350725308,-3.1091537895308986e-10,0.021718595176935196,0.8164879083633423,-0.07107168436050415,-4.0667258549448587e-08,0.7071068970903704,0.7071066652827035,3.823734395277364e-08
150.0,-1.2936182602123085,-2.4027103035533357,-2.317848504308517,-1.5626264996280812,-1.2936182602123085,-3.103475767172442e-10,0.020589610561728477,0.8164637684822083,-0.07115086168050766,8.604066544626469e-08,0.7071065388421225,0.7071070235308802,-7.598979152199502e-08
151.0,-1.2918873853520865,-2.4028368804431635,-2.3179096857813466,-1.5624387412648557,-1.2918873853520865,-3.097797744813985e-10,0.019460977986454964,0.8164374828338623,-0.07123047113418579,6.481782864380783e-08,0.7071066336725601,0.7071069287004994,-5.2176396758774216e-08
152.0,-1.2901565104918642,-2.402963457332991,-2.317970867254177,-1.5622509829016304,-1.2901565104918642,-3.092119722455529e-10,0.018332384526729584,0.8164092898368835,-0.07131017744541168,5.2309646960736125e-08,0.7071066652827027,0.7071068970903696,-5.1080147623162234e-08
153.0,-1.288425635631642,-2.4030900342228185,-2.3180320487270065,-1.562063224538405,-1.288425635631642,-3.086441700097072e-10,0.017204077914357185,0.8163793087005615,-0.07138962298631668,5.481331048727544e-08,0.7071066336725603,0.7071069287004998,-5.33124905604003e-08
154.0,-1.2866947607714196,-2.4032166111126463,-2.3180932301998363,-1.5618754661751797,-1.2866947607714196,-3.0807636777386155e-10,0.016075799241662025,0.8163471221923828,-0.07146909832954407,3.5633466481889605e-08,0.7071066652827037,0.7071068970903708,-2.9976340374713425e-08
155.0,-1.2849638859111976,-2.403343188002474,-2.3181544116726664,-1.5616877078119544,-1.2849638859111976,-3.0750856553801587e-10,0.014947774820029736,0.8163132667541504,-0.07154858112335205,6.113843910692791e-08,0.7071066336725598,0.7071069287004996,-5.768686371995739e-08
156.0,-1.2832330110509753,-2.4034697648923014,-2.318215593145496,-1.561499949448729,-1.2832330110509753,-3.069407633021702e-10,0.013819984160363674,0.8162773847579956,-0.07162798196077347,6.043617315843038e-08,0.7071065809889867,0.7071069813840476,-4.662681900601285e-08
157.0,-1.281502136190753,-2.403596341782129,-2.3182767746183264,-1.5613121910855037,-1.281502136190753,-3.063729610663246e-10,0.012692230753600597,0.8162392377853394,-0.07170741260051727,-5.0548569694575503e-08,0.7071069287005004,0.7071066336725608,3.886766066463657e-08
158.0,-1.2797712613305308,-2.403722918671957,-2.318337956091156,-1.5611244327222782,-1.2797712613305308,-3.058051588304789e-10,0.011564580723643303,0.8161996603012085,-0.07178690284490585,4.177189060409801e-08,0.7071066652827037,0.7071068970903701,-4.043855225770341e-08
159.0,-1.2780403864703087,-2.403849495561784,-2.3183991375639863,-1.560936674359053,-1.2780403864703087,-3.0523735659463323e-10,0.010437234304845333,0.8161578178405762,-0.07186631858348846,-2.2005050999991325e-08,0.7071068760169498,0.7071066863561315,3.409737555318563e-08
160.0,-1.2763095116100864,-2.403976072451612,-2.318460319036816,-1.5607489159958274,-1.2763095116100864,-3.0466955435878756e-10,0.009309877641499043,0.8161144256591797,-0.07194550335407257,5.741398966431512e-08,0.7071066336725601,0.7071069287004995,-5.990473562573762e-08
161.0,-1.2745786367498642,-2.4041026493414397,-2.3185215005096462,-1.5605611576326022,-1.2745786367498642,-3.0410175212294193e-10,0.008182961493730545,0.8160688877105713,-0.07202494889497757,6.041255315851489e-08,0.70710663367256,0.7071069287004995,-5.814567729967199e-08
162.0,-1.2728477618896419,-2.404229226231267,-2.318582681982476,-1.560373399269377,-1.2728477618896419,-3.0353394988709626e-10,0.007056159898638725,0.8160213232040405,-0.07210429012775421,3.735918804331423e-08,0.7071066336725612,0.7071069287005006,-4.6404751911876444e-08
163.0,-1.2711168870294198,-2.4043558031210948,-2.3186438634553057,-1.5601856409061514,-1.2711168870294198,-3.029661476512506e-10,0.005929429084062576,0.8159719705581665,-0.07218363136053085,4.647622132003382e-08,0.7071066336725608,0.7071069287005003,-4.7513824319093797e-08
164.0,-1.2693860121691976,-2.4044823800109225,-2.318705044928136,-1.5599978825429262,-1.2693860121691976,-3.023983454154049e-10,0.004803050309419632,0.8159205913543701,-0.07226301729679108,4.825566040004805e-08,0.7071066652827032,0.7071068970903698,-4.43043750159006e-08
165.0,-1.2676551373089753,-2.40460895690075,-2.3187662264009656,-1.5598101241797007,-1.2676551373089753,-3.0183054317955924e-10,0.003676753491163254,0.8158674240112305,-0.07234221696853638,6.153242189155802e-08,0.7071066125991704,0.7071069497738781,-7.142379225862653e-08
166.0,-1.265924262448753,-2.4047355337905776,-2.318827407873796,-1.5596223658164754,-1.265924262448753,-3.0126274094371357e-10,0.002550642704591155,0.8158122301101685,-0.07242153584957123,7.817870995846466e-08,0.7071065388421233,0.7071070235308812,-6.676812600996828e-08
167.0,-1.2641933875885307,-2.4048621106804053,-2.3188885893466256,-1.5594346074532501,-1.2641933875885307,-3.0069493870786794e-10,0.0014249924570322037,0.815754771232605,-0.07250101864337921,-5.4530134187584647e-08,0.7071069287004998,0.7071066336725603,5.091725534810287e-08
168.0,-1.2624625127283087,-2.4049886875702327,-2.3189497708194557,-1.5592468490900246,-1.2624625127283087,-3.0012713647202227e-10,0.0002994292008224875,0.8156960010528564,-0.07258020341396332,-3.557335504049756e-08,0.7071068760169492,0.707106686356131,4.39989296356389e-08
169.0,-1.2607316378680864,-2.4051152644600604,-2.3190109522922855,-1.5590590907267994,-1.2607316378680864,-2.995593342361766e-10,-0.0008260238682851195,0.8156349658966064,-0.07265948504209518,-3.9667727417157146e-08,0.7071068760169489,0.7071066863561306,4.957928089115627e-08
170.0,-1.2590007630078641,-2.405241841349888,-2.3190721337651152,-1.558871332363574,-1.2590007630078641,-2.989915320003309e-10,-0.0019511767895892262,0.8155720233917236,-0.07273858040571213,-3.580160533277324e-08,0.7071068760169497,0.7071066863561312,2.771880487981026e-08
171.0,-1.2572698881476418,-2.4053684182397155,-2.3191333152379454,-1.5586835740003486,-1.2572698881476418,-2.984237297644853e-10,-0.0030762567184865475,0.8155073523521423,-0.07281768321990967,6.425180081343659e-08,0.7071066125991706,0.7071069497738783,-6.696383688566427e-08
172.0,-1.2555390132874198,-2.4054949951295432,-2.319194496710775,-1.5584958156371231,-1.2555390132874198,-2.9785592752863963e-10,-0.004200951661914587,0.8154406547546387,-0.07289697229862213,3.991666172704856e-08,0.7071066336725609,0.7071069287005006,-4.9021526440122205e-08
173.0,-1.2538081384271975,-2.405621572019371,-2.3192556781836053,-1.5583080572738979,-1.2538081384271975,-2.9728812529279395e-10,-0.005325633566826582,0.815372109413147,-0.07297610491514206,7.149527386232812e-08,0.7071066336725591,0.7071069287004988,-6.192253189982587e-08
174.0,-1.2520772635669752,-2.4057481489091983,-2.319316859656435,-1.5581202989106726,-1.2520772635669752,-2.967203230569483e-10,-0.0064500258304178715,0.8153015375137329,-0.0730552077293396,7.004224220015307e-08,0.7071065809889862,0.7071069813840466,-5.5363394713779945e-08
175.0,-1.250346388706753,-2.405874725799026,-2.3193780411292653,-1.5579325405474471,-1.250346388706753,-2.961525208211026e-10,-0.007573959417641163,0.8152288198471069,-0.07313448190689087,-2.980926886840515e-08,0.7071068970903704,0.7071066652827035,4.430870930711718e-08
176.0,-1.2486155138465307,-2.406001302688854,-2.319439222602095,-1.5577447821842219,-1.2486155138465307,-2.95584718585257e-10,-0.008697835728526115,0.8151546120643616,-0.07321354001760483,5.056408100175143e-08,0.7071066652827036,0.7071068970903699,-3.506136632929981e-08
177.0,-1.2468846389863086,-2.406127879578681,-2.319500404074925,-1.5575570238209964,-1.2468846389863086,-2.950169163494113e-10,-0.009821456857025623,0.8150781393051147,-0.07329264283180237,3.560262412942892e-08,0.7071066863561197,0.7071068760169608,-3.574669206760155e-08
178.0,-1.2451537641260864,-2.406254456468509,-2.319561585547755,-1.557369265457771,-1.2451537641260864,-2.9444911411356564e-10,-0.010944762267172337,0.8149999976158142,-0.07337173074483871,4.4804280857759824e-08,0.7071066125991722,0.7071069497738799,-4.4703784925585504e-08
179.0,-1.2416868937435268,-2.407729970491427,-2.3191612637534336,-1.556294073228105,-1.2416868937435268,-2.933796185364314e-10,-0.013257553800940514,0.8150234818458557,-0.07430465519428253,4.103827101642003e-08,0.7071066652827034,0.7071068970903703,-4.2295027031943526e-08
180.0,-1.2399534585522471,-2.408467727502886,-2.318961102856273,-1.555756477113272,-1.2399534585522471,-2.928448707478642e-10,-0.014413801953196526,0.8150316476821899,-0.07477141916751862,-3.785716006002031e-08,0.7071068760169605,0.7071066863561198,3.6790203943372446e-08
181.0,-1.2382200233609673,-2.409205484514345,-2.318760941959112,-1.5552188809984389,-1.2382200233609673,-2.923101229592971e-10,-0.015570271760225296,0.8150376677513123,-0.07523795962333679,4.261077936145382e-08,0.7071066336725831,0.7071069287004786,-4.182780953905091e-08
182.0,-1.2364865881696874,-2.409943241525804,-2.3185607810619517,-1.5546812848836058,-1.2364865881696874,-2.9177537517072995e-10,-0.016726454719901085,0.8150410056114197,-0.07570495456457138,-4.24290861957266e-08,0.7071068970903706,0.7071066652827038,2.069158346809053e-08
183.0,-1.2347531529784077,-2.410680998537263,-2.318360620164791,-1.5541436887687727,-1.2347531529784077,-2.912406273821628e-10,-0.017882712185382843,0.8150423765182495,-0.07617170363664627,4.8464925230485404e-08,0.707106665282703,0.7071068970903696,-5.0350719987781525e-08
184.0,-1.233019717787128,-2.411418755548722,-2.3181604592676304,-1.5536060926539397,-1.233019717787128,-2.907058795935957e-10,-0.019038761034607887,0.8150410056114197,-0.07663879543542862,2.5916549560942803e-08,0.7071067285029812,0.7071068338701084,-4.072906816265664e-08
185.0,-1.2312862825958482,-2.412156512560181,-2.31796029837047,-1.5530684965391066,-1.2312862825958482,-2.9017113180502857e-10,-0.020194854587316513,0.8150374889373779,-0.07710599154233932,2.4310391693664437e-08,0.7071067285029813,0.707106833870109,-2.7134750564116678e-08
186.0,-1.2295528474045683,-2.41289426957164,-2.317760137473309,-1.5525309004242736,-1.2295528474045683,-2.8963638401646144e-10,-0.02135097235441208,0.8150316476821899,-0.07757321745157242,2.246116564321702e-08,0.7071066863561315,0.7071068760169498,-2.88083178232231e-08
187.0,-1.2278194122132886,-2.413632026583099,-2.3175599765761485,-1.5519933043094405,-1.2278194122132886,-2.8910163622789426e-10,-0.022506965324282646,0.8150234222412109,-0.07804042845964432,5.8648759812699675e-08,0.7071066336725595,0.7071069287004993,-6.455740653632662e-08
188.0,-1.226085977022009,-2.4143697835945583,-2.3173598156789876,-1.5514557081946074,-1.226085977022009,-2.8856688843932713e-10,-0.023662706837058067,0.8150126934051514,-0.07850804179906845,-5.5110429494988435e-08,0.7071069287004997,0.7071066336725601,5.6334783209925894e-08
189.0,-1.224352541830729,-2.415107540606017,-2.317159654781827,-1.5509181120797744,-1.224352541830729,-2.8803214065076e-10,-0.024818571284413338,0.8149999976158142,-0.07897532731294632,6.31409209404331e-08,0.7071066125991712,0.7071069497738789,-5.386300439182302e-08
190.0,-1.2226905929839227,-2.4116542869819555,-2.3177961469177903,-1.5537348735673657,-1.2226905929839227,-2.875251263403758e-10,-0.02594088204205036,0.8150245547294617,-0.07679178565740585,-3.1332466193633216e-08,0.7071069181637913,0.7071066442092757,3.3867494212349115e-08
191.0,-1.2218596185605195,-2.4099276601699247,-2.318114392985772,-1.5551432543111614,-1.2218596185605195,-2.872716191851837e-10,-0.026501113548874855,0.8150338530540466,-0.07570019364356995,3.7409338901108394e-08,0.7071066336725832,0.7071069287004788,-4.363933547320504e-08
192.0,-1.2210286441371163,-2.408201033357894,-2.318432639053754,-1.5565516350549569,-1.2210286441371163,-2.870181120299916e-10,-0.027060728520154953,0.8150404095649719,-0.0746089369058609,5.786289430133598e-08,0.7071066652827025,0.7071068970903693,-5.1464275444157464e-08
193.0,-1.2201976697137131,-2.406474406545863,-2.3187508851217355,-1.5579600157987525,-1.2201976697137131,-2.867646048747995e-10,-0.027619725093245506,0.8150448203086853,-0.07351794838905334,5.094103526184026e-08,0.7071066652827026,0.7071068970903694,-5.4024674875382145e-08
194.0,-1.21936669529031,-2.404747779733832,-2.319069131189717,-1.5593683965425482,-1.21936669529031,-2.8651109771960736e-10,-0.028178011998534203,0.8150469064712524,-0.07242729514837265,6.445382251905465e-08,0.7071065809889862,0.7071069813840473,-5.2136651756966164e-08
195.0,-1.218535720866907,-2.4030211529218013,-2.3193873772576987,-1.560776777286344,-1.218535720866907,-2.862575905644153e-10,-0.028735794126987457,0.815047025680542,-0.07133690267801285,3.6302255157184634e-08,0.7071066652827035,0.7071068970903704,-4.015955000097248e-08
196.0,-1.2177047464435038,-2.4012945261097705,-2.3197056233256803,-1.5621851580301396,-1.2177047464435038,-2.8600408340922316e-10,-0.029292907565832138,0.8150447010993958,-0.07024671882390976,5.982253351829965e-08,0.7071066125991706,0.7071069497738783,-6.75597884166309e-08
197.0,-1.2168737720201006,-2.3995678992977396,-2.320023869393662,-1.5635935387739353,-1.2168737720201006,-2.8575057625403104e-10,-0.02984931319952011,0.8150403499603271,-0.06915687024593353,8.539295707474123e-08,0.7071064861586644,0.7071070762142974,-8.305216906638554e-08
198.0,-1.2160427975966974,-2.3978412724857088,-2.320342115461644,-1.5650019195177307,-1.2160427975966974,-2.8549706909883896e-10,-0.03040524385869503,0.8150337934494019,-0.06806733459234238,1.0192376074854836e-07,0.7071065072319717,0.707107055141002,-1.0490740895995358e-07
199.0,-1.2152118231732942,-2.396114645673678,-2.3206603615296255,-1.5664103002615264,-1.2152118231732942,-2.8524356194364684e-10,-0.030960408970713615,0.8150246143341064,-0.06697797775268555,1.1347878924611701e-07,0.707106486158661,0.7071070762142939,-1.0601753777321076e-07
200.0,-1.214380848749891,-2.394388018861647,-2.320978607597607,-1.567818681005322,-1.214380848749891,-2.8499005478845476e-10,-0.03151479735970497,0.8150134086608887,-0.06588921695947647,8.525333296033921e-08,0.7071065809889833,0.7071069813840443,-9.032703828597302e-08
201.0,-1.2135498743264879,-2.3926613920496163,-2.3212968536655887,-1.5692270617491177,-1.2135498743264879,-2.8473654763326264e-10,-0.03206869214773178,0.8149999380111694,-0.06480070948600769,4.5182196163075716e-08,0.7071066863561194,0.7071068760169602,-4.338284995840552e-08
202.0,-1.216991985301254,-2.391169904805364,-2.3217110592247874,-1.5703043434352246,-1.216991985301254,-2.8578964340190735e-10,-0.029762854799628258,0.8150211572647095,-0.06386032700538635,8.930414888355464e-08,0.7071064861586639,0.7071070762142968,-8.962568354850255e-08
203.0,-1.218713040788637,-2.3904241611832378,-2.3219181620043865,-1.5708429842782778,-1.218713040788637,-2.8631619128622975e-10,-0.0286097452044487,0.8150279521942139,-0.06339062005281448,6.226471760390568e-08,0.7071065809889863,0.707106981384047,-5.534241043192909e-08
204.0,-1.2204340962760203,-2.3896784175611114,-2.322125264783986,-1.5713816251213313,-1.2204340962760203,-2.868427391705521e-10,-0.027456721290946007,0.8150328993797302,-0.06292080134153366,7.017148936707449e-08,0.7071065388421233,0.7071070235308808,-7.958285736840175e-08
205.0,-1.2221551517634033,-2.388932673938985,-2.322332367563585,-1.5719202659643847,-1.2221551517634033,-2.8736928705487446e-10,-0.026303526014089584,0.8150352239608765,-0.062451183795928955,8.022226006072699e-08,0.7071065809889849,0.7071069813840458,-6.46360832086569e-08
206.0,-1.2238762072507865,-2.3881869303168592,-2.3225394703431848,-1.5724589068074382,-1.2238762072507865,-2.878958349391968e-10,-0.02515026554465294,0.8150349855422974,-0.06198156997561455,3.929164935699573e-08,0.7071066336725604,0.7071069287005002,-6.100264588363665e-08
207.0,-1.2255972627381695,-2.387441186694733,-2.322746573122784,-1.5729975476504916,-1.2255972627381695,-2.8842238282351916e-10,-0.023997033014893532,0.8150328397750854,-0.06151198223233223,7.959848869515118e-08,0.7071065809889852,0.7071069813840458,-6.423658135297799e-08
208.0,-1.2273183182255527,-2.3866954430726066,-2.3229536759023834,-1.573536188493545,-1.2273183182255527,-2.889489307078415e-10,-0.022843826562166214,0.8150280714035034,-0.06104272976517677,5.764275361601172e-08,0.7071066336725601,0.7071069287004996,-5.683721484858077e-08
209.0,-1.2290393737129357,-2.3859496994504803,-2.3231607786819826,-1.5740748293365983,-1.2290393737129357,-2.894754785921639e-10,-0.021690277382731438,0.8150209188461304,-0.06057354807853699,3.1444937619064655e-08,0.7071066652827035,0.7071068970903704,-4.265947917246474e-08
210.0,-1.230760429200319,-2.3852039558283544,-2.323367881461582,-1.5746134701796517,-1.230760429200319,-2.900020264764863e-10,-0.02053709514439106,0.8150118589401245,-0.06010434404015541,8.020117211262865e-08,0.7071065809889843,0.7071069813840452,-8.062384571235422e-08
211.0,-1.232481484687702,-2.384458212206228,-2.3235749842411813,-1.5751521110227051,-1.232481484687702,-2.9052857436080863e-10,-0.01938367262482643,0.8149999380111694,-0.059635553508996964,4.4480481836474896e-08,0.7071066652827036,0.7071068970903704,-3.375134017063376e-08
212.0,-1.229052328949359,-2.3861904183107163,-2.32306757063329,-1.5739273185250675,-1.229052328949359,-2.894874643017381e-10,-0.021693522110581398,0.8150539398193359,-0.060724999755620956,4.3189284503704906e-08,0.707106665282703,0.7071068970903701,-4.5694378515902007e-08
213.0,-1.2273377510801873,-2.38705652136296,-2.322813863829344,-1.5733149222762486,-1.2273377510801873,-2.8896690927220284e-10,-0.022848444059491158,0.8150774836540222,-0.06127006188035011,5.945678049976949e-08,0.7071066336725601,0.7071069287004996,-5.432462984429039e-08
214.0,-1.2256231732110159,-2.387922624415204,-2.3225601570253986,-1.5727025260274297,-1.2256231732110159,-2.8844635424266757e-10,-0.024003366008400917,0.8150985240936279,-0.06181498244404793,9.892750026944926e-08,0.7071064861586626,0.7071070762142955,-9.876379874941276e-08
215.0,-1.2239085953418443,-2.388788727467448,-2.3223064502214528,-1.572090129778611,-1.2239085953418443,-2.879257992131323e-10,-0.02515816129744053,0.815116822719574,-0.06236041337251663,5.154725786189763e-08,0.7071065809889869,0.7071069813840477,-5.1893101211756274e-08
216.0,-1.2221940174726726,-2.3896548305196923,-2.3220527434175073,-1.571477733529792,-1.2221940174726726,-2.8740524418359704e-10,-0.026312952861189842,0.8151328563690186,-0.06290582567453384,7.918317913645567e-08,0.7071065809889835,0.7071069813840443,-9.3052295638494e-08
217.0,-1.2204794396035012,-2.390520933571936,-2.3217990366135615,-1.570865337280973,-1.2204794396035012,-2.868846891540618e-10,-0.027467792853713036,0.8151464462280273,-0.06345158815383911,7.258257938247102e-08,0.7071065809889857,0.7071069813840463,-6.161584106790956e-08
218.0,-1.2187648617343296,-2.39138703662418,-2.3215453298096156,-1.5702529410321544,-1.2187648617343296,-2.863641341245265e-10,-0.02862251177430153,0.8151575326919556,-0.06399724632501602,8.11976929191591e-08,0.707106580988984,0.7071069813840454,-7.868816259486171e-08
219.0,-1.217050283865158,-2.3922531396764244,-2.32129162300567,-1.5696405447833355,-1.217050283865158,-2.8584357909499125e-10,-0.029777219519019127,0.8151658773422241,-0.06454338878393173,3.254386720927891e-08,0.7071066863561307,0.707106876016949,-5.1371990215412246e-08
220.0,-1.2153357059959866,-2.3931192427286683,-2.3210379162017243,-1.5690281485345166,-1.2153357059959866,-2.85323024065456e-10,-0.030931778252124786,0.8151720762252808,-0.06508959829807281,3.772996758313251e-08,0.7071066652827033,0.7071068970903704,-4.515430513017636e-08
221.0,-1.213621128126815,-2.393985345780912,-2.320784209397779,-1.5684157522856979,-1.213621128126815,-2.848024690359207e-10,-0.032086510211229324,0.8151758909225464,-0.06563570350408554,1.0952702572722389e-07,0.7071065388421195,0.7071070235308773,-9.772850507869323e-08
222.0,-1.2119065502576434,-2.3948514488331565,-2.320530502593833,-1.567803356036879,-1.2119065502576434,-2.842819140063854e-10,-0.033240996301174164,0.8151772022247314,-0.06618236750364304,7.159075095106035e-08,0.7071065809889848,0.7071069813840457,-7.546627027373373e-08
223.0,-1.210191972388472,-2.3957175518854004,-2.320276795789887,-1.56719095978806,-1.210191972388472,-2.8376135897685014e-10,-0.03439553081989288,0.8151759505271912,-0.06672903895378113,9.729260445448039e-08,0.7071065809889824,0.7071069813840426,-9.637775208373276e-08
224.0,-1.2084773945193004,-2.3965836549376442,-2.3200230889859417,-1.5665785635392413,-1.2084773945193004,-2.8324080394731487e-10,-0.03554978221654892,0.8151721954345703,-0.06727574020624161,6.977020443405606e-08,0.707106633672559,0.7071069287004982,-7.072943102002108e-08
225.0,-1.206762816650129,-2.397449757989888,-2.319769382181996,-1.5659661672904224,-1.206762816650129,-2.827202489177796e-10,-0.036704160273075104,0.8151659965515137,-0.06782285869121552,8.595027639963703e-08,0.7071065388421218,0.70710702353088,-8.46806093267823e-08
226.0,-1.2050482387809573,-2.3983158610421325,-2.3195156753780504,-1.5653537710416034,-1.2050482387809573,-2.8219969388824434e-10,-0.03785833716392517,0.8151572942733765,-0.06836989521980286,1.0219507379828702e-07,0.7071064756218043,0.7071070867511439,-1.0251528528249792e-07
227.0,-1.2033336609117857,-2.3991819640943763,-2.3192619685741045,-1.5647413747927847,-1.2033336609117857,-2.816791388587091e-10,-0.03901253640651703,0.8151460886001587,-0.06891737878322601,4.503079604590462e-08,0.707106686356131,0.7071068760169494,-2.6776518437167466e-08
228.0,-1.2016190830426143,-2.4000480671466202,-2.3190082617701586,-1.5641289785439658,-1.2016190830426143,-2.811585838291738e-10,-0.040166519582271576,0.8151326775550842,-0.06946474313735962,7.189846595176809e-08,0.7071066125991695,0.7071069497738772,-7.679788366176087e-08
229.0,-1.1999045051734427,-2.4009141701988646,-2.318754554966213,-1.563516582295147,-1.1999045051734427,-2.8063802879963855e-10,-0.04132041707634926,0.8151166439056396,-0.07001253217458725,6.36804552476138e-08,0.7071066652827025,0.7071068970903692,-4.729805126746016e-08
230.0,-1.1981899273042713,-2.4017802732511084,-2.3185008481622673,-1.5629041860463282,-1.1981899273042713,-2.801174737701033e-10,-0.042474281042814255,0.8150984048843384,-0.07056035846471786,4.5840763385661903e-08,0.707106665282703,0.70710689709037,-4.498343287581647e-08
231.0,-1.1964753494350997,-2.4026463763033523,-2.318247141358322,-1.5622917897975093,-1.1964753494350997,-2.79596918740568e-10,-0.04362809658050537,0.8150774836540222,-0.07110811769962311,9.869991123578517e-08,0.7071065072319712,0.7071070551410017,-1.1360199157403032e-07
232.0,-1.194760771565928,-2.403512479355596,-2.317993434554376,-1.5616793935486903,-1.194760771565928,-2.7907636371103275e-10,-0.04478156194090843,0.8150539398193359,-0.07165639102458954,7.896874963892893e-08,0.7071066336725594,0.7071069287004975,-6.501034731867017e-08
233.0,-1.1930461936967567,-2.4043785824078405,-2.3177397277504306,-1.5610669972998716,-1.1930461936967567,-2.785558086814975e-10,-0.04593509063124657,0.815028190612793,-0.07220478355884552,5.912882682961102e-08,0.70710663367256,0.7071069287004995,-5.525272450752505e-08
234.0,-1.191331615827585,-2.4052446854600844,-2.3174860209464847,-1.5604546010510527,-1.191331615827585,-2.780352536519622e-10,-0.047088343650102615,0.8149998188018799,-0.07275321334600449,6.350084214302231e-08,0.707106665282702,0.7071068970903692,-5.063159325557982e-08
235.0,-1.1906347761916989,-2.4019179579675196,-2.318083359622047,-1.5631839898678472,-1.1906347761916989,-2.7782703794900635e-10,-0.0475708469748497,0.8150220513343811,-0.07064943015575409,8.864270325069004e-08,0.7071066125991688,0.7071069497738766,-7.28922868243772e-08
236.0,-1.1902863563737558,-2.4002545942212374,-2.3183820289598276,-1.5645486842762444,-1.1902863563737558,-2.777229300975284e-10,-0.047811031341552734,0.8150306940078735,-0.06959807872772217,7.992850862361397e-08,0.7071066336725579,0.7071069287004975,-7.858047015420685e-08
237.0,-1.189937936555813,-2.398591230474955,-2.3186806982976087,-1.5659133786846415,-1.189937936555813,-2.7761882224605043e-10,-0.048050686717033386,0.8150374889373779,-0.06854694336652756,1.0322766612648838e-07,0.7071065072319723,0.7071070551410029,-9.272820331268334e-08
238.0,-1.1895895167378698,-2.3969278667286726,-2.31897936763539,-1.5672780730930387,-1.1895895167378698,-2.7751471439457247e-10,-0.04828973859548569,0.8150426149368286,-0.06749585270881653,9.001742003846671e-08,0.7071065388421203,0.7071070235308781,-1.0515879906869719e-07
239.0,-1.1892410969199267,-2.39526450298239,-2.319278036973171,-1.568642767501436,-1.1892410969199267,-2.7741060654309456e-10,-0.04852811247110367,0.815045952796936,-0.06644507497549057,1.0536932506075403e-07,0.7071065072319715,0.7071070551410022,-1.0118801968470186e-07
240.0,-1.1888926771019837,-2.393601139236108,-2.319576706310952,-1.5700074619098332,-1.1888926771019837,-2.773064986916166e-10,-0.04876572638750076,0.8150476813316345,-0.06539487093687057,6.283611966864691e-08,0.7071065809889848,0.7071069813840454,-8.710567714278187e-08
241.0,-1.1885442572840406,-2.3919377754898252,-2.3198753756487327,-1.5713721563182304,-1.1885442572840406,-2.7720239084013864e-10,-0.04900272190570831,0.8150475025177002,-0.06434478610754013,7.458096410262167e-08,0.707106633672559,0.7071069287004985,-6.269334535664919e-08
242.0,-1.1881958374660975,-2.390274411743543,-2.320174044986514,-1.5727368507266275,-1.1881958374660975,-2.770982829886607e-10,-0.04923926666378975,0.815045952796936,-0.06329494714736938,7.017809311372905e-08,0.7071066336725587,0.7071069287004983,-7.505737845012215e-08
243.0,-1.1878474176481544,-2.3886110479972604,-2.320472714324295,-1.5741015451350249,-1.1878474176481544,-2.7699417513718276e-10,-0.0494750551879406,0.8150426149368286,-0.06224531680345535,7.045970364943777e-08,0.7071066336725595,0.7071069287004992,-5.4382729405633233e-08
244.0,-1.1874989978302113,-2.3869476842509783,-2.320771383662076,-1.575466239543422,-1.1874989978302113,-2.768900672857048e-10,-0.049710094928741455,0.8150374889373779,-0.061195969581604004,8.14635462451857e-08,0.7071066336725577,0.707106928700497,-8.276929053085753e-08
245.0,-1.1871505780122684,-2.3852843205046956,-2.321070052999857,-1.5768309339518192,-1.1871505780122684,-2.7678595943422684e-10,-0.04994455724954605,0.815030574798584,-0.06014695763587952,4.475157886702423e-08,0.7071066652827029,0.7071068970903698,-5.055272665115001e-08
246.0,-1.1868021581943253,-2.3836209567584135,-2.321368722337638,-1.5781956283602163,-1.1868021581943253,-2.766818515827489e-10,-0.05017832666635513,0.8150221109390259,-0.05909806862473488,7.92250911929505e-08,0.7071066652827004,0.7071068970903673,-7.430151294467299e-08
247.0,-1.1864537383763822,-2.381957593012131,-2.321667391675419,-1.5795603227686137,-1.1864537383763822,-2.7657774373127097e-10,-0.05041148513555527,0.8150118589401245,-0.05804942920804024,8.927591085368401e-08,0.7071065388421219,0.70710702353088,-7.940965454972546e-08
248.0,-1.1861053185584391,-2.3802942292658487,-2.3219660610132,-1.5809250171770108,-1.1861053185584391,-2.76473635879793e-10,-0.05064395070075989,0.8149996995925903,-0.05700152367353439,-4.316868854662115e-08,0.7071068970903704,0.7071066652827034,3.641047160397849e-08
249.0,-1.1850823142516513,-2.383714076063831,-2.321193028325486,-1.5782782030664388,-1.1850823142516513,-2.7616975454341443e-10,-0.05135799199342728,0.8150417804718018,-0.05915587767958641,7.907675693420936e-08,0.707106633672558,0.7071069287004974,-8.041459153889612e-08
250.0,-1.1845708120982574,-2.385423999462822,-2.320806511981629,-1.576954796011153,-1.1845708120982574,-2.7601781387522517e-10,-0.05171402916312218,0.8150597214698792,-0.06023377925157547,7.348189996557567e-08,0.7071066336725585,0.7071069287004983,-7.16128522631114e-08
251.0,-1.1840593099448635,-2.387133922861813,-2.3204199956377716,-1.575631388955867,-1.1840593099448635,-2.758658732070359e-10,-0.052069272845983505,0.8150757551193237,-0.06131233274936676,6.323100678920123e-08,0.7071066652827015,0.7071068970903692,-6.170675646155785e-08
252.0,-1.1835478077914696,-2.388843846260804,-2.3200334792939143,-1.574307981900581,-1.1835478077914696,-2.7571393253884664e-10,-0.05242399871349335,0.8150899410247803,-0.06239127367734909,3.865051827219985e-08,0.7071067285029812,0.7071068338701084,-2.5384081331373884e-08
253.0,-1.1830363056380757,-2.3905537696597956,-2.3196469629500576,-1.572984574845295,-1.1830363056380757,-2.755619918706573e-10,-0.0527779795229435,0.8151024580001831,-0.06347042322158813,7.046529694697864e-08,0.7071066336725585,0.707106928700498,-7.944630675596493e-08
254.0,-1.1825248034846818,-2.3922636930587866,-2.3192604466062003,-1.5716611677900092,-1.1825248034846818,-2.7541005120246806e-10,-0.05313139781355858,0.815112829208374,-0.06455019116401672,1.0940159975252056e-07,0.7071065388421188,0.7071070235308766,-1.077994837280377e-07
255.0,-1.182013301331288,-2.3939736164577776,-2.318873930262343,-1.570337760734723,-1.182013301331288,-2.752581105342788e-10,-0.05348409712314606,0.8151212930679321,-0.06563045084476471,5.4328055822003775e-08,0.7071066652827023,0.7071068970903691,-6.206909436588493e-08
256.0,-1.181501799177894,-2.395683539856769,-2.3184874139184863,-1.5690143536794372,-1.181501799177894,-2.751061698660895e-10,-0.05383612960577011,0.815127968788147,-0.06671100854873657,7.945015355076112e-08,0.7071066125991694,0.7071069497738771,-7.479004550804315e-08
257.0,-1.1809902970245,-2.39739346325576,-2.318100897574629,-1.5676909466241513,-1.1809902970245,-2.749542291979002e-10,-0.054187335073947906,0.815132737159729,-0.06779211014509201,9.923198797677156e-08,0.7071066336725568,0.707106928700496,-8.054630247564202e-08
258.0,-1.1804787948711062,-2.399103386654751,-2.317714381230772,-1.5663675395688652,-1.1804787948711062,-2.7480228852971095e-10,-0.054537851363420486,0.8151354789733887,-0.06887359917163849,5.936765271140014e-08,0.7071066336725599,0.7071069287004996,-5.7283827189361613e-08
259.0,-1.1799672927177123,-2.400813310053742,-2.3173278648869147,-1.5650441325135793,-1.1799672927177123,-2.746503478615217e-10,-0.05488786846399307,0.8151364326477051,-0.0699554830789566,6.151944962643896e-08,0.7071066020624049,0.7071069603106389,-6.655787529231126e-08
260.0,-1.1794557905643182,-2.4025232334527336,-2.316941348543058,-1.5637207254582934,-1.1794557905643182,-2.744984071933324e-10,-0.055237215012311935,0.815135657787323,-0.0710378885269165,9.090488051029767e-08,0.707106633672557,0.7071069287004967,-8.109070473330367e-08
261.0,-1.1789442884109242,-2.4042331568517246,-2.3165548321992007,-1.5623973184030073,-1.1789442884109242,-2.743464665251431e-10,-0.0555858239531517,0.815132737159729,-0.07212082296609879,3.834030718811162e-08,0.7071066863561312,0.7071068760169492,-3.643547402079014e-08
262.0,-1.1784327862575303,-2.4059430802507156,-2.3161683158553434,-1.5610739113477214,-1.1784327862575303,-2.7419452585695385e-10,-0.05593359097838402,0.8151280283927917,-0.07320394366979599,5.173840409263271e-08,0.7071066863561186,0.7071068760169598,-5.409273631031255e-08
263.0,-1.1779212841041364,-2.407653003649707,-2.3157817995114867,-1.5597505042924356,-1.1779212841041364,-2.7404258518876453e-10,-0.05628063902258873,0.8151212930679321,-0.07428770512342453,-4.539335763918533e-08,0.7071068970903701,0.7071066652827032,4.572127315600429e-08
264.0,-1.1774097819507425,-2.409362927048698,-2.3153952831676294,-1.5584270972371495,-1.1774097819507425,-2.7389064452057527e-10,-0.05662715807557106,0.8151127099990845,-0.07537174224853516,-2.950750341196709e-08,0.7071068970903707,0.7071066652827039,3.4523971245741066e-08
265.0,-1.1768982797973486,-2.411072850447689,-2.315008766823772,-1.5571036901818636,-1.1768982797973486,-2.73738703852386e-10,-0.05697295069694519,0.8151023387908936,-0.07645612955093384,4.213106616371681e-08,0.7071067285029807,0.7071068338701082,-3.670003008702106e-08
266.0,-1.1763867776439547,-2.4127827738466805,-2.3146222504799154,-1.5557802831265777,-1.1763867776439547,-2.735867631841967e-10,-0.057317979633808136,0.8150901794433594,-0.07754084467887878,4.331158791234462e-08,0.7071066336725604,0.7071069287005003,-5.827769808393375e-08
267.0,-1.1758752754905608,-2.4144926972456715,-2.314235734136058,-1.5544568760712916,-1.1758752754905608,-2.7343482251600743e-10,-0.05766233056783676,0.8150759339332581,-0.0786261335015297,4.951903248958712e-08,0.7071066652827033,0.70710689709037,-4.0043598531280983e-08
268.0,-1.175363773337167,-2.4162026206446625,-2.313849217792201,-1.5531334690160057,-1.175363773337167,-2.7328288184781816e-10,-0.05800584703683853,0.8150598406791687,-0.07971163839101791,5.542996936864995e-08,0.7071066652827022,0.7071068970903688,-6.237297867223866e-08
269.0,-1.174852271183773,-2.4179125440436535,-2.3134627014483438,-1.5518100619607198,-1.174852271183773,-2.731309411796289e-10,-0.05834878981113434,0.8150416612625122,-0.08079778403043747,3.939931532661416e-08,0.7071066863561198,0.7071068760169605,-3.7015204568340145e-08
270.0,-1.174340769030379,-2.419622467442645,-2.313076185104487,-1.5504866549054337,-1.174340769030379,-2.729790005114396e-10,-0.058690961450338364,0.8150217533111572,-0.0818842351436615,6.120854801740277e-08,0.707106686356118,0.7071068760169602,-4.761066767613326e-08
271.0,-1.1738292668769852,-2.421332390841636,-2.3126896687606298,-1.5491632478501478,-1.1738292668769852,-2.728270598432503e-10,-0.05903230980038643,0.8149999976158142,-0.08297086507081985,6.587201990918456e-08,0.7071066652827019,0.7071068970903687,-5.802398979204759e-08
272.0,-1.1704036658465,-2.421216367560542,-2.312347839878029,-1.5496211000128415,-1.1704036658465,-2.718255306140788e-10,-0.06139954552054405,0.8150402307510376,-0.08290280401706696,7.184840650794103e-08,0.7071066336725591,0.7071069287004986,-6.378457591187446e-08
273.0,-1.1686908653312573,-2.4211583559199945,-2.3121769254367286,-1.5498500260941883,-1.1686908653312573,-2.71324765999493e-10,-0.06258352100849152,0.8150572776794434,-0.08286876976490021,6.338450004615283e-08,0.7071066336725595,0.7071069287004992,-6.366275935004307e-08
274.0,-1.1669780648160148,-2.421100344279447,-2.312006010995428,-1.5500789521755354,-1.1669780648160148,-2.708240013849073e-10,-0.06376774609088898,0.8150721192359924,-0.08283467590808868,6.955403756799026e-08,0.7071066863561175,0.7071068760169582,-6.767990444726331e-08
275.0,-1.1652652643007722,-2.4210423326389,-2.3118350965541277,-1.5503078782568822,-1.1652652643007722,-2.703232367703215e-10,-0.06495220214128494,0.8150849342346191,-0.08280065655708313,5.307950499548297e-08,0.7071066652827039,0.7071068970903678,-5.5977725153298605e-08
276.0,-1.1635524637855295,-2.420984320998353,-2.311664182112827,-1.550536804338229,-1.1635524637855295,-2.698224721557357e-10,-0.0661369189620018,0.8150956630706787,-0.08276630192995071,8.573456966785e-08,0.7071066652826998,0.7071068970903666,-7.886853652995504e-08
277.0,-1.161839663270287,-2.4209263093578057,-2.3114932676715267,-1.5507657304195759,-1.161839663270287,-2.6932170754114997e-10,-0.0673217698931694,0.8151040077209473,-0.08273222297430038,5.399831992968301e-08,0.7071066652827024,0.7071068970903692,-5.773517334397702e-08
278.0,-1.1601268627550443,-2.4208682977172584,-2.3113223532302265,-1.5509946565009227,-1.1601268627550443,-2.688209429265642e-10,-0.0685068666934967,0.8151103258132935,-0.08269809186458588,3.590736215230913e-08,0.7071066863561314,0.7071068760169495,-2.4553058346829628e-08
279.0,-1.1584140622398016,-2.4208102860767116,-2.311151438788926,-1.5512235825822696,-1.1584140622398016,-2.683201783119784e-10,-0.06969223916530609,0.8151144981384277,-0.08266372233629227,-2.5374219931375406e-08,0.7071068338701086,0.7071067285029808,3.815772402808676e-08
280.0,-1.1567012617245591,-2.4207522744361643,-2.3109805243476256,-1.5514525086636164,-1.1567012617245591,-2.6781941369739267e-10,-0.07087785005569458,0.8151167631149292,-0.08262934535741806,5.750611766824048e-08,0.7071066336725601,0.7071069287004996,-5.855909608860677e-08
281.0,-1.1549884612093164,-2.420694262795617,-2.310809609906325,-1.5516814347449635,-1.1549884612093164,-2.673186490828069e-10,-0.07206369191408157,0.8151167631149292,-0.08259502798318863,3.5520244791965285e-08,0.7071067285029808,0.7071068338701083,-3.898750079477e-08
282.0,-1.153275660694074,-2.4206362511550696,-2.3106386954650247,-1.5519103608263103,-1.153275660694074,-2.6681788446822115e-10,-0.0732497051358223,0.8151147961616516,-0.08256050944328308,5.9445407762247836e-08,0.7071066125991706,0.7071069497738783,-6.87442178402427e-08
283.0,-1.1515628601788312,-2.420578239514523,-2.310467781023724,-1.5521392869076571,-1.1515628601788312,-2.6631711985363536e-10,-0.07443596422672272,0.815110445022583,-0.08252619206905365,3.724487911994992e-08,0.7071066863561186,0.7071068760169592,-6.933552051505685e-08
284.0,-1.1498500596635886,-2.4205202278739755,-2.3102968665824237,-1.552368212989004,-1.1498500596635886,-2.658163552390496e-10,-0.07562234997749329,0.8151041269302368,-0.08249177783727646,5.697655730546938e-08,0.7071066863561183,0.707106876016959,-6.166255942857846e-08
285.0,-1.148137259148346,-2.420462216233428,-2.3101259521411235,-1.5525971390703508,-1.148137259148346,-2.6531559062446384e-10,-0.07680892199277878,0.8150955438613892,-0.08245716989040375,5.660341374359793e-08,0.707106686356119,0.7071068760169599,-4.5629027772760794e-08
286.0,-1.1464244586331034,-2.4204042045928813,-2.309955037699823,-1.5528260651516976,-1.1464244586331034,-2.6481482600987806e-10,-0.07799573242664337,0.8150849938392639,-0.08242274075746536,-1.5773832896698882e-08,0.707106833870109,0.7071067285029813,3.204664524322126e-08
287.0,-1.1447116581178607,-2.420346192952334,-2.3097841232585226,-1.5530549912330445,-1.1447116581178607,-2.6431406139529227e-10,-0.0791826918721199,0.8150721788406372,-0.08238812536001205,4.7370394322661094e-08,0.707106665282703,0.7071068970903694,-5.437092766978575e-08
288.0,-1.1429988576026182,-2.4202881813117867,-2.309613208817222,-1.5532839173143915,-1.1429988576026182,-2.6381329678070654e-10,-0.08036978542804718,0.8150572776794434,-0.08235330879688263,5.988705666022748e-08,0.70710663367256,0.7071069287004995,-5.837958330181347e-08
289.0,-1.1412860570873755,-2.4202301696712394,-2.3094422943759216,-1.5535128433957384,-1.1412860570873755,-2.6331253216612075e-10,-0.08155712485313416,0.8150402903556824,-0.0823187306523323,7.612174702320191e-08,0.7071066652827012,0.7071068970903682,-6.149005670980082e-08
290.0,-1.139573256572133,-2.4201721580306925,-2.309271379934621,-1.5537417694770852,-1.139573256572133,-2.62811767551535e-10,-0.08274461328983307,0.8150211572647095,-0.08228413015604019,4.128920652529578e-08,0.7071066863561308,0.7071068760169495,-3.0295618037597344e-08
291.0,-1.1378604560568903,-2.420114146390145,-2.3091004654933207,-1.553970695558432,-1.1378604560568903,-2.6231100293694923e-10,-0.08393235504627228,0.8149999380111694,-0.08224927634000778,8.395134814915186e-08,0.7071066336725568,0.7071069287004964,-9.20759244244459e-08
292.0,-1.1378604173660278,-2.420114040374756,-2.309100389480591,-1.5539706945419312,-1.1378604173660278,-2.6231100624940495e-10,-0.08393235504627228,0.8149999380111694,-0.08224927634000778,8.395134814915186e-08,0.7071066336725568,0.7071069287004964,-9.20759244244459e-08
293.0,-1.1378604173660278,-2.420114040374756,-2.309100389480591,-1.5539706945419312,-1.1378604173660278,-2.6231100624940495e-10,-0.08393235504627228,0.8149999380111694,-0.08224927634000778,8.395134814915186e-08,0.7071066336725568,0.7071069287004964,-9.20759244244459e-08
294.0,-1.1378604173660278,-2.420114040374756,-2.309100389480591,-1.5539706945419312,-1.1378604173660278,-2.6231100624940495e-10,-0.08393235504627228,0.8149999380111694,-0.08224927634000778,8.395134814915186e-08,0.7071066336725568,0.7071069287004964,-9.20759244244459e-08
295.0,-1.1378283500671387,-2.419613838195801,-2.3090593814849854,-1.5532867908477783,-1.1364518404006958,-0.0006602911162190139,-0.0838688388466835,0.815273642539978,-0.08176064491271973,0.00043542483252916384,0.7067134197493612,0.7074995852521679,0.0005381629759072132
296.0,-1.1377378702163696,-2.418203592300415,-2.308943271636963,-1.5513595342636108,-1.1324819326400757,-0.002521110698580742,-0.08368957042694092,0.8160416483879089,-0.08038242906332016,0.0016670190938135809,0.7056052362440487,0.7086002085175129,0.0020533195704006474
297.0,-1.137647271156311,-2.4167935848236084,-2.3088274002075195,-1.5494321584701538,-1.1285120248794556,-0.004381931386888027,-0.08350931853055954,0.8168045282363892,-0.07900358736515045,0.0029049325677222115,0.7044974303274939,0.7096916345200769,0.003565939000640422
298.0,-1.137556791305542,-2.4153835773468018,-2.308711290359497,-1.5475049018859863,-1.124542236328125,-0.006242750678211451,-0.08332791924476624,0.817562460899353,-0.07762422412633896,0.004149516905764837,0.7033898770238413,0.7107740118264111,0.005076073484804552
299.0,-1.137413740158081,-2.4135639667510986,-2.3084139823913574,-1.5441198348999023,-1.117553949356079,-0.009518497623503208,-0.08294009417295456,0.8187721967697144,-0.07569845020771027,0.006273373012464169,0.7016264113406253,0.7124744634287011,0.007820656130187386
300.0,-1.1372491121292114,-2.411576509475708,-2.308042526245117,-1.5401383638381958,-1.1093307733535767,-0.013373078778386116,-0.08246590197086334,0.8201528787612915,-0.0735485628247261,0.008776245703802131,0.6995964121182575,0.7143986706789408,0.011062413605073667
301.0,-1.1370846033096313,-2.4095892906188965,-2.307671070098877,-1.5361568927764893,-1.1011075973510742,-0.0172276571393013,-0.08198891580104828,0.8215158581733704,-0.07139802724123001,0.011303425454254015,0.6975684469601996,0.7162863740339629,0.014294220923608528
302.0,-1.1369162797927856,-2.4075911045074463,-2.307281494140625,-1.5320515632629395,-1.0926268100738525,-0.021202949807047844,-0.08148905634880066,0.8228943943977356,-0.06921891123056412,0.013928094555151862,0.6954942817676601,0.7181804181779883,0.01762382354199504
303.0,-1.1366949081420898,-2.405432939529419,-2.3066301345825195,-1.5261495113372803,-1.0804115533828735,-0.026928560808300972,-0.08068821579217911,0.8247219920158386,-0.06663196533918381,0.01765678363860148,0.6927180819015769,0.7206409508144018,0.022505932716832783
304.0,-1.136473536491394,-2.4032747745513916,-2.305979013442993,-1.520247459411621,-1.0681962966918945,-0.03265417367219925,-0.07988392561674118,0.8265151381492615,-0.06404644250869751,0.02143373985032953,0.6899486007313868,0.7230232762745908,0.027365399868933347
305.0,-1.1362520456314087,-2.4011166095733643,-2.3053276538848877,-1.514345407485962,-1.055980920791626,-0.03837977722287178,-0.07907678931951523,0.8282740116119385,-0.061463359743356705,0.025258378447563755,0.6871864384080755,0.7253274243485295,0.03220156322528993
306.0,-1.1360127925872803,-2.398921489715576,-2.3045644760131836,-1.507704496383667,-1.0422276258468628,-0.044826094061136246,-0.07813793420791626,0.8301745653152466,-0.058739177882671356,0.029588786445051415,0.6841536270258737,0.7277640177607916,0.03765438615514798
307.0,-1.1357486248016357,-2.3966751098632812,-2.3036463260650635,-1.5000407695770264,-1.026344656944275,-0.05227030813694,-0.07701784372329712,0.8322700262069702,-0.055821821093559265,0.034620943309823696,0.6807479472878525,0.7303774960546583,0.043958341695757096
308.0,-1.1354844570159912,-2.3944287300109863,-2.3027281761169434,-1.4923769235610962,-1.0104618072509766,-0.05971452593803406,-0.0758957788348198,0.834311306476593,-0.0529128834605217,0.03972685089996999,0.6773584680332816,0.7328609880300668,0.05022006894431586
309.0,-1.1352201700210571,-2.3921823501586914,-2.3018100261688232,-1.4847131967544556,-0.9945788383483887,-0.06715874373912811,-0.07477212697267532,0.8362985849380493,-0.05001378059387207,0.04490547279173348,0.6739869509266954,0.7352141200538911,0.05643833951552505
310.0,-1.1349337100982666,-2.389897108078003,-2.300698757171631,-1.4758105278015137,-0.9761131405830383,-0.07581306248903275,-0.0734243094921112,0.8384934663772583,-0.046908989548683167,0.05096926506913623,0.670183810228951,0.7377007929583365,0.06366580396067358
311.0,-1.1346405744552612,-2.387600898742676,-2.2995312213897705,-1.4665465354919434,-0.9568941593170166,-0.08482031524181366,-0.07201243937015533,0.8406916260719299,-0.043759316205978394,0.057366191267869515,0.6662784651985703,0.740082321660431,0.07113567373520985
312.0,-1.1343474388122559,-2.3853046894073486,-2.29836368560791,-1.457282543182373,-0.9376751780509949,-0.09382758289575577,-0.07060283422470093,0.8428153991699219,-0.04063032567501068,0.06386014864876428,0.6624057437165206,0.7422753470026526,0.07853547821215957
313.0,-1.1340525150299072,-2.3830063343048096,-2.297166347503662,-1.4478328227996826,-0.9180686473846436,-0.10301642119884491,-0.06916245073080063,0.8449005484580994,-0.037495389580726624,0.07057621747871935,0.6585030801083902,0.7443075224271174,0.08601745795224203
314.0,-1.1337441205978394,-2.3806934356689453,-2.2957677841186523,-1.4371305704116821,-0.8958461284637451,-0.11343088746070862,-0.06749580800533295,0.8471344709396362,-0.034199558198451996,0.07826087787888315,0.6542078975113428,0.7463009706417659,0.0944569904590052
315.0,-1.1334357261657715,-2.378380537033081,-2.2943689823150635,-1.4264280796051025,-0.8736236691474915,-0.12384535372257233,-0.0658390074968338,0.8492751717567444,-0.030939273536205292,0.08606250977962657,0.6499652229453168,0.7480455308154043,0.10279269039759699
316.0,-1.1331273317337036,-2.376067876815796,-2.2929701805114746,-1.415725588798523,-0.851401150226593,-0.13425981998443604,-0.06419399380683899,0.8513240218162537,-0.027717413380742073,0.09397754522471544,0.6457785954510121,0.7495416310421404,0.11102058361196963
317.0,-1.1328182220458984,-2.373763084411621,-2.2914681434631348,-1.4044053554534912,-0.827886164188385,-0.14527975022792816,-0.06244591251015663,0.8533778786659241,-0.024462955072522163,0.10245103121678731,0.6414517720183722,0.7508202747179273,0.11963413162472972
318.0,-1.1325082778930664,-2.371466636657715,-2.289856195449829,-1.3924261331558228,-0.802992582321167,-0.15694548189640045,-0.060592617839574814,0.8554289937019348,-0.021182117983698845,0.1115267868137517,0.6369860331495361,0.751839063164465,0.12864133276438663
319.0,-1.1321983337402344,-2.369170665740967,-2.2882442474365234,-1.3804467916488647,-0.7780989408493042,-0.16861124336719513,-0.05876336991786957,0.8573737144470215,-0.017959093675017357,0.12072719044938102,0.6326028608663301,0.7525507488994105,0.1374988590529751
320.0,-1.1318883895874023,-2.3668742179870605,-2.2866322994232178,-1.3684674501419067,-0.7532052993774414,-0.1802770048379898,-0.0569613017141819,0.8592146039009094,-0.014796033501625061,0.13004685861806248,0.628305985042476,0.7529573278795946,0.14620077330779807
321.0,-1.1315886974334717,-2.364619016647339,-2.2848570346832275,-1.3555526733398438,-0.7263501882553101,-0.1928613781929016,-0.05501069128513336,0.8610663414001465,-0.011627091094851494,0.14019392735144465,0.6238300313506966,0.7530034995710866,0.15545894748281122
322.0,-1.1312910318374634,-2.3623716831207275,-2.283050298690796,-1.3424580097198486,-0.6991180181503296,-0.20562238991260529,-0.05306562781333923,0.8628256320953369,-0.008522501215338707,0.1506031333768161,0.6194132294086812,0.7526839354819514,0.16465977261612774
323.0,-1.1309932470321655,-2.3601245880126953,-2.281243324279785,-1.3293633460998535,-0.6718857288360596,-0.21838344633579254,-0.05116546154022217,0.8644727468490601,-0.00549989752471447,0.16113099583432677,0.6151144092146963,0.7520070901014962,0.17365598807692612
324.0,-1.1307005882263184,-2.3578927516937256,-2.279402494430542,-1.3160842657089233,-0.6442652344703674,-0.23132625222206116,-0.049277737736701965,0.8660296201705933,-0.0025572162121534348,0.17191526337133486,0.610891358986357,0.7509478305534405,0.1825766839518328
325.0,-1.1304289102554321,-2.355726480484009,-2.277419090270996,-1.3020356893539429,-0.6150269508361816,-0.2450265884399414,-0.04729793965816498,0.8675475120544434,0.0003078244626522064,0.1834161816118434,0.6066109841708714,0.7493893220394896,0.19182612496574142
326.0,-1.1301573514938354,-2.353559970855713,-2.2754359245300293,-1.287987232208252,-0.5857887268066406,-0.2587268650531769,-0.04538407176733017,0.8689524531364441,0.0030704624950885773,0.19502467243363783,0.6024815404740081,0.7474312979562622,0.20081789104966644
327.0,-1.1298857927322388,-2.351393461227417,-2.2734527587890625,-1.2739386558532715,-0.5565504431724548,-0.27242720127105713,-0.04354123771190643,0.8702497482299805,0.0057280343025922775,0.20673059794126758,0.5985087153134441,0.7450777836286938,0.20954444376229558
328.0,-1.1296361684799194,-2.3492889404296875,-2.2713825702667236,-1.2594558000564575,-0.5263946652412415,-0.28655704855918884,-0.04168960452079773,0.8714736700057983,0.00825628824532032,0.21887600869109586,0.5946094896020752,0.7422129890393219,0.21829504482679088
329.0,-1.1294046640396118,-2.3472354412078857,-2.2692410945892334,-1.244615077972412,-0.4954829812049866,-0.3010406792163849,-0.03985636681318283,0.8726165890693665,0.010647671297192574,0.23139392660173239,0.5908182771428986,0.738828841712835,0.22698580743958385
330.0,-1.1291732788085938,-2.345181941986084,-2.267099618911743,-1.2297744750976562,-0.46457144618034363,-0.31552428007125854,-0.03811950236558914,0.8736594915390015,0.012916665524244308,0.24398467669727758,0.5872169398430358,0.7350205799144456,0.23535609233783858
331.0,-1.1289417743682861,-2.3431286811828613,-2.264957904815674,-1.2149338722229004,-0.4336599111557007,-0.3300078809261322,-0.036484502255916595,0.8746097683906555,0.015062142163515091,0.25663602139223785,0.5838102692120487,0.7307948505177521,0.24339763462953917
332.0,-1.1287589073181152,-2.3412058353424072,-2.262690305709839,-1.199524164199829,-0.4015374779701233,-0.34505802392959595,-0.0348435714840889,0.8754965662956238,0.01699773222208023,0.2698022733332771,0.5805237885943098,0.7259238247524846,0.2514626509782887
333.0,-1.1285814046859741,-2.339297294616699,-2.260409116744995,-1.1840535402297974,-0.3692854344844818,-0.36016884446144104,-0.03331293165683746,0.8763010501861572,0.018789980560541153,0.28305607831344765,0.5774479379249939,0.7205910323811123,0.2591943278081266
334.0,-1.1284037828445435,-2.337388515472412,-2.2581279277801514,-1.168582797050476,-0.3370332717895508,-0.37527966499328613,-0.0319112092256546,0.8770281076431274,0.020448792725801468,0.29633350913556916,0.5745966060529033,0.7148282122823701,0.26654421509587267
335.0,-1.128243327140808,-2.335524797439575,-2.2558157444000244,-1.152991533279419,-0.3045211732387543,-0.39051204919815063,-0.030617021024227142,0.8776883482933044,0.02194005437195301,0.3097185676389622,0.5719646290317162,0.7085799700188451,0.27357868718957884
336.0,-1.1281318664550781,-2.3337907791137695,-2.2534148693084717,-1.1370527744293213,-0.2712613642215729,-0.4060940146446228,-0.029390886425971985,0.8782933354377747,0.023195484653115273,0.32338023979510805,0.5695456105986988,0.7017195641683229,0.28041517651730746
337.0,-1.1280204057693481,-2.332056760787964,-2.251013994216919,-1.1211142539978027,-0.23800165951251984,-0.4216759204864502,-0.02831965684890747,0.8788416385650635,0.024314384907484055,0.3370204430632051,0.5673750978057152,0.6944317358310279,0.28682273901861677
338.0,-1.1279090642929077,-2.330322504043579,-2.248613119125366,-1.1051756143569946,-0.2047419548034668,-0.4372578561306,-0.02740912139415741,0.8793417811393738,0.02530006133019924,0.35062377867427985,0.5654561031228656,0.686727319172276,0.2927933577998852
339.0,-1.1278400421142578,-2.3287041187286377,-2.246157169342041,-1.0890487432479858,-0.17106877267360687,-0.45303285121917725,-0.026614204049110413,0.87980055809021,0.02605919912457466,0.36432081011515305,0.5637944346993442,0.6784853884094244,0.29843552140118645
340.0,-1.1277979612350464,-2.3271589279174805,-2.243666172027588,-1.072803020477295,-0.13713465631008148,-0.4689296782016754,-0.025964409112930298,0.8802265524864197,0.026627816259860992,0.37803955138869166,0.5623971591049206,0.6697539614746489,0.30368596297090455
341.0,-1.127755880355835,-2.325613498687744,-2.2411751747131348,-1.056557297706604,-0.10320041328668594,-0.48482656478881836,-0.025497838854789734,0.8806285262107849,0.027070943266153336,0.3916705364369725,0.5612663611702031,0.6606249728326298,0.30846216619841804
342.0,-1.127713680267334,-2.324068069458008,-2.2386844158172607,-1.0403114557266235,-0.06926629692316055,-0.5007234215736389,-0.025219708681106567,0.8810147047042847,0.027394110336899757,0.4051968593234037,0.5604040325581932,0.6511108266691321,0.3127579205730922
343.0,-1.1277406215667725,-2.322715997695923,-2.2361366748809814,-1.0239239931106567,-0.035001885145902634,-0.5167738199234009,-0.025065317749977112,0.8813827633857727,0.027441946789622307,0.4186982784582681,0.5598340270138411,0.6410844780173007,0.31668328951625063
344.0,-1.127769947052002,-2.3213703632354736,-2.2335870265960693,-1.0075318813323975,-0.0007265948224812746,-0.5328292846679688,-0.02510926127433777,0.8817509412765503,0.02737482450902462,0.4320631105560223,0.5595370252636066,0.6306881010641604,0.32011295667606443
345.0,-1.127799153327942,-2.3200247287750244,-2.231037139892578,-0.9911396503448486,0.03354869782924652,-0.5488847494125366,-0.02535802125930786,0.8821279406547546,0.027205491438508034,0.44527139050383,0.5595123989732754,0.619940056765831,0.32303806309958916
346.0,-1.127851963043213,-2.3187472820281982,-2.2284786701202393,-0.9747521281242371,0.06782669574022293,-0.5649409294128418,-0.025790691375732422,0.8825143575668335,0.026887793093919754,0.45829652447938884,0.5597674554315605,0.6088397600399872,0.3254824697034233
347.0,-1.127954363822937,-2.3176121711730957,-2.2259016036987305,-0.9583743214607239,0.10211001336574554,-0.580998420715332,-0.026383906602859497,0.8829107284545898,0.026371125131845474,0.471110867908533,0.5603079899605459,0.5973857082087083,0.3274749183568437
348.0,-1.1280568838119507,-2.316477060317993,-2.2233242988586426,-0.9419965147972107,0.1363934427499771,-0.5970559120178223,-0.02719104290008545,0.8833375573158264,0.025776458904147148,0.4837203019273836,0.5611150388664052,0.585623392188106,0.32895261844729107
349.0,-1.1281592845916748,-2.3153421878814697,-2.220747232437134,-0.9256187081336975,0.17067676782608032,-0.6131134033203125,-0.028214052319526672,0.883800745010376,0.02511298470199108,0.49610880625885306,0.5621866693904394,0.5735675273104326,0.3299128562622212
350.0,-1.128312349319458,-2.314356565475464,-2.218172550201416,-0.9093595147132874,0.20473986864089966,-0.6290664076805115,-0.029392555356025696,0.8842871785163879,0.02428121119737625,0.5081600557213553,0.5635236421396506,0.5612842383787869,0.3304155962821328
351.0,-1.1284894943237305,-2.3134419918060303,-2.215599298477173,-0.893156886100769,0.23869796097278595,-0.6449695229530334,-0.030756711959838867,0.8848116993904114,0.02334856428205967,0.5199158441084716,0.5651148715687522,0.5487663217582156,0.33043641004097407
352.0,-1.128666639328003,-2.312527656555176,-2.2130258083343506,-0.876954197883606,0.27265602350234985,-0.6608726978302002,-0.03233674168586731,0.8853891491889954,0.022376224398612976,0.5314107842955309,0.5669540593909722,0.5360049747318592,0.3299459651779448
353.0,-1.1288461685180664,-2.3116204738616943,-2.210453748703003,-0.860762357711792,0.3065928816795349,-0.6767657995223999,-0.03412921726703644,0.886022686958313,0.02136944606900215,0.5426217854834247,0.5690369442077757,0.5230218640144975,0.32894784359873463
354.0,-1.129098653793335,-2.3109347820281982,-2.2079150676727295,-0.8448952436447144,0.3398923873901367,-0.6923582553863525,-0.03601597249507904,0.8866763710975647,0.020197279751300812,0.5533089300687408,0.5713262954809332,0.5100334051044467,0.32756895102524936
355.0,-1.129351019859314,-2.310249090194702,-2.205376386642456,-0.8290281295776367,0.3731917142868042,-0.7079506516456604,-0.03811007738113403,0.8873933553695679,0.019015584141016006,0.5637056146193296,0.5738392675486721,0.4968543159784855,0.3256996526854132
356.0,-1.1296035051345825,-2.309563159942627,-2.2028379440307617,-0.8131611347198486,0.4064910113811493,-0.7235430479049683,-0.040410757064819336,0.8881769180297852,0.017834171652793884,0.5737985622416889,0.5765715292730661,0.48349868899896675,0.32334115008357495
357.0,-1.1298826932907104,-2.3089637756347656,-2.200324773788452,-0.7974855899810791,0.4394058883190155,-0.7389543652534485,-0.04285445809364319,0.8890073299407959,0.016612231731414795,0.5834529288939179,0.5794859709792468,0.47012152414761105,0.3205689344532241
358.0,-1.130204439163208,-2.3085012435913086,-2.1978514194488525,-0.7821131944656372,0.47171226143836975,-0.7540791630744934,-0.04539388418197632,0.8898714780807495,0.015328589826822281,0.592599863515753,0.5825478271957885,0.45682539274552314,0.3174491948855366
359.0,-1.1305261850357056,-2.3080387115478516,-2.195378303527832,-0.7667409181594849,0.5040184259414673,-0.7692038416862488,-0.04812328517436981,0.8908050656318665,0.01407245546579361,0.6014282097971639,0.5857986179853296,0.4434030643403406,0.31387546919160836
360.0,-1.1308479309082031,-2.3075761795043945,-2.1929049491882324,-0.7513686418533325,0.5363246202468872,-0.7843285799026489,-0.05104091763496399,0.8918102383613586,0.012853182852268219,0.6099276846956385,0.5892327295532479,0.4298675882325864,0.30984974818796684
361.0,-1.1312106847763062,-2.3072612285614014,-2.1905012130737305,-0.7364797592163086,0.5676450133323669,-0.7989897131919861,-0.0539897084236145,0.8928321599960327,0.011604279279708862,0.6178273360993165,0.592732789479222,0.41662256231343636,0.30558609853196717
362.0,-1.1315877437591553,-2.3069980144500732,-2.188121795654297,-0.7217590808868408,0.5986225008964539,-0.8134896755218506,-0.05705443024635315,0.8939030766487122,0.010379098355770111,0.6253132806540124,0.5963518338191465,0.40343183356796214,0.30098263571550044
363.0,-1.1319648027420044,-2.306734561920166,-2.185742139816284,-0.7070383429527283,0.6296002268791199,-0.8279896974563599,-0.060284316539764404,0.8950422406196594,0.009211994707584381,0.6324717815231471,0.6001208120086358,0.39017219185181784,0.2959731698593309
364.0,-1.1323457956314087,-2.306487798690796,-2.1833746433258057,-0.6923958659172058,0.6604167222976685,-0.8424139618873596,-0.06365151703357697,0.8962399959564209,0.008103139698505402,0.6392576857693646,0.6040134827471881,0.37692097173208344,0.2905992169861277
365.0,-1.132763147354126,-2.306396722793579,-2.181116819381714,-0.678483247756958,0.6897296905517578,-0.8561322689056396,-0.06693817675113678,0.8974182605743408,0.00699528306722641,0.6453828190344935,0.6078405856386095,0.36424463791293443,0.28519586795267127
366.0,-1.1331804990768433,-2.3063056468963623,-2.178858995437622,-0.6645706295967102,0.7190427184104919,-0.8698505163192749,-0.07036364078521729,0.898656964302063,0.005959123373031616,0.6511947469588656,0.6117848228522301,0.3515361047416884,0.27944068981428777
367.0,-1.13359797000885,-2.3062145709991455,-2.1766011714935303,-0.6506579518318176,0.7483559250831604,-0.8835688829421997,-0.07392488420009613,0.8999557495117188,0.005001343786716461,0.6566876444542169,0.6158405342908568,0.3388048607708227,0.27333686224801007
